;PYCAM-META-DATA: Filename: C:\Users\Scott\Documents\sector67\heekscad\flask-end-3-stl.stl
;PYCAM-META-DATA: Timestamp: 2010-12-20 22:16:39.466000
;PYCAM-META-DATA: Version: 0.4.0.1
G40
G49
G80
G54
G90
G21
G61
F800.0000
S2000.0000
;PYCAM_TOOLPATH_SETTINGS: START
;[Bounds]
;maxz = 50.8
;maxx = 273.05
;maxy = 133.35
;minx = -19.05
;miny = -6.35
;minz = 0.0
;
;[Tool]
;torus_radius = 0.25
;speed = 2000.0
;shape = SphericalCutter
;tool_radius = 6.35
;feedrate = 800.0
;
;[Process]
;generator = DropCutter
;engrave_offset = 0.0
;milling_style = ignore
;path_direction = x
;overlap = 0.9
;postprocessor = PathAccumulator
;step_down = 3.0
;material_allowance = 0.0
;
;PYCAM_TOOLPATH_SETTINGS: END
G00 Z25.0000
T3 M6

G04 P2

 X-19.0500 Y-6.3500
G01 Z0.0000
 X273.0500
 Y-5.0914
 X257.8100
 X257.1750 Z21.1282
 X256.5400 Z21.8692
 X255.9050 Z22.3319
 X255.2700 Z22.6259
 X254.6350 Z22.7912
 X254.0000 Z22.8447
 X198.1200 Z22.8447
 X197.4850 Z22.9950
 X196.8500 Z23.0662
 X191.1350
 X190.5000 Z23.0661
 X189.8650 Z22.9950
 X189.2300 Z22.7793
 X188.5950 Z22.4121
 X187.9600 Z21.8807
 X187.3250 Z21.1282
 X186.6900 Z3.7947
 X67.3100
 X66.6750 Z21.1282
 X66.0400 Z21.8807
 X65.4050 Z22.4121
 X64.7700 Z22.7793
 X64.1350 Z22.9950
 X63.5000 Z23.0661
 X62.8650 Z23.0662
 X57.7850
 X57.1500 Z23.0661
 X56.5150 Z22.9950
 X55.8800 Z22.8447
 X0.0000 Z22.8447
 X-0.6350 Z22.7912
 X-1.2700 Z22.6259
 X-1.9050 Z22.3319
 X-2.5400 Z21.8692
 X-3.1750 Z21.1282
 X-3.8100 Z0.0000
 X-19.0500
 X-19.0500 Y-3.8329
 X-5.0800
 X-4.4450 Z21.4735
 X-3.8100 Z22.3840
 X-3.1750 Z22.9935
 X-2.5400 Z23.4295
 X-1.9050 Z23.7407
 X-1.2700 Z23.9509
 X-0.6350 Z24.0728
 X-0.0000 Z24.1128
 X53.9750 Z24.1128
 X54.6100 Z24.3979
 X55.2450 Z24.9292
 X55.8800 Z25.2964
 X56.5150 Z25.5121
 X57.1500 Z25.5833
 X57.7850 Z25.5833
 X58.4200 Z25.5833
 X63.5000
 X64.1350 Z25.5121
 X64.7700 Z25.2964
 X65.4050 Z24.9292
 X66.0400 Z24.3979
 X66.6750 Z23.6810
 X67.3100 Z22.7435
 X67.9450 Z21.5244
 X68.5800 Z5.0628
 X185.4200
 X186.0550 Z21.5244
 X186.6900 Z22.7435
 X187.3250 Z23.6810
 X187.9600 Z24.3979
 X188.5950 Z24.9292
 X189.2300 Z25.2964
 X189.8650 Z25.5121
 X190.5000 Z25.5833
 X191.1350 Z25.5833
 X191.7700 Z25.5833
 X196.8500
 X197.4850 Z25.5121
 X198.1200 Z25.2964
 X198.7550 Z24.9292
 X199.3900 Z24.3979
 X200.0250 Z24.1128
 X254.0000 Z24.1128
 X254.6350 Z24.0728
 X255.2700 Z23.9509
 X255.9050 Z23.7407
 X256.5400 Z23.4295
 X257.1750 Z22.9935
 X257.8100 Z22.3840
 X258.4450 Z21.4735
 X259.0800 Z0.0000
 X273.0500
 Y-2.5743
 X260.3500
 X259.7150 Z20.0669
 X259.0800 Z21.8587
 X258.4450 Z22.7833
 X257.8100 Z23.4294
 X257.1750 Z23.9095
 X256.5400 Z24.2696
 X255.9050 Z24.5333
 X255.2700 Z24.7141
 X254.6350 Z24.8199
 X254.0000 Z24.8548
 X201.2950
 X200.6600 Z25.2606
 X200.0250 Z26.1981
 X199.3900 Z26.9150
 X198.7550 Z27.4464
 X198.1200 Z27.8135
 X197.4850 Z28.0292
 X196.8500 Z28.1004
 X192.4050
 X191.7700 Z28.1004
 X191.1350
 X190.5000 Z28.1004
 X189.8650 Z28.0292
 X189.2300 Z27.8135
 X188.5950 Z27.4464
 X187.9600 Z26.9150
 X187.3250 Z26.1981
 X186.6900 Z25.2606
 X186.0550 Z24.0415
 X185.4200 Z22.4208
 X184.7850 Z20.0669
 X184.1500 Z5.8048
 X69.8500
 X69.2150 Z20.0669
 X68.5800 Z22.4208
 X67.9450 Z24.0415
 X67.3100 Z25.2606
 X66.6750 Z26.1981
 X66.0400 Z26.9150
 X65.4050 Z27.4464
 X64.7700 Z27.8135
 X64.1350 Z28.0292
 X63.5000 Z28.1004
 X59.0550 Z28.1004
 X58.4200 Z28.1004
 X57.7850
 X57.1500 Z28.1004
 X56.5150 Z28.0292
 X55.8800 Z27.8135
 X55.2450 Z27.4464
 X54.6100 Z26.9150
 X53.9750 Z26.1981
 X53.3400 Z25.2606
 X52.7050 Z24.8548
 X0.0000
 X-0.6350 Z24.8199
 X-1.2700 Z24.7141
 X-1.9050 Z24.5333
 X-2.5400 Z24.2696
 X-3.1750 Z23.9095
 X-3.8100 Z23.4294
 X-4.4450 Z22.7833
 X-5.0800 Z21.8587
 X-5.7150 Z20.0669
 X-6.3500 Z0.0000
 X-19.0500
 X-19.0500 Y-1.3158
 X-6.3500
 X-5.7150 Z21.4852
 X-5.0800 Z22.6256
 X-4.4450 Z23.3897
 X-3.8100 Z23.9566
 X-3.1750 Z24.3895
 X-2.5400 Z24.7192
 X-1.9050 Z24.9629
 X-1.2700 Z25.1310
 X-0.6350 Z25.2296
 X-0.0000 Z25.2622
 X52.0700 Z25.2622
 X52.7050 Z26.5586
 X53.3400 Z27.7777
 X53.9750 Z28.7152
 X54.6100 Z29.4321
 X55.2450 Z29.9635
 X55.8800 Z30.3306
 X56.5150 Z30.5463
 X57.1500 Z30.6175
 X57.7850 Z30.6175
 X59.0550
 X59.6900 Z30.6175
 X63.5000 Z30.6175
 X64.1350 Z30.5463
 X64.7700 Z30.3306
 X65.4050 Z29.9635
 X66.0400 Z29.4321
 X66.6750 Z28.7152
 X67.3100 Z27.7777
 X67.9450 Z26.5586
 X68.5800 Z24.9379
 X69.2150 Z22.6077
 X69.8500 Z6.2122
 X184.1500
 X184.7850 Z22.6077
 X185.4200 Z24.9379
 X186.0550 Z26.5586
 X186.6900 Z27.7777
 X187.3250 Z28.7152
 X187.9600 Z29.4321
 X188.5950 Z29.9635
 X189.2300 Z30.3306
 X189.8650 Z30.5463
 X190.5000 Z30.6175
 X191.1350 Z30.6175
 X192.4050
 X193.0400 Z30.6175
 X196.8500 Z30.6175
 X197.4850 Z30.5463
 X198.1200 Z30.3306
 X198.7550 Z29.9635
 X199.3900 Z29.4321
 X200.0250 Z28.7152
 X200.6600 Z27.7777
 X201.2950 Z26.5586
 X201.9300 Z25.2622
 X254.0000 Z25.2622
 X254.6350 Z25.2296
 X255.2700 Z25.1310
 X255.9050 Z24.9629
 X256.5400 Z24.7192
 X257.1750 Z24.3895
 X257.8100 Z23.9566
 X258.4450 Z23.3897
 X259.0800 Z22.6256
 X259.7150 Z21.4852
 X260.3500 Z0.0000
 X273.0500
 Y-0.0572
 X260.3500
 X259.7150 Z21.8173
 X259.0800 Z22.8596
 X258.4450 Z23.5844
 X257.8100 Z24.1297
 X257.1750 Z24.5490
 X256.5400 Z24.8696
 X255.9050 Z25.1072
 X255.2700 Z25.2714
 X254.6350 Z25.3679
 X254.0000 Z25.3997
 X202.5650
 X201.9300 Z27.4550
 X201.2950 Z29.0757
 X200.6600 Z30.2948
 X200.0250 Z31.2323
 X199.3900 Z31.9492
 X198.7550 Z32.4806
 X198.1200 Z32.8477
 X197.4850 Z33.0634
 X196.8500 Z33.1346
 X193.6750 Z33.1346
 X193.0400 Z33.1346
 X191.1350
 X190.5000 Z33.1346
 X189.8650 Z33.0634
 X189.2300 Z32.8477
 X188.5950 Z32.4806
 X187.9600 Z31.9492
 X187.3250 Z31.2323
 X186.6900 Z30.2948
 X186.0550 Z29.0757
 X185.4200 Z27.4550
 X184.7850 Z25.1248
 X184.1500 Z6.3497
 X69.8500
 X69.2150 Z25.1248
 X68.5800 Z27.4550
 X67.9450 Z29.0757
 X67.3100 Z30.2948
 X66.6750 Z31.2323
 X66.0400 Z31.9492
 X65.4050 Z32.4806
 X64.7700 Z32.8477
 X64.1350 Z33.0634
 X63.5000 Z33.1346
 X60.3250 Z33.1346
 X59.6900 Z33.1346
 X57.7850
 X57.1500 Z33.1346
 X56.5150 Z33.0634
 X55.8800 Z32.8477
 X55.2450 Z32.4806
 X54.6100 Z31.9492
 X53.9750 Z31.2323
 X53.3400 Z30.2948
 X52.7050 Z29.0757
 X52.0700 Z27.4550
 X51.4350 Z25.3997
 X0.0000
 X-0.6350 Z25.3679
 X-1.2700 Z25.2714
 X-1.9050 Z25.1072
 X-2.5400 Z24.8696
 X-3.1750 Z24.5490
 X-3.8100 Z24.1297
 X-4.4450 Z23.5844
 X-5.0800 Z22.8596
 X-5.7150 Z21.8173
 X-6.3500 Z0.0000
 X-19.0500
 X-19.0500 Y1.2014
 X-6.3500
 X-5.7150 Z21.8179
 X-5.0800 Z22.8600
 X-4.4450 Z23.5848
 X-3.8100 Z24.1300
 X-3.1750 Z24.5493
 X-2.5400 Z24.8699
 X-1.9050 Z25.1075
 X-1.2700 Z25.2717
 X-0.6350 Z25.3682
 X-0.0000 Z25.4000
 X50.8000 Z25.4000
 X51.4350 Z27.6419
 X52.0700 Z29.9721
 X52.7050 Z31.5928
 X53.3400 Z32.8119
 X53.9750 Z33.7494
 X54.6100 Z34.4663
 X55.2450 Z34.9977
 X55.8800 Z35.3649
 X56.5150 Z35.5806
 X57.1500 Z35.6517
 X60.3250 Z35.6517
 X60.9600 Z35.6517
 X63.5000 Z35.6517
 X64.1350 Z35.5806
 X64.7700 Z35.3649
 X65.4050 Z34.9977
 X66.0400 Z34.4663
 X66.6750 Z33.7494
 X67.3100 Z32.8119
 X67.9450 Z31.5928
 X68.5800 Z29.9721
 X69.2150 Z27.6419
 X69.8500 Z6.3500
 X184.1500
 X184.7850 Z27.6419
 X185.4200 Z29.9721
 X186.0550 Z31.5928
 X186.6900 Z32.8119
 X187.3250 Z33.7494
 X187.9600 Z34.4663
 X188.5950 Z34.9977
 X189.2300 Z35.3649
 X189.8650 Z35.5806
 X190.5000 Z35.6517
 X193.6750 Z35.6517
 X194.3100 Z35.6517
 X196.8500 Z35.6517
 X197.4850 Z35.5806
 X198.1200 Z35.3649
 X198.7550 Z34.9977
 X199.3900 Z34.4663
 X200.0250 Z33.7494
 X200.6600 Z32.8119
 X201.2950 Z31.5928
 X201.9300 Z29.9721
 X202.5650 Z27.6419
 X203.2000 Z25.4000
 X254.0000 Z25.4000
 X254.6350 Z25.3682
 X255.2700 Z25.2717
 X255.9050 Z25.1075
 X256.5400 Z24.8699
 X257.1750 Z24.5493
 X257.8100 Z24.1300
 X258.4450 Z23.5848
 X259.0800 Z22.8600
 X259.7150 Z21.8179
 X260.3500 Z0.0000
 X273.0500
 Y2.4599
 X260.3500
 X259.7150 Z21.8179
 X259.0800 Z22.8600
 X258.4450 Z23.5848
 X257.8100 Z24.1300
 X257.1750 Z24.5493
 X256.5400 Z24.8699
 X255.9050 Z25.1075
 X255.2700 Z25.2717
 X254.6350 Z25.3682
 X254.0000 Z25.4000
 X203.2000 Z25.4000
 X202.5650 Z30.1590
 X201.9300 Z32.4892
 X201.2950 Z34.1100
 X200.6600 Z35.3290
 X200.0250 Z36.2665
 X199.3900 Z36.9834
 X198.7550 Z37.5148
 X198.1200 Z37.8820
 X197.4850 Z38.0977
 X196.8500 Z38.1689
 X196.2150 Z38.1688
 X194.9450
 X194.3100 Z38.1689
 X190.5000 Z38.1689
 X189.8650 Z38.0977
 X189.2300 Z37.8820
 X188.5950 Z37.5148
 X187.9600 Z36.9834
 X187.3250 Z36.2665
 X186.6900 Z35.3290
 X186.0550 Z34.1100
 X185.4200 Z32.4892
 X184.7850 Z30.1590
 X184.1500 Z6.3500
 X69.8500
 X69.2150 Z30.1590
 X68.5800 Z32.4892
 X67.9450 Z34.1100
 X67.3100 Z35.3290
 X66.6750 Z36.2665
 X66.0400 Z36.9834
 X65.4050 Z37.5148
 X64.7700 Z37.8820
 X64.1350 Z38.0977
 X63.5000 Z38.1689
 X62.8650 Z38.1688
 X61.5950
 X60.9600 Z38.1689
 X57.1500 Z38.1689
 X56.5150 Z38.0977
 X55.8800 Z37.8820
 X55.2450 Z37.5148
 X54.6100 Z36.9834
 X53.9750 Z36.2665
 X53.3400 Z35.3290
 X52.7050 Z34.1100
 X52.0700 Z32.4892
 X51.4350 Z30.1590
 X50.8000 Z25.4000
 X0.0000 Z25.4000
 X-0.6350 Z25.3682
 X-1.2700 Z25.2717
 X-1.9050 Z25.1075
 X-2.5400 Z24.8699
 X-3.1750 Z24.5493
 X-3.8100 Z24.1300
 X-4.4450 Z23.5848
 X-5.0800 Z22.8600
 X-5.7150 Z21.8179
 X-6.3500 Z0.0000
 X-19.0500
 X-19.0500 Y3.7185
 X-6.3500
 X-5.7150 Z21.8179
 X-5.0800 Z22.8600
 X-4.4450 Z23.5848
 X-3.8100 Z24.1300
 X-3.1750 Z24.5493
 X-2.5400 Z24.8699
 X-1.9050 Z25.1075
 X-1.2700 Z25.2717
 X-0.6350 Z25.3682
 X-0.0000 Z25.4000
 X50.8000 Z25.4000
 X51.4350 Z32.6762
 X52.0700 Z35.0064
 X52.7050 Z36.6271
 X53.3400 Z37.8462
 X53.9750 Z38.7837
 X54.6100 Z39.5006
 X55.2450 Z40.0319
 X55.8800 Z40.3991
 X56.5150 Z40.6148
 X57.1500 Z40.6860
 X61.5950 Z40.6860
 X62.2300 Z40.6860
 X62.8650
 X63.5000 Z40.6860
 X64.1350 Z40.6148
 X64.7700 Z40.3991
 X65.4050 Z40.0319
 X66.0400 Z39.5006
 X66.6750 Z38.7837
 X67.3100 Z37.8462
 X67.9450 Z36.6271
 X68.5800 Z35.0064
 X69.2150 Z32.6762
 X69.8500 Z6.3500
 X184.1500
 X184.7850 Z32.6762
 X185.4200 Z35.0064
 X186.0550 Z36.6271
 X186.6900 Z37.8462
 X187.3250 Z38.7837
 X187.9600 Z39.5006
 X188.5950 Z40.0319
 X189.2300 Z40.3991
 X189.8650 Z40.6148
 X190.5000 Z40.6860
 X194.9450 Z40.6860
 X195.5800 Z40.6860
 X196.2150
 X196.8500 Z40.6860
 X197.4850 Z40.6148
 X198.1200 Z40.3991
 X198.7550 Z40.0319
 X199.3900 Z39.5006
 X200.0250 Z38.7837
 X200.6600 Z37.8462
 X201.2950 Z36.6271
 X201.9300 Z35.0064
 X202.5650 Z32.6762
 X203.2000 Z25.4000
 X254.0000 Z25.4000
 X254.6350 Z25.3682
 X255.2700 Z25.2717
 X255.9050 Z25.1075
 X256.5400 Z24.8699
 X257.1750 Z24.5493
 X257.8100 Z24.1300
 X258.4450 Z23.5848
 X259.0800 Z22.8600
 X259.7150 Z21.8179
 X260.3500 Z0.0000
 X273.0500
 Y4.9770
 X260.3500
 X259.7150 Z21.8179
 X259.0800 Z22.8600
 X258.4450 Z23.5848
 X257.8100 Z24.1300
 X257.1750 Z24.5493
 X256.5400 Z24.8699
 X255.9050 Z25.1075
 X255.2700 Z25.2717
 X254.6350 Z25.3682
 X254.0000 Z25.4000
 X203.2000 Z25.4000
 X202.5650 Z35.1933
 X201.9300 Z37.5235
 X201.2950 Z39.1442
 X200.6600 Z40.3633
 X200.0250 Z41.3008
 X199.3900 Z42.0177
 X198.7550 Z42.5491
 X198.1200 Z42.9162
 X197.4850 Z43.1319
 X196.8500 Z43.2031
 X196.2150 Z43.2031
 X195.5800 Z43.2031
 X190.5000 Z43.2031
 X189.8650 Z43.1319
 X189.2300 Z42.9162
 X188.5950 Z42.5491
 X187.9600 Z42.0177
 X187.3250 Z41.3008
 X186.6900 Z40.3633
 X186.0550 Z39.1442
 X185.4200 Z37.5235
 X184.7850 Z35.1933
 X184.1500 Z6.3500
 X69.8500
 X69.2150 Z35.1933
 X68.5800 Z37.5235
 X67.9450 Z39.1442
 X67.3100 Z40.3633
 X66.6750 Z41.3008
 X66.0400 Z42.0177
 X65.4050 Z42.5491
 X64.7700 Z42.9162
 X64.1350 Z43.1319
 X63.5000 Z43.2031
 X62.8650 Z43.2031
 X62.2300 Z43.2031
 X57.1500 Z43.2031
 X56.5150 Z43.1319
 X55.8800 Z42.9162
 X55.2450 Z42.5491
 X54.6100 Z42.0177
 X53.9750 Z41.3008
 X53.3400 Z40.3633
 X52.7050 Z39.1442
 X52.0700 Z37.5235
 X51.4350 Z35.1933
 X50.8000 Z25.4000
 X0.0000 Z25.4000
 X-0.6350 Z25.3682
 X-1.2700 Z25.2717
 X-1.9050 Z25.1075
 X-2.5400 Z24.8699
 X-3.1750 Z24.5493
 X-3.8100 Z24.1300
 X-4.4450 Z23.5848
 X-5.0800 Z22.8600
 X-5.7150 Z21.8179
 X-6.3500 Z0.0000
 X-19.0500
 X-19.0500 Y6.2356
 X-6.3500
 X-5.7150 Z21.8179
 X-5.0800 Z22.8600
 X-4.4450 Z23.5848
 X-3.8100 Z24.1300
 X-3.1750 Z24.5493
 X-2.5400 Z24.8699
 X-1.9050 Z25.1075
 X-1.2700 Z25.2717
 X-0.6350 Z25.3682
 X-0.0000 Z25.4000
 X50.8000 Z25.4000
 X51.4350 Z37.7104
 X52.0700 Z40.0406
 X52.7050 Z41.6613
 X53.3400 Z42.8804
 X53.9750 Z43.8179
 X54.6100 Z44.5348
 X55.2450 Z45.0662
 X55.8800 Z45.4333
 X56.5150 Z45.6490
 X57.1500 Z45.7202
 X57.7850 Z45.7202
 X62.8650
 X63.5000 Z45.7202
 X64.1350 Z45.6490
 X64.7700 Z45.4333
 X65.4050 Z45.0662
 X66.0400 Z44.5348
 X66.6750 Z43.8179
 X67.3100 Z42.8804
 X67.9450 Z41.6613
 X68.5800 Z40.0406
 X69.2150 Z37.7104
 X69.8500 Z6.3500
 X184.1500
 X184.7850 Z37.7104
 X185.4200 Z40.0406
 X186.0550 Z41.6613
 X186.6900 Z42.8804
 X187.3250 Z43.8179
 X187.9600 Z44.5348
 X188.5950 Z45.0662
 X189.2300 Z45.4333
 X189.8650 Z45.6490
 X190.5000 Z45.7202
 X191.1350 Z45.7202
 X196.2150
 X196.8500 Z45.7202
 X197.4850 Z45.6490
 X198.1200 Z45.4333
 X198.7550 Z45.0662
 X199.3900 Z44.5348
 X200.0250 Z43.8179
 X200.6600 Z42.8804
 X201.2950 Z41.6613
 X201.9300 Z40.0406
 X202.5650 Z37.7104
 X203.2000 Z25.4000
 X254.0000 Z25.4000
 X254.6350 Z25.3682
 X255.2700 Z25.2717
 X255.9050 Z25.1075
 X256.5400 Z24.8699
 X257.1750 Z24.5493
 X257.8100 Z24.1300
 X258.4450 Z23.5848
 X259.0800 Z22.8600
 X259.7150 Z21.8179
 X260.3500 Z0.0000
 X273.0500
 Y7.4941
 X260.3500
 X259.7150 Z21.8179
 X259.0800 Z22.8600
 X258.4450 Z23.5848
 X257.8100 Z24.1300
 X257.1750 Z24.5493
 X256.5400 Z24.8699
 X255.9050 Z25.1075
 X255.2700 Z25.2717
 X254.6350 Z25.3682
 X254.0000 Z25.4000
 X247.6500
 X247.0150 Z25.3682
 X246.3800 Z25.2961
 X203.2000
 X202.5650 Z40.2275
 X201.9300 Z42.5577
 X201.2950 Z44.1784
 X200.6600 Z45.3975
 X200.0250 Z46.3350
 X199.3900 Z47.0519
 X198.7550 Z47.5472
 X198.1200 Z47.8571
 X197.4850 Z48.0303
 X196.8500 Z48.0861
 X57.1500
 X56.5150 Z48.0303
 X55.8800 Z47.8571
 X55.2450 Z47.5472
 X54.6100 Z47.0519
 X53.9750 Z46.3350
 X53.3400 Z45.3975
 X52.7050 Z44.1784
 X52.0700 Z42.5577
 X51.4350 Z40.2275
 X50.8000 Z25.2961
 X7.6200
 X6.9850 Z25.3682
 X6.3500 Z25.4000
 X0.0000
 X-0.6350 Z25.3682
 X-1.2700 Z25.2717
 X-1.9050 Z25.1075
 X-2.5400 Z24.8699
 X-3.1750 Z24.5493
 X-3.8100 Z24.1300
 X-4.4450 Z23.5848
 X-5.0800 Z22.8600
 X-5.7150 Z21.8179
 X-6.3500 Z0.0000
 X-19.0500
 X-19.0500 Y8.7527
 X-6.3500
 X-5.7150 Z21.8179
 X-5.0800 Z22.8600
 X-4.4450 Z23.5848
 X-3.8100 Z24.1300
 X-3.1750 Z24.5493
 X-2.5400 Z24.8699
 X-1.9050 Z25.1075
 X-1.2700 Z25.2717
 X-0.6350 Z25.3682
 X-0.0000 Z25.4000
 X6.3500
 X6.9850 Z25.3682
 X7.6200 Z25.2717
 X8.2550 Z25.1075
 X8.8900 Z24.9279
 X50.8000
 X51.4350 Z42.7446
 X52.0700 Z45.0748
 X52.7050 Z46.6823
 X53.3400 Z47.6477
 X53.9750 Z48.2789
 X54.6100 Z48.7267
 X55.2450 Z49.0448
 X55.8800 Z49.2592
 X56.5150 Z49.3834
 X57.1500 Z49.4241
 X196.8500
 X197.4850 Z49.3834
 X198.1200 Z49.2592
 X198.7550 Z49.0448
 X199.3900 Z48.7267
 X200.0250 Z48.2789
 X200.6600 Z47.6477
 X201.2950 Z46.6823
 X201.9300 Z45.0748
 X202.5650 Z42.7446
 X203.2000 Z24.9279
 X245.1100
 X245.7450 Z25.1075
 X246.3800 Z25.2717
 X247.0150 Z25.3682
 X247.6500 Z25.4000
 X254.0000
 X254.6350 Z25.3682
 X255.2700 Z25.2717
 X255.9050 Z25.1075
 X256.5400 Z24.8699
 X257.1750 Z24.5493
 X257.8100 Z24.1300
 X258.4450 Z23.5848
 X259.0800 Z22.8600
 X259.7150 Z21.8179
 X260.3500 Z0.0000
 X273.0500
 Y10.0113
 X260.3500
 X259.7150 Z21.8179
 X259.0800 Z22.8600
 X258.4450 Z23.5848
 X257.8100 Z24.1300
 X257.1750 Z24.5493
 X256.5400 Z24.8699
 X255.9050 Z25.1075
 X255.2700 Z25.2717
 X254.6350 Z25.3682
 X254.0000 Z25.4000
 X247.6500
 X247.0150 Z25.3682
 X246.3800 Z25.2717
 X245.7450 Z25.1075
 X245.1100 Z24.8699
 X244.4750 Z24.5493
 X243.8400 Z24.2382
 X203.2000
 X202.5650 Z45.2617
 X201.9300 Z47.1494
 X201.2950 Z48.1017
 X200.6600 Z48.7601
 X200.0250 Z49.2471
 X199.3900 Z49.6115
 X198.7550 Z49.8781
 X198.1200 Z50.0607
 X197.4850 Z50.1675
 X196.8500 Z50.2027
 X57.1500
 X56.5150 Z50.1675
 X55.8800 Z50.0607
 X55.2450 Z49.8781
 X54.6100 Z49.6115
 X53.9750 Z49.2471
 X53.3400 Z48.7601
 X52.7050 Z48.1017
 X52.0700 Z47.1494
 X51.4350 Z45.2617
 X50.8000 Z24.2382
 X10.1600
 X9.5250 Z24.5493
 X8.8900 Z24.8699
 X8.2550 Z25.1075
 X7.6200 Z25.2717
 X6.9850 Z25.3682
 X6.3500 Z25.4000
 X0.0000
 X-0.6350 Z25.3682
 X-1.2700 Z25.2717
 X-1.9050 Z25.1075
 X-2.5400 Z24.8699
 X-3.1750 Z24.5493
 X-3.8100 Z24.1300
 X-4.4450 Z23.5848
 X-5.0800 Z22.8600
 X-5.7150 Z21.8179
 X-6.3500 Z0.0000
 X-19.0500
 X-19.0500 Y11.2698
 X-6.3500
 X-5.7150 Z21.8179
 X-5.0800 Z22.8600
 X-4.4450 Z23.5848
 X-3.8100 Z24.1300
 X-3.1750 Z24.5493
 X-2.5400 Z24.8699
 X-1.9050 Z25.1075
 X-1.2700 Z25.2717
 X-0.6350 Z25.3682
 X-0.0000 Z25.4000
 X6.3500
 X6.9850 Z25.3682
 X7.6200 Z25.2717
 X8.2550 Z25.1075
 X8.8900 Z24.8699
 X9.5250 Z24.5493
 X10.1600 Z24.1300
 X10.7950 Z23.5848
 X11.4300 Z23.0647
 X50.8000
 X51.4350 Z46.8198
 X52.0700 Z47.9814
 X52.7050 Z48.7534
 X53.3400 Z49.3245
 X53.9750 Z49.7600
 X54.6100 Z50.0914
 X55.2450 Z50.3363
 X55.8800 Z50.5051
 X56.5150 Z50.6042
 X57.1500 Z50.6368
 X196.8500
 X197.4850 Z50.6042
 X198.1200 Z50.5051
 X198.7550 Z50.3363
 X199.3900 Z50.0914
 X200.0250 Z49.7600
 X200.6600 Z49.3245
 X201.2950 Z48.7534
 X201.9300 Z47.9814
 X202.5650 Z46.8198
 X203.2000 Z23.0647
 X242.5700
 X243.2050 Z23.5848
 X243.8400 Z24.1300
 X244.4750 Z24.5493
 X245.1100 Z24.8699
 X245.7450 Z25.1075
 X246.3800 Z25.2717
 X247.0150 Z25.3682
 X247.6500 Z25.4000
 X254.0000
 X254.6350 Z25.3682
 X255.2700 Z25.2717
 X255.9050 Z25.1075
 X256.5400 Z24.8699
 X257.1750 Z24.5493
 X257.8100 Z24.1300
 X258.4450 Z23.5848
 X259.0800 Z22.8600
 X259.7150 Z21.8179
 X260.3500 Z0.0000
 X273.0500
 Y12.5284
 X260.3500
 X259.7150 Z21.8179
 X259.0800 Z22.8600
 X258.4450 Z23.5848
 X257.8100 Z24.1300
 X257.1750 Z24.5493
 X256.5400 Z24.8699
 X255.9050 Z25.1075
 X255.2700 Z25.2717
 X254.6350 Z25.3682
 X254.0000 Z25.4000
 X247.6500
 X247.0150 Z25.3682
 X246.3800 Z25.2717
 X245.7450 Z25.1075
 X245.1100 Z24.8699
 X244.4750 Z24.5493
 X243.8400 Z24.1300
 X243.2050 Z23.5848
 X242.5700 Z22.8600
 X241.9350 Z21.8179
 X241.3000 Z20.5163
 X203.2000
 X202.5650 Z47.2126
 X201.9300 Z48.2561
 X201.2950 Z48.9816
 X200.6600 Z49.5271
 X200.0250 Z49.9466
 X199.3900 Z50.2673
 X198.7550 Z50.5051
 X198.1200 Z50.6693
 X197.4850 Z50.7658
 X196.8500 Z50.7977
 X57.1500
 X56.5150 Z50.7658
 X55.8800 Z50.6693
 X55.2450 Z50.5051
 X54.6100 Z50.2673
 X53.9750 Z49.9466
 X53.3400 Z49.5271
 X52.7050 Z48.9816
 X52.0700 Z48.2561
 X51.4350 Z47.2126
 X50.8000 Z20.5163
 X12.7000
 X12.0650 Z21.8179
 X11.4300 Z22.8600
 X10.7950 Z23.5848
 X10.1600 Z24.1300
 X9.5250 Z24.5493
 X8.8900 Z24.8699
 X8.2550 Z25.1075
 X7.6200 Z25.2717
 X6.9850 Z25.3682
 X6.3500 Z25.4000
 X0.0000
 X-0.6350 Z25.3682
 X-1.2700 Z25.2717
 X-1.9050 Z25.1075
 X-2.5400 Z24.8699
 X-3.1750 Z24.5493
 X-3.8100 Z24.1300
 X-4.4450 Z23.5848
 X-5.0800 Z22.8600
 X-5.7150 Z21.8179
 X-6.3500 Z0.0000
 X-19.0500
 X-19.0500 Y13.7869
 X-6.3500
 X-5.7150 Z21.8179
 X-5.0800 Z22.8600
 X-4.4450 Z23.5848
 X-3.8100 Z24.1300
 X-3.1750 Z24.5493
 X-2.5400 Z24.8699
 X-1.9050 Z25.1075
 X-1.2700 Z25.2717
 X-0.6350 Z25.3682
 X-0.0000 Z25.4000
 X6.3500
 X6.9850 Z25.3682
 X7.6200 Z25.2717
 X8.2550 Z25.1075
 X8.8900 Z24.8699
 X9.5250 Z24.5493
 X10.1600 Z24.1300
 X10.7950 Z23.5848
 X11.4300 Z22.8600
 X12.0650 Z21.8179
 X12.7000 Z6.3500
 X50.8000
 X51.4350 Z47.2179
 X52.0700 Z48.2600
 X52.7050 Z48.9848
 X53.3400 Z49.5300
 X53.9750 Z49.9493
 X54.6100 Z50.2699
 X55.2450 Z50.5075
 X55.8800 Z50.6717
 X56.5150 Z50.7682
 X57.1500 Z50.8000
 X196.8500
 X197.4850 Z50.7682
 X198.1200 Z50.6717
 X198.7550 Z50.5075
 X199.3900 Z50.2699
 X200.0250 Z49.9493
 X200.6600 Z49.5300
 X201.2950 Z48.9848
 X201.9300 Z48.2600
 X202.5650 Z47.2179
 X203.2000 Z6.3500
 X241.3000
 X241.9350 Z21.8179
 X242.5700 Z22.8600
 X243.2050 Z23.5848
 X243.8400 Z24.1300
 X244.4750 Z24.5493
 X245.1100 Z24.8699
 X245.7450 Z25.1075
 X246.3800 Z25.2717
 X247.0150 Z25.3682
 X247.6500 Z25.4000
 X254.0000
 X254.6350 Z25.3682
 X255.2700 Z25.2717
 X255.9050 Z25.1075
 X256.5400 Z24.8699
 X257.1750 Z24.5493
 X257.8100 Z24.1300
 X258.4450 Z23.5848
 X259.0800 Z22.8600
 X259.7150 Z21.8179
 X260.3500 Z0.0000
 X273.0500
 Y15.0455
 X260.3500
 X259.7150 Z21.8179
 X259.0800 Z22.8600
 X258.4450 Z23.5848
 X257.8100 Z24.1300
 X257.1750 Z24.5493
 X256.5400 Z24.8699
 X255.9050 Z25.1075
 X255.2700 Z25.2717
 X254.6350 Z25.3682
 X254.0000 Z25.4000
 X247.6500
 X247.0150 Z25.3682
 X246.3800 Z25.2717
 X245.7450 Z25.1075
 X245.1100 Z24.8699
 X244.4750 Z24.5493
 X243.8400 Z24.1300
 X243.2050 Z23.5848
 X242.5700 Z22.8600
 X241.9350 Z21.8179
 X241.3000 Z6.3500
 X203.2000
 X202.5650 Z47.2179
 X201.9300 Z48.2600
 X201.2950 Z48.9848
 X200.6600 Z49.5300
 X200.0250 Z49.9493
 X199.3900 Z50.2699
 X198.7550 Z50.5075
 X198.1200 Z50.6717
 X197.4850 Z50.7682
 X196.8500 Z50.8000
 X57.1500
 X56.5150 Z50.7682
 X55.8800 Z50.6717
 X55.2450 Z50.5075
 X54.6100 Z50.2699
 X53.9750 Z49.9493
 X53.3400 Z49.5300
 X52.7050 Z48.9848
 X52.0700 Z48.2600
 X51.4350 Z47.2179
 X50.8000 Z6.3500
 X12.7000
 X12.0650 Z21.8179
 X11.4300 Z22.8600
 X10.7950 Z23.5848
 X10.1600 Z24.1300
 X9.5250 Z24.5493
 X8.8900 Z24.8699
 X8.2550 Z25.1075
 X7.6200 Z25.2717
 X6.9850 Z25.3682
 X6.3500 Z25.4000
 X0.0000
 X-0.6350 Z25.3682
 X-1.2700 Z25.2717
 X-1.9050 Z25.1075
 X-2.5400 Z24.8699
 X-3.1750 Z24.5493
 X-3.8100 Z24.1300
 X-4.4450 Z23.5848
 X-5.0800 Z22.8600
 X-5.7150 Z21.8179
 X-6.3500 Z0.0000
 X-19.0500
 X-19.0500 Y16.3041
 X-6.3500
 X-5.7150 Z21.8179
 X-5.0800 Z22.8600
 X-4.4450 Z23.5848
 X-3.8100 Z24.1300
 X-3.1750 Z24.5493
 X-2.5400 Z24.8699
 X-1.9050 Z25.1075
 X-1.2700 Z25.2717
 X-0.6350 Z25.3682
 X-0.0000 Z25.4000
 X6.3500
 X6.9850 Z25.3682
 X7.6200 Z25.2717
 X8.2550 Z25.1075
 X8.8900 Z24.8699
 X9.5250 Z24.5493
 X10.1600 Z24.1300
 X10.7950 Z23.5848
 X11.4300 Z22.8600
 X12.0650 Z21.8179
 X12.7000 Z6.3500
 X50.8000
 X51.4350 Z47.2179
 X52.0700 Z48.2600
 X52.7050 Z48.9848
 X53.3400 Z49.5300
 X53.9750 Z49.9493
 X54.6100 Z50.2699
 X55.2450 Z50.5075
 X55.8800 Z50.6717
 X56.5150 Z50.7682
 X57.1500 Z50.8000
 X196.8500
 X197.4850 Z50.7682
 X198.1200 Z50.6717
 X198.7550 Z50.5075
 X199.3900 Z50.2699
 X200.0250 Z49.9493
 X200.6600 Z49.5300
 X201.2950 Z48.9848
 X201.9300 Z48.2600
 X202.5650 Z47.2179
 X203.2000 Z6.3500
 X241.3000
 X241.9350 Z21.8179
 X242.5700 Z22.8600
 X243.2050 Z23.5848
 X243.8400 Z24.1300
 X244.4750 Z24.5493
 X245.1100 Z24.8699
 X245.7450 Z25.1075
 X246.3800 Z25.2717
 X247.0150 Z25.3682
 X247.6500 Z25.4000
 X254.0000
 X254.6350 Z25.3682
 X255.2700 Z25.2717
 X255.9050 Z25.1075
 X256.5400 Z24.8699
 X257.1750 Z24.5493
 X257.8100 Z24.1300
 X258.4450 Z23.5848
 X259.0800 Z22.8600
 X259.7150 Z21.8179
 X260.3500 Z0.0000
 X273.0500
 Y17.5626
 X260.3500
 X259.7150 Z21.8179
 X259.0800 Z22.8600
 X258.4450 Z23.5848
 X257.8100 Z24.1300
 X257.1750 Z24.5493
 X256.5400 Z24.8699
 X255.9050 Z25.1075
 X255.2700 Z25.2717
 X254.6350 Z25.3682
 X254.0000 Z25.4000
 X247.6500
 X247.0150 Z25.3682
 X246.3800 Z25.2717
 X245.7450 Z25.1075
 X245.1100 Z24.8699
 X244.4750 Z24.5493
 X243.8400 Z24.1300
 X243.2050 Z23.5848
 X242.5700 Z22.8600
 X241.9350 Z21.8179
 X241.3000 Z6.3500
 X203.2000
 X202.5650 Z47.2179
 X201.9300 Z48.2600
 X201.2950 Z48.9848
 X200.6600 Z49.5300
 X200.0250 Z49.9493
 X199.3900 Z50.2699
 X198.7550 Z50.5075
 X198.1200 Z50.6717
 X197.4850 Z50.7682
 X196.8500 Z50.8000
 X57.1500
 X56.5150 Z50.7682
 X55.8800 Z50.6717
 X55.2450 Z50.5075
 X54.6100 Z50.2699
 X53.9750 Z49.9493
 X53.3400 Z49.5300
 X52.7050 Z48.9848
 X52.0700 Z48.2600
 X51.4350 Z47.2179
 X50.8000 Z6.3500
 X12.7000
 X12.0650 Z21.8179
 X11.4300 Z22.8600
 X10.7950 Z23.5848
 X10.1600 Z24.1300
 X9.5250 Z24.5493
 X8.8900 Z24.8699
 X8.2550 Z25.1075
 X7.6200 Z25.2717
 X6.9850 Z25.3682
 X6.3500 Z25.4000
 X0.0000
 X-0.6350 Z25.3682
 X-1.2700 Z25.2717
 X-1.9050 Z25.1075
 X-2.5400 Z24.8699
 X-3.1750 Z24.5493
 X-3.8100 Z24.1300
 X-4.4450 Z23.5848
 X-5.0800 Z22.8600
 X-5.7150 Z21.8179
 X-6.3500 Z0.0000
 X-19.0500
 X-19.0500 Y18.8212
 X-6.3500
 X-5.7150 Z21.8179
 X-5.0800 Z22.8600
 X-4.4450 Z23.5848
 X-3.8100 Z24.1300
 X-3.1750 Z24.5493
 X-2.5400 Z24.8699
 X-1.9050 Z25.1075
 X-1.2700 Z25.2717
 X-0.6350 Z25.3682
 X-0.0000 Z25.4000
 X6.3500
 X6.9850 Z25.3682
 X7.6200 Z25.2717
 X8.2550 Z25.1075
 X8.8900 Z24.8699
 X9.5250 Z24.5493
 X10.1600 Z24.1300
 X10.7950 Z23.5848
 X11.4300 Z22.8600
 X12.0650 Z21.8179
 X12.7000 Z6.3500
 X50.8000
 X51.4350 Z47.2179
 X52.0700 Z48.2600
 X52.7050 Z48.9848
 X53.3400 Z49.5300
 X53.9750 Z49.9493
 X54.6100 Z50.2699
 X55.2450 Z50.5075
 X55.8800 Z50.6717
 X56.5150 Z50.7682
 X57.1500 Z50.8000
 X196.8500
 X197.4850 Z50.7682
 X198.1200 Z50.6717
 X198.7550 Z50.5075
 X199.3900 Z50.2699
 X200.0250 Z49.9493
 X200.6600 Z49.5300
 X201.2950 Z48.9848
 X201.9300 Z48.2600
 X202.5650 Z47.2179
 X203.2000 Z6.3500
 X241.3000
 X241.9350 Z21.8179
 X242.5700 Z22.8600
 X243.2050 Z23.5848
 X243.8400 Z24.1300
 X244.4750 Z24.5493
 X245.1100 Z24.8699
 X245.7450 Z25.1075
 X246.3800 Z25.2717
 X247.0150 Z25.3682
 X247.6500 Z25.4000
 X254.0000
 X254.6350 Z25.3682
 X255.2700 Z25.2717
 X255.9050 Z25.1075
 X256.5400 Z24.8699
 X257.1750 Z24.5493
 X257.8100 Z24.1300
 X258.4450 Z23.5848
 X259.0800 Z22.8600
 X259.7150 Z21.8179
 X260.3500 Z0.0000
 X273.0500
 Y20.0797
 X260.3500
 X259.7150 Z21.8179
 X259.0800 Z22.8600
 X258.4450 Z23.5848
 X257.8100 Z24.1300
 X257.1750 Z24.5493
 X256.5400 Z24.8699
 X255.9050 Z25.1075
 X255.2700 Z25.2717
 X254.6350 Z25.3682
 X254.0000 Z25.4000
 X247.6500
 X247.0150 Z25.3682
 X246.3800 Z25.2717
 X245.7450 Z25.1075
 X245.1100 Z24.8699
 X244.4750 Z24.5493
 X243.8400 Z24.1300
 X243.2050 Z23.5848
 X242.5700 Z22.8600
 X241.9350 Z21.8179
 X241.3000 Z6.3500
 X203.2000
 X202.5650 Z47.2179
 X201.9300 Z48.2600
 X201.2950 Z48.9848
 X200.6600 Z49.5300
 X200.0250 Z49.9493
 X199.3900 Z50.2699
 X198.7550 Z50.5075
 X198.1200 Z50.6717
 X197.4850 Z50.7682
 X196.8500 Z50.8000
 X57.1500
 X56.5150 Z50.7682
 X55.8800 Z50.6717
 X55.2450 Z50.5075
 X54.6100 Z50.2699
 X53.9750 Z49.9493
 X53.3400 Z49.5300
 X52.7050 Z48.9848
 X52.0700 Z48.2600
 X51.4350 Z47.2179
 X50.8000 Z6.3500
 X12.7000
 X12.0650 Z21.8179
 X11.4300 Z22.8600
 X10.7950 Z23.5848
 X10.1600 Z24.1300
 X9.5250 Z24.5493
 X8.8900 Z24.8699
 X8.2550 Z25.1075
 X7.6200 Z25.2717
 X6.9850 Z25.3682
 X6.3500 Z25.4000
 X0.0000
 X-0.6350 Z25.3682
 X-1.2700 Z25.2717
 X-1.9050 Z25.1075
 X-2.5400 Z24.8699
 X-3.1750 Z24.5493
 X-3.8100 Z24.1300
 X-4.4450 Z23.5848
 X-5.0800 Z22.8600
 X-5.7150 Z21.8179
 X-6.3500 Z0.0000
 X-19.0500
 X-19.0500 Y21.3383
 X-6.3500
 X-5.7150 Z21.8179
 X-5.0800 Z22.8600
 X-4.4450 Z23.5848
 X-3.8100 Z24.1300
 X-3.1750 Z24.5493
 X-2.5400 Z24.8699
 X-1.9050 Z25.1075
 X-1.2700 Z25.2717
 X-0.6350 Z25.3682
 X-0.0000 Z25.4000
 X6.3500
 X6.9850 Z25.3682
 X7.6200 Z25.2717
 X8.2550 Z25.1075
 X8.8900 Z24.8699
 X9.5250 Z24.5493
 X10.1600 Z24.1300
 X10.7950 Z23.5848
 X11.4300 Z22.8600
 X12.0650 Z21.8179
 X12.7000 Z6.3500
 X50.8000
 X51.4350 Z47.2179
 X52.0700 Z48.2600
 X52.7050 Z48.9848
 X53.3400 Z49.5300
 X53.9750 Z49.9493
 X54.6100 Z50.2699
 X55.2450 Z50.5075
 X55.8800 Z50.6717
 X56.5150 Z50.7682
 X57.1500 Z50.8000
 X196.8500
 X197.4850 Z50.7682
 X198.1200 Z50.6717
 X198.7550 Z50.5075
 X199.3900 Z50.2699
 X200.0250 Z49.9493
 X200.6600 Z49.5300
 X201.2950 Z48.9848
 X201.9300 Z48.2600
 X202.5650 Z47.2179
 X203.2000 Z6.3500
 X241.3000
 X241.9350 Z21.8179
 X242.5700 Z22.8600
 X243.2050 Z23.5848
 X243.8400 Z24.1300
 X244.4750 Z24.5493
 X245.1100 Z24.8699
 X245.7450 Z25.1075
 X246.3800 Z25.2717
 X247.0150 Z25.3682
 X247.6500 Z25.4000
 X254.0000
 X254.6350 Z25.3682
 X255.2700 Z25.2717
 X255.9050 Z25.1075
 X256.5400 Z24.8699
 X257.1750 Z24.5493
 X257.8100 Z24.1300
 X258.4450 Z23.5848
 X259.0800 Z22.8600
 X259.7150 Z21.8179
 X260.3500 Z0.0000
 X273.0500
 Y22.5968
 X260.3500
 X259.7150 Z21.8179
 X259.0800 Z22.8600
 X258.4450 Z23.5848
 X257.8100 Z24.1300
 X257.1750 Z24.5493
 X256.5400 Z24.8699
 X255.9050 Z25.1075
 X255.2700 Z25.2717
 X254.6350 Z25.3682
 X254.0000 Z25.4000
 X247.6500
 X247.0150 Z25.3682
 X246.3800 Z25.2717
 X245.7450 Z25.1075
 X245.1100 Z24.8699
 X244.4750 Z24.5493
 X243.8400 Z24.1300
 X243.2050 Z23.5848
 X242.5700 Z22.8600
 X241.9350 Z21.8179
 X241.3000 Z6.3500
 X203.2000
 X202.5650 Z47.2179
 X201.9300 Z48.2600
 X201.2950 Z48.9848
 X200.6600 Z49.5300
 X200.0250 Z49.9493
 X199.3900 Z50.2699
 X198.7550 Z50.5075
 X198.1200 Z50.6717
 X197.4850 Z50.7682
 X196.8500 Z50.8000
 X57.1500
 X56.5150 Z50.7682
 X55.8800 Z50.6717
 X55.2450 Z50.5075
 X54.6100 Z50.2699
 X53.9750 Z49.9493
 X53.3400 Z49.5300
 X52.7050 Z48.9848
 X52.0700 Z48.2600
 X51.4350 Z47.2179
 X50.8000 Z6.3500
 X12.7000
 X12.0650 Z21.8179
 X11.4300 Z22.8600
 X10.7950 Z23.5848
 X10.1600 Z24.1300
 X9.5250 Z24.5493
 X8.8900 Z24.8699
 X8.2550 Z25.1075
 X7.6200 Z25.2717
 X6.9850 Z25.3682
 X6.3500 Z25.4000
 X0.0000
 X-0.6350 Z25.3682
 X-1.2700 Z25.2717
 X-1.9050 Z25.1075
 X-2.5400 Z24.8699
 X-3.1750 Z24.5493
 X-3.8100 Z24.1300
 X-4.4450 Z23.5848
 X-5.0800 Z22.8600
 X-5.7150 Z21.8179
 X-6.3500 Z0.0000
 X-19.0500
 X-19.0500 Y23.8554
 X-6.3500
 X-5.7150 Z21.8179
 X-5.0800 Z22.8600
 X-4.4450 Z23.5848
 X-3.8100 Z24.1300
 X-3.1750 Z24.5493
 X-2.5400 Z24.8699
 X-1.9050 Z25.1075
 X-1.2700 Z25.2717
 X-0.6350 Z25.3682
 X-0.0000 Z25.4000
 X6.3500
 X6.9850 Z25.3682
 X7.6200 Z25.2717
 X8.2550 Z25.1075
 X8.8900 Z24.8699
 X9.5250 Z24.5493
 X10.1600 Z24.1300
 X10.7950 Z23.5848
 X11.4300 Z22.8600
 X12.0650 Z21.8179
 X12.7000 Z6.3500
 X50.8000
 X51.4350 Z47.2179
 X52.0700 Z48.2600
 X52.7050 Z48.9848
 X53.3400 Z49.5300
 X53.9750 Z49.9493
 X54.6100 Z50.2699
 X55.2450 Z50.5075
 X55.8800 Z50.6717
 X56.5150 Z50.7682
 X57.1500 Z50.8000
 X196.8500
 X197.4850 Z50.7682
 X198.1200 Z50.6717
 X198.7550 Z50.5075
 X199.3900 Z50.2699
 X200.0250 Z49.9493
 X200.6600 Z49.5300
 X201.2950 Z48.9848
 X201.9300 Z48.2600
 X202.5650 Z47.2179
 X203.2000 Z6.3500
 X241.3000
 X241.9350 Z21.8179
 X242.5700 Z22.8600
 X243.2050 Z23.5848
 X243.8400 Z24.1300
 X244.4750 Z24.5493
 X245.1100 Z24.8699
 X245.7450 Z25.1075
 X246.3800 Z25.2717
 X247.0150 Z25.3682
 X247.6500 Z25.4000
 X254.0000
 X254.6350 Z25.3682
 X255.2700 Z25.2717
 X255.9050 Z25.1075
 X256.5400 Z24.8699
 X257.1750 Z24.5493
 X257.8100 Z24.1300
 X258.4450 Z23.5848
 X259.0800 Z22.8600
 X259.7150 Z21.8179
 X260.3500 Z0.0000
 X273.0500
 Y25.1140
 X260.3500
 X259.7150 Z21.8179
 X259.0800 Z22.8600
 X258.4450 Z23.5848
 X257.8100 Z24.1300
 X257.1750 Z24.5493
 X256.5400 Z24.8699
 X255.9050 Z25.1075
 X255.2700 Z25.2717
 X254.6350 Z25.3682
 X254.0000 Z25.4000
 X247.6500
 X247.0150 Z25.3682
 X246.3800 Z25.2717
 X245.7450 Z25.1075
 X245.1100 Z24.8699
 X244.4750 Z24.5493
 X243.8400 Z24.1300
 X243.2050 Z23.5848
 X242.5700 Z22.8600
 X241.9350 Z21.8179
 X241.3000 Z6.3500
 X203.2000
 X202.5650 Z47.2179
 X201.9300 Z48.2600
 X201.2950 Z48.9848
 X200.6600 Z49.5300
 X200.0250 Z49.9493
 X199.3900 Z50.2699
 X198.7550 Z50.5075
 X198.1200 Z50.6717
 X197.4850 Z50.7682
 X196.8500 Z50.8000
 X57.1500
 X56.5150 Z50.7682
 X55.8800 Z50.6717
 X55.2450 Z50.5075
 X54.6100 Z50.2699
 X53.9750 Z49.9493
 X53.3400 Z49.5300
 X52.7050 Z48.9848
 X52.0700 Z48.2600
 X51.4350 Z47.2179
 X50.8000 Z6.3500
 X12.7000
 X12.0650 Z21.8179
 X11.4300 Z22.8600
 X10.7950 Z23.5848
 X10.1600 Z24.1300
 X9.5250 Z24.5493
 X8.8900 Z24.8699
 X8.2550 Z25.1075
 X7.6200 Z25.2717
 X6.9850 Z25.3682
 X6.3500 Z25.4000
 X0.0000
 X-0.6350 Z25.3682
 X-1.2700 Z25.2717
 X-1.9050 Z25.1075
 X-2.5400 Z24.8699
 X-3.1750 Z24.5493
 X-3.8100 Z24.1300
 X-4.4450 Z23.5848
 X-5.0800 Z22.8600
 X-5.7150 Z21.8179
 X-6.3500 Z0.0000
 X-19.0500
 X-19.0500 Y26.3725
 X-6.3500
 X-5.7150 Z21.8179
 X-5.0800 Z22.8600
 X-4.4450 Z23.5848
 X-3.8100 Z24.1300
 X-3.1750 Z24.5493
 X-2.5400 Z24.8699
 X-1.9050 Z25.1075
 X-1.2700 Z25.2717
 X-0.6350 Z25.3682
 X-0.0000 Z25.4000
 X6.3500
 X6.9850 Z25.3682
 X7.6200 Z25.2717
 X8.2550 Z25.1075
 X8.8900 Z24.8699
 X9.5250 Z24.5493
 X10.1600 Z24.1300
 X10.7950 Z23.5848
 X11.4300 Z22.8600
 X12.0650 Z21.8179
 X12.7000 Z6.3500
 X50.8000
 X51.4350 Z47.0414
 X52.0700 Z48.1338
 X52.7050 Z48.8793
 X53.3400 Z49.4360
 X53.9750 Z49.8626
 X54.6100 Z50.1880
 X55.2450 Z50.4289
 X55.8800 Z50.5952
 X56.5150 Z50.6929
 X57.1500 Z50.7251
 X113.0300
 X113.6650 Z50.7682
 X114.3000 Z50.8000
 X139.7000
 X140.3350 Z50.7682
 X140.9700 Z50.7251
 X196.8500
 X197.4850 Z50.6929
 X198.1200 Z50.5952
 X198.7550 Z50.4289
 X199.3900 Z50.1880
 X200.0250 Z49.8626
 X200.6600 Z49.4360
 X201.2950 Z48.8793
 X201.9300 Z48.1338
 X202.5650 Z47.0414
 X203.2000 Z6.3500
 X241.3000
 X241.9350 Z21.8179
 X242.5700 Z22.8600
 X243.2050 Z23.5848
 X243.8400 Z24.1300
 X244.4750 Z24.5493
 X245.1100 Z24.8699
 X245.7450 Z25.1075
 X246.3800 Z25.2717
 X247.0150 Z25.3682
 X247.6500 Z25.4000
 X254.0000
 X254.6350 Z25.3682
 X255.2700 Z25.2717
 X255.9050 Z25.1075
 X256.5400 Z24.8699
 X257.1750 Z24.5493
 X257.8100 Z24.1300
 X258.4450 Z23.5848
 X259.0800 Z22.8600
 X259.7150 Z21.8179
 X260.3500 Z0.0000
 X273.0500
 Y27.6311
 X260.3500
 X259.7150 Z21.8179
 X259.0800 Z22.8600
 X258.4450 Z23.5848
 X257.8100 Z24.1300
 X257.1750 Z24.5493
 X256.5400 Z24.8699
 X255.9050 Z25.1075
 X255.2700 Z25.2717
 X254.6350 Z25.3682
 X254.0000 Z25.4000
 X247.6500
 X247.0150 Z25.3682
 X246.3800 Z25.2717
 X245.7450 Z25.1075
 X245.1100 Z24.8699
 X244.4750 Z24.5493
 X243.8400 Z24.1300
 X243.2050 Z23.5848
 X242.5700 Z22.8600
 X241.9350 Z21.8179
 X241.3000 Z6.3500
 X203.2000
 X202.5650 Z46.1333
 X201.9300 Z47.5384
 X201.2950 Z48.3980
 X200.6600 Z49.0138
 X200.0250 Z49.4763
 X199.3900 Z49.8252
 X198.7550 Z50.0817
 X198.1200 Z50.2579
 X197.4850 Z50.3611
 X196.8500 Z50.3951
 X142.2400
 X141.6050 Z50.5075
 X140.9700 Z50.6717
 X140.3350 Z50.7682
 X139.7000 Z50.8000
 X114.3000
 X113.6650 Z50.7682
 X113.0300 Z50.6717
 X112.3950 Z50.5075
 X111.7600 Z50.3951
 X57.1500
 X56.5150 Z50.3611
 X55.8800 Z50.2579
 X55.2450 Z50.0817
 X54.6100 Z49.8252
 X53.9750 Z49.4763
 X53.3400 Z49.0138
 X52.7050 Z48.3980
 X52.0700 Z47.5384
 X51.4350 Z46.1333
 X50.8000 Z6.3500
 X12.7000
 X12.0650 Z21.8179
 X11.4300 Z22.8600
 X10.7950 Z23.5848
 X10.1600 Z24.1300
 X9.5250 Z24.5493
 X8.8900 Z24.8699
 X8.2550 Z25.1075
 X7.6200 Z25.2717
 X6.9850 Z25.3682
 X6.3500 Z25.4000
 X0.0000
 X-0.6350 Z25.3682
 X-1.2700 Z25.2717
 X-1.9050 Z25.1075
 X-2.5400 Z24.8699
 X-3.1750 Z24.5493
 X-3.8100 Z24.1300
 X-4.4450 Z23.5848
 X-5.0800 Z22.8600
 X-5.7150 Z21.8179
 X-6.3500 Z0.0000
 X-19.0500
 X-19.0500 Y28.8896
 X-6.3500
 X-5.7150 Z21.8179
 X-5.0800 Z22.8600
 X-4.4450 Z23.5848
 X-3.8100 Z24.1300
 X-3.1750 Z24.5493
 X-2.5400 Z24.8699
 X-1.9050 Z25.1075
 X-1.2700 Z25.2717
 X-0.6350 Z25.3682
 X-0.0000 Z25.4000
 X6.3500
 X6.9850 Z25.3682
 X7.6200 Z25.2717
 X8.2550 Z25.1075
 X8.8900 Z24.8699
 X9.5250 Z24.5493
 X10.1600 Z24.1300
 X10.7950 Z23.5848
 X11.4300 Z22.8600
 X12.0650 Z21.8179
 X12.7000 Z6.3500
 X50.8000
 X51.4350 Z44.8748
 X52.0700 Z46.3485
 X52.7050 Z47.3735
 X53.3400 Z48.1417
 X53.9750 Z48.7002
 X54.6100 Z49.1076
 X55.2450 Z49.4014
 X55.8800 Z49.6009
 X56.5150 Z49.7170
 X57.1500 Z49.7552
 X110.4900
 X111.1250 Z49.9493
 X111.7600 Z50.2699
 X112.3950 Z50.5075
 X113.0300 Z50.6717
 X113.6650 Z50.7682
 X114.3000 Z50.8000
 X139.7000
 X140.3350 Z50.7682
 X140.9700 Z50.6717
 X141.6050 Z50.5075
 X142.2400 Z50.2699
 X142.8750 Z49.9493
 X143.5100 Z49.7552
 X196.8500
 X197.4850 Z49.7170
 X198.1200 Z49.6009
 X198.7550 Z49.4014
 X199.3900 Z49.1076
 X200.0250 Z48.7002
 X200.6600 Z48.1417
 X201.2950 Z47.3735
 X201.9300 Z46.3485
 X202.5650 Z44.8748
 X203.2000 Z6.3500
 X241.3000
 X241.9350 Z21.8179
 X242.5700 Z22.8600
 X243.2050 Z23.5848
 X243.8400 Z24.1300
 X244.4750 Z24.5493
 X245.1100 Z24.8699
 X245.7450 Z25.1075
 X246.3800 Z25.2717
 X247.0150 Z25.3682
 X247.6500 Z25.4000
 X254.0000
 X254.6350 Z25.3682
 X255.2700 Z25.2717
 X255.9050 Z25.1075
 X256.5400 Z24.8699
 X257.1750 Z24.5493
 X257.8100 Z24.1300
 X258.4450 Z23.5848
 X259.0800 Z22.8600
 X259.7150 Z21.8179
 X260.3500 Z0.0000
 X273.0500
 Y30.1482
 X260.3500
 X259.7150 Z21.8179
 X259.0800 Z22.8600
 X258.4450 Z23.5848
 X257.8100 Z24.1300
 X257.1750 Z24.5493
 X256.5400 Z24.8699
 X255.9050 Z25.1075
 X255.2700 Z25.2717
 X254.6350 Z25.3682
 X254.0000 Z25.4000
 X247.6500
 X247.0150 Z25.3682
 X246.3800 Z25.2717
 X245.7450 Z25.1075
 X245.1100 Z24.8699
 X244.4750 Z24.5493
 X243.8400 Z24.1300
 X243.2050 Z23.5848
 X242.5700 Z22.8600
 X241.9350 Z21.8179
 X241.3000 Z6.3500
 X203.2000
 X202.5650 Z43.6162
 X201.9300 Z45.0900
 X201.2950 Z46.1150
 X200.6600 Z46.8860
 X200.0250 Z47.4789
 X199.3900 Z47.9323
 X198.7550 Z48.2684
 X198.1200 Z48.5006
 X197.4850 Z48.6370
 X196.8500 Z48.6821
 X190.5000 Z48.6821
 X189.8650 Z48.6663
 X144.7800
 X144.1450 Z48.9848
 X143.5100 Z49.5300
 X142.8750 Z49.9493
 X142.2400 Z50.2699
 X141.6050 Z50.5075
 X140.9700 Z50.6717
 X140.3350 Z50.7682
 X139.7000 Z50.8000
 X114.3000
 X113.6650 Z50.7682
 X113.0300 Z50.6717
 X112.3950 Z50.5075
 X111.7600 Z50.2699
 X111.1250 Z49.9493
 X110.4900 Z49.5300
 X109.8550 Z48.9848
 X109.2200 Z48.6663
 X64.1350
 X63.5000 Z48.6821
 X57.1500
 X56.5150 Z48.6370
 X55.8800 Z48.5006
 X55.2450 Z48.2684
 X54.6100 Z47.9323
 X53.9750 Z47.4789
 X53.3400 Z46.8860
 X52.7050 Z46.1150
 X52.0700 Z45.0900
 X51.4350 Z43.6162
 X50.8000 Z6.3500
 X12.7000
 X12.0650 Z21.8179
 X11.4300 Z22.8600
 X10.7950 Z23.5848
 X10.1600 Z24.1300
 X9.5250 Z24.5493
 X8.8900 Z24.8699
 X8.2550 Z25.1075
 X7.6200 Z25.2717
 X6.9850 Z25.3682
 X6.3500 Z25.4000
 X0.0000
 X-0.6350 Z25.3682
 X-1.2700 Z25.2717
 X-1.9050 Z25.1075
 X-2.5400 Z24.8699
 X-3.1750 Z24.5493
 X-3.8100 Z24.1300
 X-4.4450 Z23.5848
 X-5.0800 Z22.8600
 X-5.7150 Z21.8179
 X-6.3500 Z0.0000
 X-19.0500
 X-19.0500 Y31.4068
 X-6.3500
 X-5.7150 Z21.8179
 X-5.0800 Z22.8600
 X-4.4450 Z23.5848
 X-3.8100 Z24.1300
 X-3.1750 Z24.5493
 X-2.5400 Z24.8699
 X-1.9050 Z25.1075
 X-1.2700 Z25.2717
 X-0.6350 Z25.3682
 X-0.0000 Z25.4000
 X6.3500
 X6.9850 Z25.3682
 X7.6200 Z25.2717
 X8.2550 Z25.1075
 X8.8900 Z24.8699
 X9.5250 Z24.5493
 X10.1600 Z24.1300
 X10.7950 Z23.5848
 X11.4300 Z22.8600
 X12.0650 Z21.8179
 X12.7000 Z6.3500
 X50.8000
 X51.4350 Z42.3576
 X52.0700 Z43.8314
 X52.7050 Z44.8564
 X53.3400 Z45.6274
 X53.9750 Z46.2204
 X54.6100 Z46.6738
 X55.2450 Z47.0099
 X55.8800 Z47.2421
 X56.5150 Z47.3785
 X57.1500 Z47.4235
 X63.5000 Z47.4235
 X64.1350 Z47.3785
 X64.7700 Z47.2421
 X65.4050 Z47.0099
 X66.0400 Z46.6738
 X66.6750 Z46.5095
 X107.9500
 X108.5850 Z47.2179
 X109.2200 Z48.2600
 X109.8550 Z48.9848
 X110.4900 Z49.5300
 X111.1250 Z49.9493
 X111.7600 Z50.2699
 X112.3950 Z50.5075
 X113.0300 Z50.6717
 X113.6650 Z50.7682
 X114.3000 Z50.8000
 X139.7000
 X140.3350 Z50.7682
 X140.9700 Z50.6717
 X141.6050 Z50.5075
 X142.2400 Z50.2699
 X142.8750 Z49.9493
 X143.5100 Z49.5300
 X144.1450 Z48.9848
 X144.7800 Z48.2600
 X145.4150 Z47.2179
 X146.0500 Z46.5095
 X187.3250
 X187.9600 Z46.6738
 X188.5950 Z47.0099
 X189.2300 Z47.2421
 X189.8650 Z47.3785
 X190.5000 Z47.4235
 X196.8500 Z47.4235
 X197.4850 Z47.3785
 X198.1200 Z47.2421
 X198.7550 Z47.0099
 X199.3900 Z46.6738
 X200.0250 Z46.2204
 X200.6600 Z45.6274
 X201.2950 Z44.8564
 X201.9300 Z43.8314
 X202.5650 Z42.3576
 X203.2000 Z6.3500
 X241.3000
 X241.9350 Z21.8179
 X242.5700 Z22.8600
 X243.2050 Z23.5848
 X243.8400 Z24.1300
 X244.4750 Z24.5493
 X245.1100 Z24.8699
 X245.7450 Z25.1075
 X246.3800 Z25.2717
 X247.0150 Z25.3682
 X247.6500 Z25.4000
 X254.0000
 X254.6350 Z25.3682
 X255.2700 Z25.2717
 X255.9050 Z25.1075
 X256.5400 Z24.8699
 X257.1750 Z24.5493
 X257.8100 Z24.1300
 X258.4450 Z23.5848
 X259.0800 Z22.8600
 X259.7150 Z21.8179
 X260.3500 Z0.0000
 X273.0500
 Y32.6653
 X260.3500
 X259.7150 Z21.8179
 X259.0800 Z22.8600
 X258.4450 Z23.5848
 X257.8100 Z24.1300
 X257.1750 Z24.5493
 X256.5400 Z24.8699
 X255.9050 Z25.1075
 X255.2700 Z25.2717
 X254.6350 Z25.3682
 X254.0000 Z25.4000
 X247.6500
 X247.0150 Z25.3682
 X246.3800 Z25.2717
 X245.7450 Z25.1075
 X245.1100 Z24.8699
 X244.4750 Z24.5493
 X243.8400 Z24.1300
 X243.2050 Z23.5848
 X242.5700 Z22.8600
 X241.9350 Z21.8179
 X241.3000 Z6.3500
 X203.2000
 X202.5650 Z41.0991
 X201.9300 Z42.5728
 X201.2950 Z43.5979
 X200.6600 Z44.3689
 X200.0250 Z44.9618
 X199.3900 Z45.4152
 X198.7550 Z45.7513
 X198.1200 Z45.9835
 X197.4850 Z46.1199
 X196.8500 Z46.1649
 X190.5000 Z46.1649
 X189.8650 Z46.1199
 X189.2300 Z45.9835
 X188.5950 Z45.7513
 X187.9600 Z45.4152
 X187.3250 Z44.9618
 X186.6900 Z44.3689
 X186.0550 Z43.5979
 X185.4200 Z42.5728
 X184.7850 Z41.0991
 X184.1500 Z6.3500
 X146.0500
 X145.4150 Z47.2179
 X144.7800 Z48.2600
 X144.1450 Z48.9848
 X143.5100 Z49.5300
 X142.8750 Z49.9493
 X142.2400 Z50.2699
 X141.6050 Z50.5075
 X140.9700 Z50.6717
 X140.3350 Z50.7682
 X139.7000 Z50.8000
 X114.3000
 X113.6650 Z50.7682
 X113.0300 Z50.6717
 X112.3950 Z50.5075
 X111.7600 Z50.2699
 X111.1250 Z49.9493
 X110.4900 Z49.5300
 X109.8550 Z48.9848
 X109.2200 Z48.2600
 X108.5850 Z47.2179
 X107.9500 Z6.3500
 X69.8500
 X69.2150 Z41.0991
 X68.5800 Z42.5728
 X67.9450 Z43.5979
 X67.3100 Z44.3689
 X66.6750 Z44.9618
 X66.0400 Z45.4152
 X65.4050 Z45.7513
 X64.7700 Z45.9835
 X64.1350 Z46.1199
 X63.5000 Z46.1649
 X57.1500
 X56.5150 Z46.1199
 X55.8800 Z45.9835
 X55.2450 Z45.7513
 X54.6100 Z45.4152
 X53.9750 Z44.9618
 X53.3400 Z44.3689
 X52.7050 Z43.5979
 X52.0700 Z42.5728
 X51.4350 Z41.0991
 X50.8000 Z6.3500
 X12.7000
 X12.0650 Z21.8179
 X11.4300 Z22.8600
 X10.7950 Z23.5848
 X10.1600 Z24.1300
 X9.5250 Z24.5493
 X8.8900 Z24.8699
 X8.2550 Z25.1075
 X7.6200 Z25.2717
 X6.9850 Z25.3682
 X6.3500 Z25.4000
 X0.0000
 X-0.6350 Z25.3682
 X-1.2700 Z25.2717
 X-1.9050 Z25.1075
 X-2.5400 Z24.8699
 X-3.1750 Z24.5493
 X-3.8100 Z24.1300
 X-4.4450 Z23.5848
 X-5.0800 Z22.8600
 X-5.7150 Z21.8179
 X-6.3500 Z0.0000
 X-19.0500
 X-19.0500 Y33.9239
 X-6.3500
 X-5.7150 Z21.8179
 X-5.0800 Z22.8600
 X-4.4450 Z23.5848
 X-3.8100 Z24.1300
 X-3.1750 Z24.5493
 X-2.5400 Z24.8699
 X-1.9050 Z25.1075
 X-1.2700 Z25.2717
 X-0.6350 Z25.3682
 X-0.0000 Z25.4000
 X6.3500
 X6.9850 Z25.3682
 X7.6200 Z25.2717
 X8.2550 Z25.1075
 X8.8900 Z24.8699
 X9.5250 Z24.5493
 X10.1600 Z24.1300
 X10.7950 Z23.5848
 X11.4300 Z22.8600
 X12.0650 Z21.8179
 X12.7000 Z6.3500
 X50.8000
 X51.4350 Z39.8405
 X52.0700 Z41.3143
 X52.7050 Z42.3393
 X53.3400 Z43.1103
 X53.9750 Z43.7033
 X54.6100 Z44.1567
 X55.2450 Z44.4927
 X55.8800 Z44.7249
 X56.5150 Z44.8614
 X57.1500 Z44.9064
 X63.5000 Z44.9064
 X64.1350 Z44.8614
 X64.7700 Z44.7249
 X65.4050 Z44.4927
 X66.0400 Z44.1567
 X66.6750 Z43.7033
 X67.3100 Z43.1103
 X67.9450 Z42.3393
 X68.5800 Z41.3143
 X69.2150 Z39.8405
 X69.8500 Z6.3500
 X107.9500
 X108.5850 Z47.2179
 X109.2200 Z48.2600
 X109.8550 Z48.9848
 X110.4900 Z49.5300
 X111.1250 Z49.9493
 X111.7600 Z50.2699
 X112.3950 Z50.5075
 X113.0300 Z50.6717
 X113.6650 Z50.7682
 X114.3000 Z50.8000
 X139.7000
 X140.3350 Z50.7682
 X140.9700 Z50.6717
 X141.6050 Z50.5075
 X142.2400 Z50.2699
 X142.8750 Z49.9493
 X143.5100 Z49.5300
 X144.1450 Z48.9848
 X144.7800 Z48.2600
 X145.4150 Z47.2179
 X146.0500 Z6.3500
 X184.1500
 X184.7850 Z39.8405
 X185.4200 Z41.3143
 X186.0550 Z42.3393
 X186.6900 Z43.1103
 X187.3250 Z43.7033
 X187.9600 Z44.1567
 X188.5950 Z44.4927
 X189.2300 Z44.7249
 X189.8650 Z44.8614
 X190.5000 Z44.9064
 X196.8500 Z44.9064
 X197.4850 Z44.8614
 X198.1200 Z44.7249
 X198.7550 Z44.4927
 X199.3900 Z44.1567
 X200.0250 Z43.7033
 X200.6600 Z43.1103
 X201.2950 Z42.3393
 X201.9300 Z41.3143
 X202.5650 Z39.8405
 X203.2000 Z6.3500
 X241.3000
 X241.9350 Z21.8179
 X242.5700 Z22.8600
 X243.2050 Z23.5848
 X243.8400 Z24.1300
 X244.4750 Z24.5493
 X245.1100 Z24.8699
 X245.7450 Z25.1075
 X246.3800 Z25.2717
 X247.0150 Z25.3682
 X247.6500 Z25.4000
 X254.0000
 X254.6350 Z25.3682
 X255.2700 Z25.2717
 X255.9050 Z25.1075
 X256.5400 Z24.8699
 X257.1750 Z24.5493
 X257.8100 Z24.1300
 X258.4450 Z23.5848
 X259.0800 Z22.8600
 X259.7150 Z21.8179
 X260.3500 Z0.0000
 X273.0500
 Y35.1824
 X260.3500
 X259.7150 Z21.8179
 X259.0800 Z22.8600
 X258.4450 Z23.5848
 X257.8100 Z24.1300
 X257.1750 Z24.5493
 X256.5400 Z24.8699
 X255.9050 Z25.1075
 X255.2700 Z25.2717
 X254.6350 Z25.3682
 X254.0000 Z25.4000
 X247.6500
 X247.0150 Z25.3682
 X246.3800 Z25.2717
 X245.7450 Z25.1075
 X245.1100 Z24.8699
 X244.4750 Z24.5493
 X243.8400 Z24.1300
 X243.2050 Z23.5848
 X242.5700 Z22.8600
 X241.9350 Z21.8179
 X241.3000 Z6.3500
 X203.2000
 X202.5650 Z38.5820
 X201.9300 Z40.0557
 X201.2950 Z41.0808
 X200.6600 Z41.8518
 X200.0250 Z42.4447
 X199.3900 Z42.8981
 X198.7550 Z43.2342
 X198.1200 Z43.4664
 X197.4850 Z43.6028
 X196.8500 Z43.6478
 X190.5000 Z43.6478
 X189.8650 Z43.6028
 X189.2300 Z43.4664
 X188.5950 Z43.2342
 X187.9600 Z42.8981
 X187.3250 Z42.4447
 X186.6900 Z41.8518
 X186.0550 Z41.0808
 X185.4200 Z40.0557
 X184.7850 Z38.5820
 X184.1500 Z6.3500
 X146.0500
 X145.4150 Z47.2179
 X144.7800 Z48.2600
 X144.1450 Z48.9848
 X143.5100 Z49.5300
 X142.8750 Z49.9493
 X142.2400 Z50.2699
 X141.6050 Z50.5075
 X140.9700 Z50.6717
 X140.3350 Z50.7682
 X139.7000 Z50.8000
 X114.3000
 X113.6650 Z50.7682
 X113.0300 Z50.6717
 X112.3950 Z50.5075
 X111.7600 Z50.2699
 X111.1250 Z49.9493
 X110.4900 Z49.5300
 X109.8550 Z48.9848
 X109.2200 Z48.2600
 X108.5850 Z47.2179
 X107.9500 Z6.3500
 X69.8500
 X69.2150 Z38.5820
 X68.5800 Z40.0557
 X67.9450 Z41.0808
 X67.3100 Z41.8518
 X66.6750 Z42.4447
 X66.0400 Z42.8981
 X65.4050 Z43.2342
 X64.7700 Z43.4664
 X64.1350 Z43.6028
 X63.5000 Z43.6478
 X57.1500
 X56.5150 Z43.6028
 X55.8800 Z43.4664
 X55.2450 Z43.2342
 X54.6100 Z42.8981
 X53.9750 Z42.4447
 X53.3400 Z41.8518
 X52.7050 Z41.0808
 X52.0700 Z40.0557
 X51.4350 Z38.5820
 X50.8000 Z6.3500
 X12.7000
 X12.0650 Z21.8179
 X11.4300 Z22.8600
 X10.7950 Z23.5848
 X10.1600 Z24.1300
 X9.5250 Z24.5493
 X8.8900 Z24.8699
 X8.2550 Z25.1075
 X7.6200 Z25.2717
 X6.9850 Z25.3682
 X6.3500 Z25.4000
 X0.0000
 X-0.6350 Z25.3682
 X-1.2700 Z25.2717
 X-1.9050 Z25.1075
 X-2.5400 Z24.8699
 X-3.1750 Z24.5493
 X-3.8100 Z24.1300
 X-4.4450 Z23.5848
 X-5.0800 Z22.8600
 X-5.7150 Z21.8179
 X-6.3500 Z0.0000
 X-19.0500
 X-19.0500 Y36.4410
 X-6.3500
 X-5.7150 Z21.8179
 X-5.0800 Z22.8600
 X-4.4450 Z23.5848
 X-3.8100 Z24.1300
 X-3.1750 Z24.5493
 X-2.5400 Z24.8699
 X-1.9050 Z25.1075
 X-1.2700 Z25.2717
 X-0.6350 Z25.3682
 X-0.0000 Z25.4000
 X6.3500
 X6.9850 Z25.3682
 X7.6200 Z25.2717
 X8.2550 Z25.1075
 X8.8900 Z24.8699
 X9.5250 Z24.5493
 X10.1600 Z24.1300
 X10.7950 Z23.5848
 X11.4300 Z22.8600
 X12.0650 Z21.8179
 X12.7000 Z6.3500
 X50.8000
 X51.4350 Z37.3234
 X52.0700 Z38.7972
 X52.7050 Z39.8222
 X53.3400 Z40.5932
 X53.9750 Z41.1861
 X54.6100 Z41.6395
 X55.2450 Z41.9756
 X55.8800 Z42.2078
 X56.5150 Z42.3443
 X57.1500 Z42.3893
 X63.5000 Z42.3893
 X64.1350 Z42.3443
 X64.7700 Z42.2078
 X65.4050 Z41.9756
 X66.0400 Z41.6395
 X66.6750 Z41.1861
 X67.3100 Z40.5932
 X67.9450 Z39.8222
 X68.5800 Z38.7972
 X69.2150 Z37.3234
 X69.8500 Z6.3500
 X107.9500
 X108.5850 Z47.2179
 X109.2200 Z48.2600
 X109.8550 Z48.9848
 X110.4900 Z49.5300
 X111.1250 Z49.9493
 X111.7600 Z50.2699
 X112.3950 Z50.5075
 X113.0300 Z50.6717
 X113.6650 Z50.7682
 X114.3000 Z50.8000
 X139.7000
 X140.3350 Z50.7682
 X140.9700 Z50.6717
 X141.6050 Z50.5075
 X142.2400 Z50.2699
 X142.8750 Z49.9493
 X143.5100 Z49.5300
 X144.1450 Z48.9848
 X144.7800 Z48.2600
 X145.4150 Z47.2179
 X146.0500 Z6.3500
 X184.1500
 X184.7850 Z37.3234
 X185.4200 Z38.7972
 X186.0550 Z39.8222
 X186.6900 Z40.5932
 X187.3250 Z41.1861
 X187.9600 Z41.6395
 X188.5950 Z41.9756
 X189.2300 Z42.2078
 X189.8650 Z42.3443
 X190.5000 Z42.3893
 X196.8500 Z42.3893
 X197.4850 Z42.3443
 X198.1200 Z42.2078
 X198.7550 Z41.9756
 X199.3900 Z41.6395
 X200.0250 Z41.1861
 X200.6600 Z40.5932
 X201.2950 Z39.8222
 X201.9300 Z38.7972
 X202.5650 Z37.3234
 X203.2000 Z6.3500
 X241.3000
 X241.9350 Z21.8179
 X242.5700 Z22.8600
 X243.2050 Z23.5848
 X243.8400 Z24.1300
 X244.4750 Z24.5493
 X245.1100 Z24.8699
 X245.7450 Z25.1075
 X246.3800 Z25.2717
 X247.0150 Z25.3682
 X247.6500 Z25.4000
 X254.0000
 X254.6350 Z25.3682
 X255.2700 Z25.2717
 X255.9050 Z25.1075
 X256.5400 Z24.8699
 X257.1750 Z24.5493
 X257.8100 Z24.1300
 X258.4450 Z23.5848
 X259.0800 Z22.8600
 X259.7150 Z21.8179
 X260.3500 Z0.0000
 X273.0500
 Y37.6995
 X260.3500
 X259.7150 Z21.8179
 X259.0800 Z22.8600
 X258.4450 Z23.5848
 X257.8100 Z24.1300
 X257.1750 Z24.5493
 X256.5400 Z24.8699
 X255.9050 Z25.1075
 X255.2700 Z25.2717
 X254.6350 Z25.3682
 X254.0000 Z25.4000
 X247.6500
 X247.0150 Z25.3682
 X246.3800 Z25.2717
 X245.7450 Z25.1075
 X245.1100 Z24.8699
 X244.4750 Z24.5493
 X243.8400 Z24.1300
 X243.2050 Z23.5848
 X242.5700 Z22.8600
 X241.9350 Z21.8179
 X241.3000 Z6.3500
 X203.2000
 X202.5650 Z36.0649
 X201.9300 Z37.5386
 X201.2950 Z38.5636
 X200.6600 Z39.3347
 X200.0250 Z39.9276
 X199.3900 Z40.3810
 X198.7550 Z40.7171
 X198.1200 Z40.9493
 X197.4850 Z41.0857
 X196.8500 Z41.1307
 X190.5000 Z41.1307
 X189.8650 Z41.0857
 X189.2300 Z40.9493
 X188.5950 Z40.7171
 X187.9600 Z40.3810
 X187.3250 Z39.9276
 X186.6900 Z39.3347
 X186.0550 Z38.5636
 X185.4200 Z37.5386
 X184.7850 Z36.0649
 X184.1500 Z6.3500
 X146.0500
 X145.4150 Z47.2179
 X144.7800 Z48.2600
 X144.1450 Z48.9848
 X143.5100 Z49.5300
 X142.8750 Z49.9493
 X142.2400 Z50.2699
 X141.6050 Z50.5075
 X140.9700 Z50.6717
 X140.3350 Z50.7682
 X139.7000 Z50.8000
 X114.3000
 X113.6650 Z50.7682
 X113.0300 Z50.6717
 X112.3950 Z50.5075
 X111.7600 Z50.2699
 X111.1250 Z49.9493
 X110.4900 Z49.5300
 X109.8550 Z48.9848
 X109.2200 Z48.2600
 X108.5850 Z47.2179
 X107.9500 Z6.3500
 X69.8500
 X69.2150 Z36.0649
 X68.5800 Z37.5386
 X67.9450 Z38.5636
 X67.3100 Z39.3347
 X66.6750 Z39.9276
 X66.0400 Z40.3810
 X65.4050 Z40.7171
 X64.7700 Z40.9493
 X64.1350 Z41.0857
 X63.5000 Z41.1307
 X57.1500 Z41.1307
 X56.5150 Z41.0857
 X55.8800 Z40.9493
 X55.2450 Z40.7171
 X54.6100 Z40.3810
 X53.9750 Z39.9276
 X53.3400 Z39.3347
 X52.7050 Z38.5636
 X52.0700 Z37.5386
 X51.4350 Z36.0649
 X50.8000 Z6.3500
 X12.7000
 X12.0650 Z21.8179
 X11.4300 Z22.8600
 X10.7950 Z23.5848
 X10.1600 Z24.1300
 X9.5250 Z24.5493
 X8.8900 Z24.8699
 X8.2550 Z25.1075
 X7.6200 Z25.2717
 X6.9850 Z25.3682
 X6.3500 Z25.4000
 X0.0000
 X-0.6350 Z25.3682
 X-1.2700 Z25.2717
 X-1.9050 Z25.1075
 X-2.5400 Z24.8699
 X-3.1750 Z24.5493
 X-3.8100 Z24.1300
 X-4.4450 Z23.5848
 X-5.0800 Z22.8600
 X-5.7150 Z21.8179
 X-6.3500 Z0.0000
 X-19.0500
 X-19.0500 Y38.9581
 X-6.3500
 X-5.7150 Z21.8179
 X-5.0800 Z22.8600
 X-4.4450 Z23.5848
 X-3.8100 Z24.1300
 X-3.1750 Z24.5493
 X-2.5400 Z24.8699
 X-1.9050 Z25.1075
 X-1.2700 Z25.2717
 X-0.6350 Z25.3682
 X-0.0000 Z25.4000
 X6.3500
 X6.9850 Z25.3682
 X7.6200 Z25.2717
 X8.2550 Z25.1075
 X8.8900 Z24.8699
 X9.5250 Z24.5493
 X10.1600 Z24.1300
 X10.7950 Z23.5848
 X11.4300 Z22.8600
 X12.0650 Z21.8179
 X12.7000 Z6.3500
 X50.8000
 X51.4350 Z34.8063
 X52.0700 Z36.2800
 X52.7050 Z37.3051
 X53.3400 Z38.0761
 X53.9750 Z38.6690
 X54.6100 Z39.1224
 X55.2450 Z39.4585
 X55.8800 Z39.6907
 X56.5150 Z39.8271
 X57.1500 Z39.8721
 X63.5000 Z39.8722
 X64.1350 Z39.8271
 X64.7700 Z39.6907
 X65.4050 Z39.4585
 X66.0400 Z39.1224
 X66.6750 Z38.6690
 X67.3100 Z38.0761
 X67.9450 Z37.3051
 X68.5800 Z36.2800
 X69.2150 Z34.8063
 X69.8500 Z6.3500
 X107.9500
 X108.5850 Z47.0815
 X109.2200 Z48.1621
 X109.8550 Z48.9029
 X110.4900 Z49.4570
 X111.1250 Z49.8819
 X111.7600 Z50.2063
 X112.3950 Z50.4464
 X113.0300 Z50.6122
 X113.6650 Z50.7096
 X114.3000 Z50.7418
 X139.7000
 X140.3350 Z50.7096
 X140.9700 Z50.6122
 X141.6050 Z50.4464
 X142.2400 Z50.2063
 X142.8750 Z49.8819
 X143.5100 Z49.4570
 X144.1450 Z48.9029
 X144.7800 Z48.1621
 X145.4150 Z47.0815
 X146.0500 Z6.3500
 X184.1500
 X184.7850 Z34.8063
 X185.4200 Z36.2800
 X186.0550 Z37.3051
 X186.6900 Z38.0761
 X187.3250 Z38.6690
 X187.9600 Z39.1224
 X188.5950 Z39.4585
 X189.2300 Z39.6907
 X189.8650 Z39.8271
 X190.5000 Z39.8721
 X196.8500 Z39.8722
 X197.4850 Z39.8271
 X198.1200 Z39.6907
 X198.7550 Z39.4585
 X199.3900 Z39.1224
 X200.0250 Z38.6690
 X200.6600 Z38.0761
 X201.2950 Z37.3051
 X201.9300 Z36.2800
 X202.5650 Z34.8063
 X203.2000 Z6.3500
 X241.3000
 X241.9350 Z21.8179
 X242.5700 Z22.8600
 X243.2050 Z23.5848
 X243.8400 Z24.1300
 X244.4750 Z24.5493
 X245.1100 Z24.8699
 X245.7450 Z25.1075
 X246.3800 Z25.2717
 X247.0150 Z25.3682
 X247.6500 Z25.4000
 X254.0000
 X254.6350 Z25.3682
 X255.2700 Z25.2717
 X255.9050 Z25.1075
 X256.5400 Z24.8699
 X257.1750 Z24.5493
 X257.8100 Z24.1300
 X258.4450 Z23.5848
 X259.0800 Z22.8600
 X259.7150 Z21.8179
 X260.3500 Z0.0000
 X273.0500
 Y40.2167
 X260.3500
 X259.7150 Z21.8179
 X259.0800 Z22.8600
 X258.4450 Z23.5848
 X257.8100 Z24.1300
 X257.1750 Z24.5493
 X256.5400 Z24.8699
 X255.9050 Z25.1075
 X255.2700 Z25.2717
 X254.6350 Z25.3682
 X254.0000 Z25.4000
 X247.6500
 X247.0150 Z25.3682
 X246.3800 Z25.2717
 X245.7450 Z25.1075
 X245.1100 Z24.8699
 X244.4750 Z24.5493
 X243.8400 Z24.1300
 X243.2050 Z23.5848
 X242.5700 Z22.8600
 X241.9350 Z21.8179
 X241.3000 Z6.3500
 X203.2000
 X202.5650 Z33.5477
 X201.9300 Z35.0215
 X201.2950 Z36.0465
 X200.6600 Z36.8175
 X200.0250 Z37.4105
 X199.3900 Z37.8639
 X198.7550 Z38.2000
 X198.1200 Z38.4322
 X197.4850 Z38.5686
 X196.8500 Z38.6136
 X190.5000 Z38.6136
 X189.8650 Z38.5686
 X189.2300 Z38.4322
 X188.5950 Z38.2000
 X187.9600 Z37.8639
 X187.3250 Z37.4105
 X186.6900 Z36.8175
 X186.0550 Z36.0465
 X185.4200 Z35.0215
 X184.7850 Z33.5477
 X184.1500 Z6.3500
 X146.0500
 X145.4150 Z46.2335
 X144.7800 Z47.6179
 X144.1450 Z48.4605
 X143.5100 Z49.0680
 X142.8750 Z49.5256
 X142.2400 Z49.8713
 X141.6050 Z50.1257
 X140.9700 Z50.3006
 X140.3350 Z50.4031
 X139.7000 Z50.4368
 X114.3000
 X113.6650 Z50.4031
 X113.0300 Z50.3006
 X112.3950 Z50.1257
 X111.7600 Z49.8713
 X111.1250 Z49.5256
 X110.4900 Z49.0680
 X109.8550 Z48.4605
 X109.2200 Z47.6179
 X108.5850 Z46.2335
 X107.9500 Z6.3500
 X69.8500
 X69.2150 Z33.5477
 X68.5800 Z35.0215
 X67.9450 Z36.0465
 X67.3100 Z36.8175
 X66.6750 Z37.4105
 X66.0400 Z37.8639
 X65.4050 Z38.2000
 X64.7700 Z38.4322
 X64.1350 Z38.5686
 X63.5000 Z38.6136
 X57.1500
 X56.5150 Z38.5686
 X55.8800 Z38.4322
 X55.2450 Z38.2000
 X54.6100 Z37.8639
 X53.9750 Z37.4105
 X53.3400 Z36.8175
 X52.7050 Z36.0465
 X52.0700 Z35.0215
 X51.4350 Z33.5477
 X50.8000 Z6.3500
 X12.7000
 X12.0650 Z21.8179
 X11.4300 Z22.8600
 X10.7950 Z23.5848
 X10.1600 Z24.1300
 X9.5250 Z24.5493
 X8.8900 Z24.8699
 X8.2550 Z25.1075
 X7.6200 Z25.2717
 X6.9850 Z25.3682
 X6.3500 Z25.4000
 X0.0000
 X-0.6350 Z25.3682
 X-1.2700 Z25.2717
 X-1.9050 Z25.1075
 X-2.5400 Z24.8699
 X-3.1750 Z24.5493
 X-3.8100 Z24.1300
 X-4.4450 Z23.5848
 X-5.0800 Z22.8600
 X-5.7150 Z21.8179
 X-6.3500 Z0.0000
 X-19.0500
 X-19.0500 Y41.4752
 X-6.3500
 X-5.7150 Z21.8179
 X-5.0800 Z22.8600
 X-4.4450 Z23.5848
 X-3.8100 Z24.1300
 X-3.1750 Z24.5493
 X-2.5400 Z24.8699
 X-1.9050 Z25.1075
 X-1.2700 Z25.2717
 X-0.6350 Z25.3682
 X-0.0000 Z25.4000
 X6.3500
 X6.9850 Z25.3682
 X7.6200 Z25.2717
 X8.2550 Z25.1075
 X8.8900 Z24.8699
 X9.5250 Z24.5493
 X10.1600 Z24.1300
 X10.7950 Z23.5848
 X11.4300 Z22.8600
 X12.0650 Z21.8179
 X12.7000 Z6.3500
 X50.8000
 X51.4350 Z32.2892
 X52.0700 Z33.7629
 X52.7050 Z34.7880
 X53.3400 Z35.5590
 X53.9750 Z36.1519
 X54.6100 Z36.6053
 X55.2450 Z36.9414
 X55.8800 Z37.1736
 X56.5150 Z37.3100
 X57.1500 Z37.3550
 X63.5000 Z37.3550
 X64.1350 Z37.3100
 X64.7700 Z37.1736
 X65.4050 Z36.9414
 X66.0400 Z36.6053
 X66.6750 Z36.1519
 X67.3100 Z35.5590
 X67.9450 Z34.7880
 X68.5800 Z33.7629
 X69.2150 Z32.2892
 X69.8500 Z6.3500
 X108.5850
 X109.2200 Z46.2175
 X109.8550 Z47.4786
 X110.4900 Z48.2466
 X111.1250 Z48.7916
 X111.7600 Z49.1912
 X112.3950 Z49.4800
 X113.0300 Z49.6766
 X113.6650 Z49.7911
 X114.3000 Z49.8287
 X139.7000
 X140.3350 Z49.7911
 X140.9700 Z49.6766
 X141.6050 Z49.4800
 X142.2400 Z49.1912
 X142.8750 Z48.7916
 X143.5100 Z48.2466
 X144.1450 Z47.4786
 X144.7800 Z46.2175
 X145.4150 Z6.3500
 X184.1500
 X184.7850 Z32.2892
 X185.4200 Z33.7629
 X186.0550 Z34.7880
 X186.6900 Z35.5590
 X187.3250 Z36.1519
 X187.9600 Z36.6053
 X188.5950 Z36.9414
 X189.2300 Z37.1736
 X189.8650 Z37.3100
 X190.5000 Z37.3550
 X196.8500 Z37.3550
 X197.4850 Z37.3100
 X198.1200 Z37.1736
 X198.7550 Z36.9414
 X199.3900 Z36.6053
 X200.0250 Z36.1519
 X200.6600 Z35.5590
 X201.2950 Z34.7880
 X201.9300 Z33.7629
 X202.5650 Z32.2892
 X203.2000 Z6.3500
 X241.3000
 X241.9350 Z21.8179
 X242.5700 Z22.8600
 X243.2050 Z23.5848
 X243.8400 Z24.1300
 X244.4750 Z24.5493
 X245.1100 Z24.8699
 X245.7450 Z25.1075
 X246.3800 Z25.2717
 X247.0150 Z25.3682
 X247.6500 Z25.4000
 X254.0000
 X254.6350 Z25.3682
 X255.2700 Z25.2717
 X255.9050 Z25.1075
 X256.5400 Z24.8699
 X257.1750 Z24.5493
 X257.8100 Z24.1300
 X258.4450 Z23.5848
 X259.0800 Z22.8600
 X259.7150 Z21.8179
 X260.3500 Z0.0000
 X273.0500
 Y42.7338
 X260.3500
 X259.7150 Z21.8179
 X259.0800 Z22.8600
 X258.4450 Z23.5848
 X257.8100 Z24.1300
 X257.1750 Z24.5493
 X256.5400 Z24.8699
 X255.9050 Z25.1075
 X255.2700 Z25.2717
 X254.6350 Z25.3682
 X254.0000 Z25.4000
 X247.6500
 X247.0150 Z25.3682
 X246.3800 Z25.2717
 X245.7450 Z25.1075
 X245.1100 Z24.8699
 X244.4750 Z24.5493
 X243.8400 Z24.1300
 X243.2050 Z23.5848
 X242.5700 Z22.8600
 X241.9350 Z21.8179
 X241.3000 Z6.3500
 X203.2000
 X202.5650 Z31.0306
 X201.9300 Z32.5044
 X201.2950 Z33.5294
 X200.6600 Z34.3004
 X200.0250 Z34.8933
 X199.3900 Z35.3468
 X198.7550 Z35.6828
 X198.1200 Z35.9150
 X197.4850 Z36.0515
 X196.8500 Z36.0965
 X190.5000
 X189.8650 Z36.0515
 X189.2300 Z35.9150
 X188.5950 Z35.6828
 X187.9600 Z35.3468
 X187.3250 Z34.8933
 X186.6900 Z34.3004
 X186.0550 Z33.5294
 X185.4200 Z32.5044
 X184.7850 Z31.0306
 X184.1500 Z6.3500
 X144.1450
 X143.5100 Z46.5319
 X142.8750 Z47.4114
 X142.2400 Z47.9712
 X141.6050 Z48.3515
 X140.9700 Z48.6018
 X140.3350 Z48.7450
 X139.7000 Z48.7917
 X114.3000
 X113.6650 Z48.7450
 X113.0300 Z48.6018
 X112.3950 Z48.3515
 X111.7600 Z47.9712
 X111.1250 Z47.4114
 X110.4900 Z46.5319
 X109.8550 Z6.3500
 X69.8500
 X69.2150 Z31.0306
 X68.5800 Z32.5044
 X67.9450 Z33.5294
 X67.3100 Z34.3004
 X66.6750 Z34.8933
 X66.0400 Z35.3468
 X65.4050 Z35.6828
 X64.7700 Z35.9150
 X64.1350 Z36.0515
 X63.5000 Z36.0965
 X57.1500
 X56.5150 Z36.0515
 X55.8800 Z35.9150
 X55.2450 Z35.6828
 X54.6100 Z35.3468
 X53.9750 Z34.8933
 X53.3400 Z34.3004
 X52.7050 Z33.5294
 X52.0700 Z32.5044
 X51.4350 Z31.0306
 X50.8000 Z6.3500
 X12.7000
 X12.0650 Z21.8179
 X11.4300 Z22.8600
 X10.7950 Z23.5848
 X10.1600 Z24.1300
 X9.5250 Z24.5493
 X8.8900 Z24.8699
 X8.2550 Z25.1075
 X7.6200 Z25.2717
 X6.9850 Z25.3682
 X6.3500 Z25.4000
 X0.0000
 X-0.6350 Z25.3682
 X-1.2700 Z25.2717
 X-1.9050 Z25.1075
 X-2.5400 Z24.8699
 X-3.1750 Z24.5493
 X-3.8100 Z24.1300
 X-4.4450 Z23.5848
 X-5.0800 Z22.8600
 X-5.7150 Z21.8179
 X-6.3500 Z0.0000
 X-19.0500
 X-19.0500 Y43.9923
 X-6.3500
 X-5.7150 Z21.8179
 X-5.0800 Z22.8600
 X-4.4450 Z23.5848
 X-3.8100 Z24.1300
 X-3.1750 Z24.5493
 X-2.5400 Z24.8699
 X-1.9050 Z25.1075
 X-1.2700 Z25.2717
 X-0.6350 Z25.3682
 X-0.0000 Z25.4000
 X6.3500
 X6.9850 Z25.3682
 X7.6200 Z25.2717
 X8.2550 Z25.1075
 X8.8900 Z24.8699
 X9.5250 Z24.5493
 X10.1600 Z24.1300
 X10.7950 Z23.5848
 X11.4300 Z22.8600
 X12.0650 Z21.8179
 X12.7000 Z6.3500
 X50.8000
 X51.4350 Z29.7721
 X52.0700 Z31.2458
 X52.7050 Z32.2708
 X53.3400 Z33.0419
 X53.9750 Z33.6348
 X54.6100 Z34.0882
 X55.2450 Z34.4243
 X55.8800 Z34.6565
 X56.5150 Z34.7929
 X57.1500 Z34.8379
 X63.5000 Z34.8379
 X64.1350 Z34.7929
 X64.7700 Z34.6565
 X65.4050 Z34.4243
 X66.0400 Z34.0882
 X66.6750 Z33.6348
 X67.3100 Z33.0419
 X67.9450 Z32.2708
 X68.5800 Z31.2458
 X69.2150 Z29.7721
 X69.8500 Z6.3500
 X111.7600
 X112.3950 Z45.8549
 X113.0300 Z46.4475
 X113.6650 Z46.7303
 X114.3000 Z46.8170
 X139.7000 Z46.8170
 X140.3350 Z46.7303
 X140.9700 Z46.4475
 X141.6050 Z45.8549
 X142.2400 Z6.3500
 X184.1500
 X184.7850 Z29.7721
 X185.4200 Z31.2458
 X186.0550 Z32.2708
 X186.6900 Z33.0419
 X187.3250 Z33.6348
 X187.9600 Z34.0882
 X188.5950 Z34.4243
 X189.2300 Z34.6565
 X189.8650 Z34.7929
 X190.5000 Z34.8379
 X196.8500 Z34.8379
 X197.4850 Z34.7929
 X198.1200 Z34.6565
 X198.7550 Z34.4243
 X199.3900 Z34.0882
 X200.0250 Z33.6348
 X200.6600 Z33.0419
 X201.2950 Z32.2708
 X201.9300 Z31.2458
 X202.5650 Z29.7721
 X203.2000 Z6.3500
 X241.3000
 X241.9350 Z21.8179
 X242.5700 Z22.8600
 X243.2050 Z23.5848
 X243.8400 Z24.1300
 X244.4750 Z24.5493
 X245.1100 Z24.8699
 X245.7450 Z25.1075
 X246.3800 Z25.2717
 X247.0150 Z25.3682
 X247.6500 Z25.4000
 X254.0000
 X254.6350 Z25.3682
 X255.2700 Z25.2717
 X255.9050 Z25.1075
 X256.5400 Z24.8699
 X257.1750 Z24.5493
 X257.8100 Z24.1300
 X258.4450 Z23.5848
 X259.0800 Z22.8600
 X259.7150 Z21.8179
 X260.3500 Z0.0000
 X273.0500
 Y45.2509
 X260.3500
 X259.7150 Z21.8179
 X259.0800 Z22.8600
 X258.4450 Z23.5848
 X257.8100 Z24.1300
 X257.1750 Z24.5493
 X256.5400 Z24.8699
 X255.9050 Z25.1075
 X255.2700 Z25.2717
 X254.6350 Z25.3682
 X254.0000 Z25.4000
 X247.6500
 X247.0150 Z25.3682
 X246.3800 Z25.2717
 X245.7450 Z25.1075
 X245.1100 Z24.8699
 X244.4750 Z24.5493
 X243.8400 Z24.1300
 X243.2050 Z23.5848
 X242.5700 Z22.8600
 X241.9350 Z21.8179
 X241.3000 Z6.3500
 X203.2000
 X202.5650 Z28.5135
 X201.9300 Z29.9873
 X201.2950 Z31.0123
 X200.6600 Z31.7833
 X200.0250 Z32.3762
 X199.3900 Z32.8296
 X198.7550 Z33.1657
 X198.1200 Z33.3979
 X197.4850 Z33.5343
 X196.8500 Z33.5794
 X190.5000 Z33.5794
 X189.8650 Z33.5343
 X189.2300 Z33.3979
 X188.5950 Z33.1657
 X187.9600 Z32.8296
 X187.3250 Z32.3762
 X186.6900 Z31.7833
 X186.0550 Z31.0123
 X185.4200 Z29.9873
 X184.7850 Z28.5135
 X184.1500 Z6.3500
 X69.8500
 X69.2150 Z28.5135
 X68.5800 Z29.9873
 X67.9450 Z31.0123
 X67.3100 Z31.7833
 X66.6750 Z32.3762
 X66.0400 Z32.8296
 X65.4050 Z33.1657
 X64.7700 Z33.3979
 X64.1350 Z33.5343
 X63.5000 Z33.5794
 X57.1500
 X56.5150 Z33.5343
 X55.8800 Z33.3979
 X55.2450 Z33.1657
 X54.6100 Z32.8296
 X53.9750 Z32.3762
 X53.3400 Z31.7833
 X52.7050 Z31.0123
 X52.0700 Z29.9873
 X51.4350 Z28.5135
 X50.8000 Z6.3500
 X12.7000
 X12.0650 Z21.8179
 X11.4300 Z22.8600
 X10.7950 Z23.5848
 X10.1600 Z24.1300
 X9.5250 Z24.5493
 X8.8900 Z24.8699
 X8.2550 Z25.1075
 X7.6200 Z25.2717
 X6.9850 Z25.3682
 X6.3500 Z25.4000
 X0.0000
 X-0.6350 Z25.3682
 X-1.2700 Z25.2717
 X-1.9050 Z25.1075
 X-2.5400 Z24.8699
 X-3.1750 Z24.5493
 X-3.8100 Z24.1300
 X-4.4450 Z23.5848
 X-5.0800 Z22.8600
 X-5.7150 Z21.8179
 X-6.3500 Z0.0000
 X-19.0500
 X-19.0500 Y46.5095
 X-6.3500
 X-5.7150 Z21.8179
 X-5.0800 Z22.8600
 X-4.4450 Z23.5848
 X-3.8100 Z24.1300
 X-3.1750 Z24.5493
 X-2.5400 Z24.8699
 X-1.9050 Z25.1075
 X-1.2700 Z25.2717
 X-0.6350 Z25.3682
 X-0.0000 Z25.4000
 X6.3500
 X6.9850 Z25.3682
 X7.6200 Z25.2717
 X8.2550 Z25.1075
 X8.8900 Z24.8699
 X9.5250 Z24.5493
 X10.1600 Z24.1300
 X10.7950 Z23.5848
 X11.4300 Z22.8600
 X12.0650 Z21.8179
 X12.7000 Z6.3500
 X50.8000
 X51.4350 Z27.2549
 X52.0700 Z28.7287
 X52.7050 Z29.7537
 X53.3400 Z30.5247
 X53.9750 Z31.1177
 X54.6100 Z31.5711
 X55.2450 Z31.9072
 X55.8800 Z32.1394
 X56.5150 Z32.2758
 X57.1500 Z32.3208
 X63.5000 Z32.3208
 X64.1350 Z32.2758
 X64.7700 Z32.1394
 X65.4050 Z31.9072
 X66.0400 Z31.5711
 X66.6750 Z31.1177
 X67.3100 Z30.5247
 X67.9450 Z29.7537
 X68.5800 Z28.7287
 X69.2150 Z27.2549
 X69.8500 Z6.3500
 X184.1500
 X184.7850 Z27.2549
 X185.4200 Z28.7287
 X186.0550 Z29.7537
 X186.6900 Z30.5247
 X187.3250 Z31.1177
 X187.9600 Z31.5711
 X188.5950 Z31.9072
 X189.2300 Z32.1394
 X189.8650 Z32.2758
 X190.5000 Z32.3208
 X196.8500 Z32.3208
 X197.4850 Z32.2758
 X198.1200 Z32.1394
 X198.7550 Z31.9072
 X199.3900 Z31.5711
 X200.0250 Z31.1177
 X200.6600 Z30.5247
 X201.2950 Z29.7537
 X201.9300 Z28.7287
 X202.5650 Z27.2549
 X203.2000 Z6.3500
 X241.3000
 X241.9350 Z21.8179
 X242.5700 Z22.8600
 X243.2050 Z23.5848
 X243.8400 Z24.1300
 X244.4750 Z24.5493
 X245.1100 Z24.8699
 X245.7450 Z25.1075
 X246.3800 Z25.2717
 X247.0150 Z25.3682
 X247.6500 Z25.4000
 X254.0000
 X254.6350 Z25.3682
 X255.2700 Z25.2717
 X255.9050 Z25.1075
 X256.5400 Z24.8699
 X257.1750 Z24.5493
 X257.8100 Z24.1300
 X258.4450 Z23.5848
 X259.0800 Z22.8600
 X259.7150 Z21.8179
 X260.3500 Z0.0000
 X273.0500
 Y47.7680
 X260.3500
 X259.7150 Z21.8179
 X259.0800 Z22.8600
 X258.4450 Z23.5848
 X257.8100 Z24.1300
 X257.1750 Z24.5493
 X256.5400 Z24.8699
 X255.9050 Z25.1075
 X255.2700 Z25.2717
 X254.6350 Z25.3682
 X254.0000 Z25.4000
 X247.6500
 X247.0150 Z25.3682
 X246.3800 Z25.2717
 X245.7450 Z25.1075
 X245.1100 Z24.8699
 X244.4750 Z24.5493
 X243.8400 Z24.1300
 X243.2050 Z23.5848
 X242.5700 Z22.8600
 X241.9350 Z21.8179
 X241.3000 Z6.3500
 X203.2000
 X202.5650 Z25.9964
 X201.9300 Z27.4701
 X201.2950 Z28.4952
 X200.6600 Z29.2662
 X200.0250 Z29.8591
 X199.3900 Z30.3125
 X198.7550 Z30.6486
 X198.1200 Z30.8808
 X197.4850 Z31.0172
 X196.8500 Z31.0622
 X190.5000 Z31.0622
 X189.8650 Z31.0172
 X189.2300 Z30.8808
 X188.5950 Z30.6486
 X187.9600 Z30.3125
 X187.3250 Z29.8591
 X186.6900 Z29.2662
 X186.0550 Z28.4952
 X185.4200 Z27.4701
 X184.7850 Z25.9964
 X184.1500 Z6.3500
 X69.8500
 X69.2150 Z25.9964
 X68.5800 Z27.4701
 X67.9450 Z28.4952
 X67.3100 Z29.2662
 X66.6750 Z29.8591
 X66.0400 Z30.3125
 X65.4050 Z30.6486
 X64.7700 Z30.8808
 X64.1350 Z31.0172
 X63.5000 Z31.0622
 X57.1500
 X56.5150 Z31.0172
 X55.8800 Z30.8808
 X55.2450 Z30.6486
 X54.6100 Z30.3125
 X53.9750 Z29.8591
 X53.3400 Z29.2662
 X52.7050 Z28.4952
 X52.0700 Z27.4701
 X51.4350 Z25.9964
 X50.8000 Z6.3500
 X12.7000
 X12.0650 Z21.8179
 X11.4300 Z22.8600
 X10.7950 Z23.5848
 X10.1600 Z24.1300
 X9.5250 Z24.5493
 X8.8900 Z24.8699
 X8.2550 Z25.1075
 X7.6200 Z25.2717
 X6.9850 Z25.3682
 X6.3500 Z25.4000
 X0.0000
 X-0.6350 Z25.3682
 X-1.2700 Z25.2717
 X-1.9050 Z25.1075
 X-2.5400 Z24.8699
 X-3.1750 Z24.5493
 X-3.8100 Z24.1300
 X-4.4450 Z23.5848
 X-5.0800 Z22.8600
 X-5.7150 Z21.8179
 X-6.3500 Z0.0000
 X-19.0500
 X-19.0500 Y49.0266
 X-6.3500
 X-5.7150 Z21.8179
 X-5.0800 Z22.8600
 X-4.4450 Z23.5848
 X-3.8100 Z24.1300
 X-3.1750 Z24.5493
 X-2.5400 Z24.8699
 X-1.9050 Z25.1075
 X-1.2700 Z25.2717
 X-0.6350 Z25.3682
 X-0.0000 Z25.4000
 X6.3500
 X6.9850 Z25.3682
 X7.6200 Z25.2717
 X8.2550 Z25.1075
 X8.8900 Z24.8699
 X9.5250 Z24.5493
 X10.1600 Z24.1300
 X10.7950 Z23.5848
 X11.4300 Z22.8600
 X12.0650 Z21.8179
 X12.7000 Z6.3500
 X50.8000
 X51.4350 Z24.7378
 X52.0700 Z26.2116
 X52.7050 Z27.2366
 X53.3400 Z28.0076
 X53.9750 Z28.6006
 X54.6100 Z29.0540
 X55.2450 Z29.3900
 X55.8800 Z29.6222
 X56.5150 Z29.7587
 X57.1500 Z29.8037
 X63.5000 Z29.8037
 X64.1350 Z29.7587
 X64.7700 Z29.6222
 X65.4050 Z29.3900
 X66.0400 Z29.0540
 X66.6750 Z28.6006
 X67.3100 Z28.0076
 X67.9450 Z27.2366
 X68.5800 Z26.2116
 X69.2150 Z24.7378
 X69.8500 Z6.3500
 X184.1500
 X184.7850 Z24.7378
 X185.4200 Z26.2116
 X186.0550 Z27.2366
 X186.6900 Z28.0076
 X187.3250 Z28.6006
 X187.9600 Z29.0540
 X188.5950 Z29.3900
 X189.2300 Z29.6222
 X189.8650 Z29.7587
 X190.5000 Z29.8037
 X196.8500 Z29.8037
 X197.4850 Z29.7587
 X198.1200 Z29.6222
 X198.7550 Z29.3900
 X199.3900 Z29.0540
 X200.0250 Z28.6006
 X200.6600 Z28.0076
 X201.2950 Z27.2366
 X201.9300 Z26.2116
 X202.5650 Z24.7378
 X203.2000 Z6.3500
 X241.3000
 X241.9350 Z21.8179
 X242.5700 Z22.8600
 X243.2050 Z23.5848
 X243.8400 Z24.1300
 X244.4750 Z24.5493
 X245.1100 Z24.8699
 X245.7450 Z25.1075
 X246.3800 Z25.2717
 X247.0150 Z25.3682
 X247.6500 Z25.4000
 X254.0000
 X254.6350 Z25.3682
 X255.2700 Z25.2717
 X255.9050 Z25.1075
 X256.5400 Z24.8699
 X257.1750 Z24.5493
 X257.8100 Z24.1300
 X258.4450 Z23.5848
 X259.0800 Z22.8600
 X259.7150 Z21.8179
 X260.3500 Z0.0000
 X273.0500
 Y50.2851
 X260.3500
 X259.7150 Z21.8179
 X259.0800 Z22.8600
 X258.4450 Z23.5848
 X257.8100 Z24.1300
 X257.1750 Z24.5493
 X256.5400 Z24.8699
 X255.9050 Z25.1075
 X255.2700 Z25.2717
 X254.6350 Z25.3682
 X254.0000 Z25.4000
 X247.6500
 X247.0150 Z25.3682
 X246.3800 Z25.2717
 X245.7450 Z25.1075
 X245.1100 Z24.8699
 X244.4750 Z24.5493
 X243.8400 Z24.1300
 X243.2050 Z23.5848
 X242.5700 Z22.8600
 X241.9350 Z21.8179
 X241.3000 Z6.3500
 X203.2000
 X202.5650 Z23.4793
 X201.9300 Z24.9530
 X201.2950 Z25.9781
 X200.6600 Z26.7491
 X200.0250 Z27.3420
 X199.3900 Z27.7954
 X198.7550 Z28.1315
 X198.1200 Z28.3637
 X197.4850 Z28.5001
 X196.8500 Z28.5451
 X190.5000 Z28.5451
 X189.8650 Z28.5001
 X189.2300 Z28.3637
 X188.5950 Z28.1315
 X187.9600 Z27.7954
 X187.3250 Z27.3420
 X186.6900 Z26.7491
 X186.0550 Z25.9781
 X185.4200 Z24.9530
 X184.7850 Z23.4793
 X184.1500 Z6.3500
 X69.8500
 X69.2150 Z23.4793
 X68.5800 Z24.9530
 X67.9450 Z25.9781
 X67.3100 Z26.7491
 X66.6750 Z27.3420
 X66.0400 Z27.7954
 X65.4050 Z28.1315
 X64.7700 Z28.3637
 X64.1350 Z28.5001
 X63.5000 Z28.5451
 X57.1500
 X56.5150 Z28.5001
 X55.8800 Z28.3637
 X55.2450 Z28.1315
 X54.6100 Z27.7954
 X53.9750 Z27.3420
 X53.3400 Z26.7491
 X52.7050 Z25.9781
 X52.0700 Z24.9530
 X51.4350 Z23.4793
 X50.8000 Z6.3500
 X12.7000
 X12.0650 Z21.8179
 X11.4300 Z22.8600
 X10.7950 Z23.5848
 X10.1600 Z24.1300
 X9.5250 Z24.5493
 X8.8900 Z24.8699
 X8.2550 Z25.1075
 X7.6200 Z25.2717
 X6.9850 Z25.3682
 X6.3500 Z25.4000
 X0.0000
 X-0.6350 Z25.3682
 X-1.2700 Z25.2717
 X-1.9050 Z25.1075
 X-2.5400 Z24.8699
 X-3.1750 Z24.5493
 X-3.8100 Z24.1300
 X-4.4450 Z23.5848
 X-5.0800 Z22.8600
 X-5.7150 Z21.8179
 X-6.3500 Z0.0000
 X-19.0500
 X-19.0500 Y51.5437
 X-6.3500
 X-5.7150 Z21.8179
 X-5.0800 Z22.8600
 X-4.4450 Z23.5848
 X-3.8100 Z24.1300
 X-3.1750 Z24.5493
 X-2.5400 Z24.8699
 X-1.9050 Z25.1075
 X-1.2700 Z25.2717
 X-0.6350 Z25.3682
 X-0.0000 Z25.4000
 X6.3500
 X6.9850 Z25.3682
 X7.6200 Z25.2717
 X8.2550 Z25.1075
 X8.8900 Z24.8699
 X9.5250 Z24.5493
 X10.1600 Z24.1300
 X10.7950 Z23.5848
 X11.4300 Z22.8600
 X12.0650 Z21.8179
 X12.7000 Z6.3500
 X50.8000
 X51.4350 Z22.2207
 X52.0700 Z23.6945
 X52.7050 Z24.7195
 X53.3400 Z25.4905
 X53.9750 Z26.0834
 X54.6100 Z26.5368
 X55.2450 Z26.8729
 X55.8800 Z27.1051
 X56.5150 Z27.2415
 X57.1500 Z27.2866
 X63.5000 Z27.2866
 X64.1350 Z27.2415
 X64.7700 Z27.1051
 X65.4050 Z26.8729
 X66.0400 Z26.5368
 X66.6750 Z26.0834
 X67.3100 Z25.4905
 X67.9450 Z24.7195
 X68.5800 Z23.6945
 X69.2150 Z22.2207
 X69.8500 Z6.3500
 X184.1500
 X184.7850 Z22.2207
 X185.4200 Z23.6945
 X186.0550 Z24.7195
 X186.6900 Z25.4905
 X187.3250 Z26.0834
 X187.9600 Z26.5368
 X188.5950 Z26.8729
 X189.2300 Z27.1051
 X189.8650 Z27.2415
 X190.5000 Z27.2866
 X196.8500
 X197.4850 Z27.2415
 X198.1200 Z27.1051
 X198.7550 Z26.8729
 X199.3900 Z26.5368
 X200.0250 Z26.0834
 X200.6600 Z25.4905
 X201.2950 Z24.7195
 X201.9300 Z23.6945
 X202.5650 Z22.2207
 X203.2000 Z6.3500
 X241.3000
 X241.9350 Z21.8179
 X242.5700 Z22.8600
 X243.2050 Z23.5848
 X243.8400 Z24.1300
 X244.4750 Z24.5493
 X245.1100 Z24.8699
 X245.7450 Z25.1075
 X246.3800 Z25.2717
 X247.0150 Z25.3682
 X247.6500 Z25.4000
 X254.0000
 X254.6350 Z25.3682
 X255.2700 Z25.2717
 X255.9050 Z25.1075
 X256.5400 Z24.8699
 X257.1750 Z24.5493
 X257.8100 Z24.1300
 X258.4450 Z23.5848
 X259.0800 Z22.8600
 X259.7150 Z21.8179
 X260.3500 Z0.0000
 X273.0500
 Y52.8023
 X260.3500
 X259.7150 Z21.8179
 X259.0800 Z22.8600
 X258.4450 Z23.5848
 X257.8100 Z24.1300
 X257.1750 Z24.5493
 X256.5400 Z24.8699
 X255.9050 Z25.1075
 X255.2700 Z25.2717
 X254.6350 Z25.3682
 X254.0000 Z25.4000
 X247.6500
 X247.0150 Z25.3682
 X246.3800 Z25.2717
 X245.7450 Z25.1075
 X245.1100 Z24.8699
 X244.4750 Z24.5493
 X243.8400 Z24.1300
 X243.2050 Z23.5848
 X242.5700 Z22.8600
 X241.9350 Z21.8179
 X241.3000 Z6.3500
 X203.2000
 X202.5650 Z20.9622
 X201.9300 Z22.4359
 X201.2950 Z23.4609
 X200.6600 Z24.2320
 X200.0250 Z24.8249
 X199.3900 Z25.2783
 X198.7550 Z25.6144
 X198.1200 Z25.8466
 X197.4850 Z25.9830
 X196.8500 Z26.0280
 X190.5000 Z26.0280
 X189.8650 Z25.9830
 X189.2300 Z25.8466
 X188.5950 Z25.6144
 X187.9600 Z25.2783
 X187.3250 Z24.8249
 X186.6900 Z24.2320
 X186.0550 Z23.4609
 X185.4200 Z22.4359
 X184.7850 Z20.9622
 X184.1500 Z6.3500
 X69.8500
 X69.2150 Z20.9622
 X68.5800 Z22.4359
 X67.9450 Z23.4609
 X67.3100 Z24.2320
 X66.6750 Z24.8249
 X66.0400 Z25.2783
 X65.4050 Z25.6144
 X64.7700 Z25.8466
 X64.1350 Z25.9830
 X63.5000 Z26.0280
 X57.1500
 X56.5150 Z25.9830
 X55.8800 Z25.8466
 X55.2450 Z25.6144
 X54.6100 Z25.2783
 X53.9750 Z24.8249
 X53.3400 Z24.2320
 X52.7050 Z23.4609
 X52.0700 Z22.4359
 X51.4350 Z20.9622
 X50.8000 Z6.3500
 X12.7000
 X12.0650 Z21.8179
 X11.4300 Z22.8600
 X10.7950 Z23.5848
 X10.1600 Z24.1300
 X9.5250 Z24.5493
 X8.8900 Z24.8699
 X8.2550 Z25.1075
 X7.6200 Z25.2717
 X6.9850 Z25.3682
 X6.3500 Z25.4000
 X0.0000
 X-0.6350 Z25.3682
 X-1.2700 Z25.2717
 X-1.9050 Z25.1075
 X-2.5400 Z24.8699
 X-3.1750 Z24.5493
 X-3.8100 Z24.1300
 X-4.4450 Z23.5848
 X-5.0800 Z22.8600
 X-5.7150 Z21.8179
 X-6.3500 Z0.0000
 X-19.0500
 X-19.0500 Y54.0608
 X-6.3500
 X-5.7150 Z21.8179
 X-5.0800 Z22.8600
 X-4.4450 Z23.5848
 X-3.8100 Z24.1300
 X-3.1750 Z24.5493
 X-2.5400 Z24.8699
 X-1.9050 Z25.1075
 X-1.2700 Z25.2717
 X-0.6350 Z25.3682
 X-0.0000 Z25.4000
 X6.3500
 X6.9850 Z25.3682
 X7.6200 Z25.2717
 X8.2550 Z25.1075
 X8.8900 Z24.8699
 X9.5250 Z24.5493
 X10.1600 Z24.1300
 X10.7950 Z23.5848
 X11.4300 Z22.8600
 X12.0650 Z21.8179
 X12.7000 Z17.0382
 X33.6550 Z6.5607
 X34.2900 Z6.3500
 X50.8000
 X51.4350 Z19.7036
 X52.0700 Z21.1773
 X52.7050 Z22.2024
 X53.3400 Z22.9734
 X53.9750 Z23.5663
 X54.6100 Z24.0197
 X55.2450 Z24.3558
 X55.8800 Z24.5880
 X56.5150 Z24.7244
 X57.1500 Z24.7694
 X63.5000 Z24.7694
 X64.1350 Z24.7244
 X64.7700 Z24.5880
 X65.4050 Z24.3558
 X66.0400 Z24.0197
 X66.6750 Z23.5663
 X67.3100 Z22.9734
 X67.9450 Z22.2024
 X68.5800 Z21.1773
 X69.2150 Z19.7036
 X69.8500 Z6.3500
 X184.1500
 X184.7850 Z19.7036
 X185.4200 Z21.1773
 X186.0550 Z22.2024
 X186.6900 Z22.9734
 X187.3250 Z23.5663
 X187.9600 Z24.0197
 X188.5950 Z24.3558
 X189.2300 Z24.5880
 X189.8650 Z24.7244
 X190.5000 Z24.7694
 X196.8500
 X197.4850 Z24.7244
 X198.1200 Z24.5880
 X198.7550 Z24.3558
 X199.3900 Z24.0197
 X200.0250 Z23.5663
 X200.6600 Z22.9734
 X201.2950 Z22.2024
 X201.9300 Z21.1773
 X202.5650 Z19.7036
 X203.2000 Z6.3500
 X219.7100
 X220.3450 Z6.5607
 X241.3000 Z17.0382
 X241.9350 Z21.8179
 X242.5700 Z22.8600
 X243.2050 Z23.5848
 X243.8400 Z24.1300
 X244.4750 Z24.5493
 X245.1100 Z24.8699
 X245.7450 Z25.1075
 X246.3800 Z25.2717
 X247.0150 Z25.3682
 X247.6500 Z25.4000
 X254.0000
 X254.6350 Z25.3682
 X255.2700 Z25.2717
 X255.9050 Z25.1075
 X256.5400 Z24.8699
 X257.1750 Z24.5493
 X257.8100 Z24.1300
 X258.4450 Z23.5848
 X259.0800 Z22.8600
 X259.7150 Z21.8179
 X260.3500 Z0.0000
 X273.0500
 Y55.3194
 X260.3500
 X259.7150 Z21.8179
 X259.0800 Z22.8600
 X258.4450 Z23.5848
 X257.8100 Z24.1300
 X257.1750 Z24.5493
 X256.5400 Z24.8699
 X255.9050 Z25.1075
 X255.2700 Z25.2717
 X254.6350 Z25.3682
 X254.0000 Z25.4000
 X247.6500
 X247.0150 Z25.3682
 X246.3800 Z25.2717
 X245.7450 Z25.1075
 X245.1100 Z24.8699
 X244.4750 Z24.5493
 X243.8400 Z24.1300
 X243.2050 Z23.5848
 X242.5700 Z22.8600
 X241.9350 Z21.8179
 X241.3000 Z20.2434
 X213.9950 Z6.5909
 X213.3600 Z6.3500
 X203.2000
 X202.5650 Z18.4450
 X201.9300 Z19.9188
 X201.2950 Z20.9438
 X200.6600 Z21.7148
 X200.0250 Z22.3078
 X199.3900 Z22.7612
 X198.7550 Z23.0972
 X198.1200 Z23.3294
 X197.4850 Z23.4659
 X196.8500 Z23.5109
 X190.5000
 X189.8650 Z23.4659
 X189.2300 Z23.3294
 X188.5950 Z23.0972
 X187.9600 Z22.7612
 X187.3250 Z22.3078
 X186.6900 Z21.7148
 X186.0550 Z20.9438
 X185.4200 Z19.9188
 X184.7850 Z18.4450
 X184.1500 Z6.3500
 X69.8500
 X69.2150 Z18.4450
 X68.5800 Z19.9188
 X67.9450 Z20.9438
 X67.3100 Z21.7148
 X66.6750 Z22.3078
 X66.0400 Z22.7612
 X65.4050 Z23.0972
 X64.7700 Z23.3294
 X64.1350 Z23.4659
 X63.5000 Z23.5109
 X57.1500
 X56.5150 Z23.4659
 X55.8800 Z23.3294
 X55.2450 Z23.0972
 X54.6100 Z22.7612
 X53.9750 Z22.3078
 X53.3400 Z21.7148
 X52.7050 Z20.9438
 X52.0700 Z19.9188
 X51.4350 Z18.4450
 X50.8000 Z6.3500
 X40.6400
 X40.0050 Z6.5909
 X12.7000 Z20.2434
 X12.0650 Z21.8179
 X11.4300 Z22.8600
 X10.7950 Z23.5848
 X10.1600 Z24.1300
 X9.5250 Z24.5493
 X8.8900 Z24.8699
 X8.2550 Z25.1075
 X7.6200 Z25.2717
 X6.9850 Z25.3682
 X6.3500 Z25.4000
 X0.0000
 X-0.6350 Z25.3682
 X-1.2700 Z25.2717
 X-1.9050 Z25.1075
 X-2.5400 Z24.8699
 X-3.1750 Z24.5493
 X-3.8100 Z24.1300
 X-4.4450 Z23.5848
 X-5.0800 Z22.8600
 X-5.7150 Z21.8179
 X-6.3500 Z0.0000
 X-19.0500
 X-19.0500 Y56.5779
 X-6.3500
 X-5.7150 Z21.8179
 X-5.0800 Z22.8600
 X-4.4450 Z23.5848
 X-3.8100 Z24.1300
 X-3.1750 Z24.5493
 X-2.5400 Z24.8699
 X-1.9050 Z25.1075
 X-1.2700 Z25.2717
 X-0.6350 Z25.3682
 X-0.0000 Z25.4000
 X6.3500
 X6.9850 Z25.3682
 X7.6200 Z25.2717
 X8.2550 Z25.1075
 X8.8900 Z24.8699
 X9.5250 Z24.5493
 X10.1600 Z24.1300
 X10.7950 Z23.5848
 X11.4300 Z22.8600
 X12.0650 Z21.9242
 X43.1800 Z6.3667
 X43.8150 Z6.3500
 X50.8000
 X51.4350 Z17.1865
 X52.0700 Z18.6602
 X52.7050 Z19.6853
 X53.3400 Z20.4563
 X53.9750 Z21.0492
 X54.6100 Z21.5026
 X55.2450 Z21.8387
 X55.8800 Z22.0709
 X56.5150 Z22.2073
 X57.1500 Z22.2523
 X63.5000 Z22.2523
 X64.1350 Z22.2073
 X64.7700 Z22.0709
 X65.4050 Z21.8387
 X66.0400 Z21.5026
 X66.6750 Z21.0492
 X67.3100 Z20.4563
 X67.9450 Z19.6853
 X68.5800 Z18.6602
 X69.2150 Z17.1865
 X69.8500 Z6.3500
 X184.1500
 X184.7850 Z17.1865
 X185.4200 Z18.6602
 X186.0550 Z19.6853
 X186.6900 Z20.4563
 X187.3250 Z21.0492
 X187.9600 Z21.5026
 X188.5950 Z21.8387
 X189.2300 Z22.0709
 X189.8650 Z22.2073
 X190.5000 Z22.2523
 X196.8500 Z22.2523
 X197.4850 Z22.2073
 X198.1200 Z22.0709
 X198.7550 Z21.8387
 X199.3900 Z21.5026
 X200.0250 Z21.0492
 X200.6600 Z20.4563
 X201.2950 Z19.6853
 X201.9300 Z18.6602
 X202.5650 Z17.1865
 X203.2000 Z6.3500
 X210.1850
 X210.8200 Z6.3667
 X241.9350 Z21.9242
 X242.5700 Z22.8600
 X243.2050 Z23.5848
 X243.8400 Z24.1300
 X244.4750 Z24.5493
 X245.1100 Z24.8699
 X245.7450 Z25.1075
 X246.3800 Z25.2717
 X247.0150 Z25.3682
 X247.6500 Z25.4000
 X254.0000
 X254.6350 Z25.3682
 X255.2700 Z25.2717
 X255.9050 Z25.1075
 X256.5400 Z24.8699
 X257.1750 Z24.5493
 X257.8100 Z24.1300
 X258.4450 Z23.5848
 X259.0800 Z22.8600
 X259.7150 Z21.8179
 X260.3500 Z0.0000
 X273.0500
 Y57.8365
 X260.3500
 X259.7150 Z21.8179
 X259.0800 Z22.8600
 X258.4450 Z23.5848
 X257.8100 Z24.1300
 X257.1750 Z24.5493
 X256.5400 Z24.8699
 X255.9050 Z25.1075
 X255.2700 Z25.2717
 X254.6350 Z25.3682
 X254.0000 Z25.4000
 X247.6500
 X247.0150 Z25.3682
 X246.3800 Z25.2717
 X245.7450 Z25.1075
 X245.1100 Z24.8699
 X244.4750 Z24.5493
 X243.8400 Z24.1300
 X243.2050 Z23.5848
 X242.5700 Z23.0416
 X209.5500 Z6.5316
 X208.9150 Z6.3500
 X203.2000
 X202.5650 Z15.9279
 X201.9300 Z17.4017
 X201.2950 Z18.4267
 X200.6600 Z19.1977
 X200.0250 Z19.7906
 X199.3900 Z20.2441
 X198.7550 Z20.5801
 X198.1200 Z20.8123
 X197.4850 Z20.9488
 X196.8500 Z20.9938
 X190.5000 Z20.9938
 X189.8650 Z20.9488
 X189.2300 Z20.8123
 X188.5950 Z20.5801
 X187.9600 Z20.2441
 X187.3250 Z19.7906
 X186.6900 Z19.1977
 X186.0550 Z18.4267
 X185.4200 Z17.4017
 X184.7850 Z15.9279
 X184.1500 Z6.3500
 X69.8500
 X69.2150 Z15.9279
 X68.5800 Z17.4017
 X67.9450 Z18.4267
 X67.3100 Z19.1977
 X66.6750 Z19.7906
 X66.0400 Z20.2441
 X65.4050 Z20.5801
 X64.7700 Z20.8123
 X64.1350 Z20.9488
 X63.5000 Z20.9938
 X57.1500
 X56.5150 Z20.9488
 X55.8800 Z20.8123
 X55.2450 Z20.5801
 X54.6100 Z20.2441
 X53.9750 Z19.7906
 X53.3400 Z19.1977
 X52.7050 Z18.4267
 X52.0700 Z17.4017
 X51.4350 Z15.9279
 X50.8000 Z6.3500
 X45.0850
 X44.4500 Z6.5316
 X11.4300 Z23.0416
 X10.7950 Z23.5848
 X10.1600 Z24.1300
 X9.5250 Z24.5493
 X8.8900 Z24.8699
 X8.2550 Z25.1075
 X7.6200 Z25.2717
 X6.9850 Z25.3682
 X6.3500 Z25.4000
 X0.0000
 X-0.6350 Z25.3682
 X-1.2700 Z25.2717
 X-1.9050 Z25.1075
 X-2.5400 Z24.8699
 X-3.1750 Z24.5493
 X-3.8100 Z24.1300
 X-4.4450 Z23.5848
 X-5.0800 Z22.8600
 X-5.7150 Z21.8179
 X-6.3500 Z0.0000
 X-19.0500
 X-19.0500 Y59.0950
 X-6.3500
 X-5.7150 Z21.8179
 X-5.0800 Z22.8600
 X-4.4450 Z23.5848
 X-3.8100 Z24.1300
 X-3.1750 Z24.5493
 X-2.5400 Z24.8699
 X-1.9050 Z25.1075
 X-1.2700 Z25.2717
 X-0.6350 Z25.3682
 X-0.0000 Z25.4000
 X6.3500
 X6.9850 Z25.3682
 X7.6200 Z25.2717
 X8.2550 Z25.1075
 X8.8900 Z24.8699
 X9.5250 Z24.5493
 X10.1600 Z24.1300
 X10.7950 Z23.7926
 X45.0850 Z6.6476
 X45.7200 Z6.3500
 X50.8000
 X51.4350 Z14.6694
 X52.0700 Z16.1431
 X52.7050 Z17.1681
 X53.3400 Z17.9392
 X53.9750 Z18.5321
 X54.6100 Z18.9855
 X55.2450 Z19.3216
 X55.8800 Z19.5538
 X56.5150 Z19.6902
 X57.1500 Z19.7352
 X63.5000 Z19.7352
 X64.1350 Z19.6902
 X64.7700 Z19.5538
 X65.4050 Z19.3216
 X66.0400 Z18.9855
 X66.6750 Z18.5321
 X67.3100 Z17.9392
 X67.9450 Z17.1681
 X68.5800 Z16.1431
 X69.2150 Z14.6694
 X69.8500 Z6.3500
 X184.1500
 X184.7850 Z14.6694
 X185.4200 Z16.1431
 X186.0550 Z17.1681
 X186.6900 Z17.9392
 X187.3250 Z18.5321
 X187.9600 Z18.9855
 X188.5950 Z19.3216
 X189.2300 Z19.5538
 X189.8650 Z19.6902
 X190.5000 Z19.7352
 X196.8500 Z19.7352
 X197.4850 Z19.6902
 X198.1200 Z19.5538
 X198.7550 Z19.3216
 X199.3900 Z18.9855
 X200.0250 Z18.5321
 X200.6600 Z17.9392
 X201.2950 Z17.1681
 X201.9300 Z16.1431
 X202.5650 Z14.6694
 X203.2000 Z6.3500
 X208.2800
 X208.9150 Z6.6476
 X243.2050 Z23.7926
 X243.8400 Z24.1300
 X244.4750 Z24.5493
 X245.1100 Z24.8699
 X245.7450 Z25.1075
 X246.3800 Z25.2717
 X247.0150 Z25.3682
 X247.6500 Z25.4000
 X254.0000
 X254.6350 Z25.3682
 X255.2700 Z25.2717
 X255.9050 Z25.1075
 X256.5400 Z24.8699
 X257.1750 Z24.5493
 X257.8100 Z24.1300
 X258.4450 Z23.5848
 X259.0800 Z22.8600
 X259.7150 Z21.8179
 X260.3500 Z0.0000
 X273.0500
 Y60.3536
 X260.3500
 X259.7150 Z21.8179
 X259.0800 Z22.8600
 X258.4450 Z23.5848
 X257.8100 Z24.1300
 X257.1750 Z24.5493
 X256.5400 Z24.8699
 X255.9050 Z25.1075
 X255.2700 Z25.2717
 X254.6350 Z25.3682
 X254.0000 Z25.4000
 X247.6500
 X247.0150 Z25.3682
 X246.3800 Z25.2717
 X245.7450 Z25.1075
 X245.1100 Z24.8699
 X244.4750 Z24.5620
 X208.2800 Z6.4645
 X207.6450 Z6.3500
 X203.2000
 X202.5650 Z13.4108
 X201.9300 Z14.8846
 X201.2950 Z15.9096
 X200.6600 Z16.6806
 X200.0250 Z17.2735
 X199.3900 Z17.7269
 X198.7550 Z18.0630
 X198.1200 Z18.2952
 X197.4850 Z18.4316
 X196.8500 Z18.4767
 X190.5000 Z18.4767
 X189.8650 Z18.4316
 X189.2300 Z18.2952
 X188.5950 Z18.0630
 X187.9600 Z17.7269
 X187.3250 Z17.2735
 X186.6900 Z16.6806
 X186.0550 Z15.9096
 X185.4200 Z14.8846
 X184.7850 Z13.4108
 X184.1500 Z6.3500
 X69.8500
 X69.2150 Z13.4108
 X68.5800 Z14.8846
 X67.9450 Z15.9096
 X67.3100 Z16.6806
 X66.6750 Z17.2735
 X66.0400 Z17.7269
 X65.4050 Z18.0630
 X64.7700 Z18.2952
 X64.1350 Z18.4316
 X63.5000 Z18.4767
 X57.1500
 X56.5150 Z18.4316
 X55.8800 Z18.2952
 X55.2450 Z18.0630
 X54.6100 Z17.7269
 X53.9750 Z17.2735
 X53.3400 Z16.6806
 X52.7050 Z15.9096
 X52.0700 Z14.8846
 X51.4350 Z13.4108
 X50.8000 Z6.3500
 X46.3550
 X45.7200 Z6.4645
 X9.5250 Z24.5620
 X8.8900 Z24.8699
 X8.2550 Z25.1075
 X7.6200 Z25.2717
 X6.9850 Z25.3682
 X6.3500 Z25.4000
 X0.0000
 X-0.6350 Z25.3682
 X-1.2700 Z25.2717
 X-1.9050 Z25.1075
 X-2.5400 Z24.8699
 X-3.1750 Z24.5493
 X-3.8100 Z24.1300
 X-4.4450 Z23.5848
 X-5.0800 Z22.8600
 X-5.7150 Z21.8179
 X-6.3500 Z0.0000
 X-19.0500
 X-19.0500 Y61.6122
 X-6.3500
 X-5.7150 Z21.8179
 X-5.0800 Z22.8600
 X-4.4450 Z23.5848
 X-3.8100 Z24.1300
 X-3.1750 Z24.5493
 X-2.5400 Z24.8699
 X-1.9050 Z25.1075
 X-1.2700 Z25.2717
 X-0.6350 Z25.3682
 X-0.0000 Z25.4000
 X6.3500
 X6.9850 Z25.3682
 X7.6200 Z25.2717
 X8.2550 Z25.1075
 X8.8900 Z24.8699
 X9.5250 Z24.5620
 X45.7200 Z6.4645
 X46.3550 Z6.3500
 X50.8000
 X51.4350 Z12.1522
 X52.0700 Z13.6260
 X52.7050 Z14.6510
 X53.3400 Z15.4220
 X53.9750 Z16.0150
 X54.6100 Z16.4684
 X55.2450 Z16.8045
 X55.8800 Z17.0367
 X56.5150 Z17.1731
 X57.1500 Z17.2181
 X63.5000 Z17.2181
 X64.1350 Z17.1731
 X64.7700 Z17.0367
 X65.4050 Z16.8045
 X66.0400 Z16.4684
 X66.6750 Z16.0150
 X67.3100 Z15.4220
 X67.9450 Z14.6510
 X68.5800 Z13.6260
 X69.2150 Z12.1522
 X69.8500 Z6.3500
 X184.1500
 X184.7850 Z12.1522
 X185.4200 Z13.6260
 X186.0550 Z14.6510
 X186.6900 Z15.4220
 X187.3250 Z16.0150
 X187.9600 Z16.4684
 X188.5950 Z16.8045
 X189.2300 Z17.0367
 X189.8650 Z17.1731
 X190.5000 Z17.2181
 X196.8500 Z17.2181
 X197.4850 Z17.1731
 X198.1200 Z17.0367
 X198.7550 Z16.8045
 X199.3900 Z16.4684
 X200.0250 Z16.0150
 X200.6600 Z15.4220
 X201.2950 Z14.6510
 X201.9300 Z13.6260
 X202.5650 Z12.1522
 X203.2000 Z6.3500
 X207.6450
 X208.2800 Z6.4645
 X244.4750 Z24.5620
 X245.1100 Z24.8699
 X245.7450 Z25.1075
 X246.3800 Z25.2717
 X247.0150 Z25.3682
 X247.6500 Z25.4000
 X254.0000
 X254.6350 Z25.3682
 X255.2700 Z25.2717
 X255.9050 Z25.1075
 X256.5400 Z24.8699
 X257.1750 Z24.5493
 X257.8100 Z24.1300
 X258.4450 Z23.5848
 X259.0800 Z22.8600
 X259.7150 Z21.8179
 X260.3500 Z0.0000
 X273.0500
 Y62.8707
 X260.3500
 X259.7150 Z21.8179
 X259.0800 Z22.8600
 X258.4450 Z23.5848
 X257.8100 Z24.1300
 X257.1750 Z24.5493
 X256.5400 Z24.8699
 X255.9050 Z25.1075
 X255.2700 Z25.2717
 X254.6350 Z25.3682
 X254.0000 Z25.4000
 X247.6500
 X247.0150 Z25.3682
 X246.3800 Z25.2717
 X245.7450 Z25.1075
 X245.1100 Z24.8699
 X244.4750 Z24.5620
 X208.2800 Z6.4645
 X207.6450 Z6.3500
 X203.2000
 X202.5650 Z10.8937
 X201.9300 Z12.3674
 X201.2950 Z13.3925
 X200.6600 Z14.1635
 X200.0250 Z14.7564
 X199.3900 Z15.2098
 X198.7550 Z15.5459
 X198.1200 Z15.7781
 X197.4850 Z15.9145
 X196.8500 Z15.9595
 X190.5000
 X189.8650 Z15.9145
 X189.2300 Z15.7781
 X188.5950 Z15.5459
 X187.9600 Z15.2098
 X187.3250 Z14.7564
 X186.6900 Z14.1635
 X186.0550 Z13.3925
 X185.4200 Z12.3674
 X184.7850 Z10.8937
 X184.1500 Z6.3500
 X69.8500
 X69.2150 Z10.8937
 X68.5800 Z12.3674
 X67.9450 Z13.3925
 X67.3100 Z14.1635
 X66.6750 Z14.7564
 X66.0400 Z15.2098
 X65.4050 Z15.5459
 X64.7700 Z15.7781
 X64.1350 Z15.9145
 X63.5000 Z15.9595
 X57.1500
 X56.5150 Z15.9145
 X55.8800 Z15.7781
 X55.2450 Z15.5459
 X54.6100 Z15.2098
 X53.9750 Z14.7564
 X53.3400 Z14.1635
 X52.7050 Z13.3925
 X52.0700 Z12.3674
 X51.4350 Z10.8937
 X50.8000 Z6.3500
 X46.3550
 X45.7200 Z6.4645
 X9.5250 Z24.5620
 X8.8900 Z24.8699
 X8.2550 Z25.1075
 X7.6200 Z25.2717
 X6.9850 Z25.3682
 X6.3500 Z25.4000
 X0.0000
 X-0.6350 Z25.3682
 X-1.2700 Z25.2717
 X-1.9050 Z25.1075
 X-2.5400 Z24.8699
 X-3.1750 Z24.5493
 X-3.8100 Z24.1300
 X-4.4450 Z23.5848
 X-5.0800 Z22.8600
 X-5.7150 Z21.8179
 X-6.3500 Z0.0000
 X-19.0500
 X-19.0500 Y64.1293
 X-6.3500
 X-5.7150 Z21.8179
 X-5.0800 Z22.8600
 X-4.4450 Z23.5848
 X-3.8100 Z24.1300
 X-3.1750 Z24.5493
 X-2.5400 Z24.8699
 X-1.9050 Z25.1075
 X-1.2700 Z25.2717
 X-0.6350 Z25.3682
 X-0.0000 Z25.4000
 X6.3500
 X6.9850 Z25.3682
 X7.6200 Z25.2717
 X8.2550 Z25.1075
 X8.8900 Z24.8699
 X9.5250 Z24.5620
 X45.7200 Z6.4645
 X46.3550 Z6.3500
 X50.8000
 X51.4350 Z9.6351
 X52.0700 Z11.1089
 X52.7050 Z12.1339
 X53.3400 Z12.9049
 X53.9750 Z13.4979
 X54.6100 Z13.9513
 X55.2450 Z14.2873
 X55.8800 Z14.5195
 X56.5150 Z14.6560
 X57.1500 Z14.7010
 X63.5000 Z14.7010
 X64.1350 Z14.6560
 X64.7700 Z14.5195
 X65.4050 Z14.2873
 X66.0400 Z13.9513
 X66.6750 Z13.4979
 X67.3100 Z12.9049
 X67.9450 Z12.1339
 X68.5800 Z11.1089
 X69.2150 Z9.6351
 X69.8500 Z6.3500
 X184.1500
 X184.7850 Z9.6351
 X185.4200 Z11.1089
 X186.0550 Z12.1339
 X186.6900 Z12.9049
 X187.3250 Z13.4979
 X187.9600 Z13.9513
 X188.5950 Z14.2873
 X189.2300 Z14.5195
 X189.8650 Z14.6560
 X190.5000 Z14.7010
 X196.8500
 X197.4850 Z14.6560
 X198.1200 Z14.5195
 X198.7550 Z14.2873
 X199.3900 Z13.9513
 X200.0250 Z13.4979
 X200.6600 Z12.9049
 X201.2950 Z12.1339
 X201.9300 Z11.1089
 X202.5650 Z9.6351
 X203.2000 Z6.3500
 X207.6450
 X208.2800 Z6.4645
 X244.4750 Z24.5620
 X245.1100 Z24.8699
 X245.7450 Z25.1075
 X246.3800 Z25.2717
 X247.0150 Z25.3682
 X247.6500 Z25.4000
 X254.0000
 X254.6350 Z25.3682
 X255.2700 Z25.2717
 X255.9050 Z25.1075
 X256.5400 Z24.8699
 X257.1750 Z24.5493
 X257.8100 Z24.1300
 X258.4450 Z23.5848
 X259.0800 Z22.8600
 X259.7150 Z21.8179
 X260.3500 Z0.0000
 X273.0500
 Y65.3878
 X260.3500
 X259.7150 Z21.8179
 X259.0800 Z22.8600
 X258.4450 Z23.5848
 X257.8100 Z24.1300
 X257.1750 Z24.5493
 X256.5400 Z24.8699
 X255.9050 Z25.1075
 X255.2700 Z25.2717
 X254.6350 Z25.3682
 X254.0000 Z25.4000
 X247.6500
 X247.0150 Z25.3682
 X246.3800 Z25.2717
 X245.7450 Z25.1075
 X245.1100 Z24.8699
 X244.4750 Z24.5620
 X208.2800 Z6.4645
 X207.6450 Z6.3500
 X203.2000
 X202.5650 Z8.3766
 X201.9300 Z9.8503
 X201.2950 Z10.8753
 X200.6600 Z11.6464
 X200.0250 Z12.2393
 X199.3900 Z12.6927
 X198.7550 Z13.0288
 X198.1200 Z13.2610
 X197.4850 Z13.3974
 X196.8500 Z13.4424
 X190.5000
 X189.8650 Z13.3974
 X189.2300 Z13.2610
 X188.5950 Z13.0288
 X187.9600 Z12.6927
 X187.3250 Z12.2393
 X186.6900 Z11.6464
 X186.0550 Z10.8753
 X185.4200 Z9.8503
 X184.7850 Z8.3766
 X184.1500 Z6.3500
 X69.8500
 X69.2150 Z8.3766
 X68.5800 Z9.8503
 X67.9450 Z10.8753
 X67.3100 Z11.6464
 X66.6750 Z12.2393
 X66.0400 Z12.6927
 X65.4050 Z13.0288
 X64.7700 Z13.2610
 X64.1350 Z13.3974
 X63.5000 Z13.4424
 X57.1500
 X56.5150 Z13.3974
 X55.8800 Z13.2610
 X55.2450 Z13.0288
 X54.6100 Z12.6927
 X53.9750 Z12.2393
 X53.3400 Z11.6464
 X52.7050 Z10.8753
 X52.0700 Z9.8503
 X51.4350 Z8.3766
 X50.8000 Z6.3500
 X46.3550
 X45.7200 Z6.4645
 X9.5250 Z24.5620
 X8.8900 Z24.8699
 X8.2550 Z25.1075
 X7.6200 Z25.2717
 X6.9850 Z25.3682
 X6.3500 Z25.4000
 X0.0000
 X-0.6350 Z25.3682
 X-1.2700 Z25.2717
 X-1.9050 Z25.1075
 X-2.5400 Z24.8699
 X-3.1750 Z24.5493
 X-3.8100 Z24.1300
 X-4.4450 Z23.5848
 X-5.0800 Z22.8600
 X-5.7150 Z21.8179
 X-6.3500 Z0.0000
 X-19.0500
 X-19.0500 Y66.6464
 X-6.3500
 X-5.7150 Z21.8179
 X-5.0800 Z22.8600
 X-4.4450 Z23.5848
 X-3.8100 Z24.1300
 X-3.1750 Z24.5493
 X-2.5400 Z24.8699
 X-1.9050 Z25.1075
 X-1.2700 Z25.2717
 X-0.6350 Z25.3682
 X-0.0000 Z25.4000
 X6.3500
 X6.9850 Z25.3682
 X7.6200 Z25.2717
 X8.2550 Z25.1075
 X8.8900 Z24.8699
 X9.5250 Z24.5620
 X45.7200 Z6.4645
 X46.3550 Z6.3500
 X50.8000
 X51.4350 Z7.1180
 X52.0700 Z8.5918
 X52.7050 Z9.6168
 X53.3400 Z10.3878
 X53.9750 Z10.9807
 X54.6100 Z11.4341
 X55.2450 Z11.7702
 X55.8800 Z12.0024
 X56.5150 Z12.1388
 X57.1500 Z12.1839
 X63.5000 Z12.1839
 X64.1350 Z12.1388
 X64.7700 Z12.0024
 X65.4050 Z11.7702
 X66.0400 Z11.4341
 X66.6750 Z10.9807
 X67.3100 Z10.3878
 X67.9450 Z9.6168
 X68.5800 Z8.5918
 X69.2150 Z7.1180
 X69.8500 Z6.3500
 X184.1500
 X184.7850 Z7.1180
 X185.4200 Z8.5918
 X186.0550 Z9.6168
 X186.6900 Z10.3878
 X187.3250 Z10.9807
 X187.9600 Z11.4341
 X188.5950 Z11.7702
 X189.2300 Z12.0024
 X189.8650 Z12.1388
 X190.5000 Z12.1839
 X196.8500
 X197.4850 Z12.1388
 X198.1200 Z12.0024
 X198.7550 Z11.7702
 X199.3900 Z11.4341
 X200.0250 Z10.9807
 X200.6600 Z10.3878
 X201.2950 Z9.6168
 X201.9300 Z8.5918
 X202.5650 Z7.1180
 X203.2000 Z6.3500
 X207.6450
 X208.2800 Z6.4645
 X244.4750 Z24.5620
 X245.1100 Z24.8699
 X245.7450 Z25.1075
 X246.3800 Z25.2717
 X247.0150 Z25.3682
 X247.6500 Z25.4000
 X254.0000
 X254.6350 Z25.3682
 X255.2700 Z25.2717
 X255.9050 Z25.1075
 X256.5400 Z24.8699
 X257.1750 Z24.5493
 X257.8100 Z24.1300
 X258.4450 Z23.5848
 X259.0800 Z22.8600
 X259.7150 Z21.8179
 X260.3500 Z0.0000
 X273.0500
 Y67.9050
 X260.3500
 X259.7150 Z21.8179
 X259.0800 Z22.8600
 X258.4450 Z23.5848
 X257.8100 Z24.1300
 X257.1750 Z24.5493
 X256.5400 Z24.8699
 X255.9050 Z25.1075
 X255.2700 Z25.2717
 X254.6350 Z25.3682
 X254.0000 Z25.4000
 X247.6500
 X247.0150 Z25.3682
 X246.3800 Z25.2717
 X245.7450 Z25.1075
 X245.1100 Z24.8699
 X244.4750 Z24.5493
 X243.8400 Z24.1300
 X243.2050 Z23.7926
 X208.9150 Z6.6476
 X208.2800 Z6.3500
 X202.5650
 X201.9300 Z7.3332
 X201.2950 Z8.3582
 X200.6600 Z9.1292
 X200.0250 Z9.7222
 X199.3900 Z10.1756
 X198.7550 Z10.5117
 X198.1200 Z10.7439
 X197.4850 Z10.8803
 X196.8500 Z10.9253
 X190.5000 Z10.9253
 X189.8650 Z10.8803
 X189.2300 Z10.7439
 X188.5950 Z10.5117
 X187.9600 Z10.1756
 X187.3250 Z9.7222
 X186.6900 Z9.1292
 X186.0550 Z8.3582
 X185.4200 Z7.3332
 X184.7850 Z6.3500
 X69.2150
 X68.5800 Z7.3332
 X67.9450 Z8.3582
 X67.3100 Z9.1292
 X66.6750 Z9.7222
 X66.0400 Z10.1756
 X65.4050 Z10.5117
 X64.7700 Z10.7439
 X64.1350 Z10.8803
 X63.5000 Z10.9253
 X57.1500
 X56.5150 Z10.8803
 X55.8800 Z10.7439
 X55.2450 Z10.5117
 X54.6100 Z10.1756
 X53.9750 Z9.7222
 X53.3400 Z9.1292
 X52.7050 Z8.3582
 X52.0700 Z7.3332
 X51.4350 Z6.3500
 X45.7200
