;PYCAM-META-DATA: Filename: C:\Users\Scott\Documents\sector67\heekscad\flask-end-teststl.stl
;PYCAM-META-DATA: Timestamp: 2010-12-19 14:11:56.559000
;PYCAM-META-DATA: Version: 0.4.0.1
G40 (disable tool radius compensation)
G49 (disable_tool_length_compensation)
G80 (cancel_modal_motion)
G54 (select_coordinate_system_1)
G90 (use_absolute_coordinates)
G21 (metric)
G61 (exact path mode)
F600.0000
S2500.0000
;PYCAM_TOOLPATH_SETTINGS: START
;[Bounds]
;maxz = 50.8
;maxx = 273.05
;maxy = 133.35
;minx = -19.05
;miny = -6.35
;minz = 0.0
;
;[Tool]
;torus_radius = 0.25
;speed = 2500.0
;shape = SphericalCutter
;tool_radius = 6.35
;feedrate = 600.0
;
;[Process]
;generator = DropCutter
;engrave_offset = 0.0
;milling_style = ignore
;path_direction = x
;overlap = 0.9
;postprocessor = PathAccumulator
;step_down = 3.0
;material_allowance = 0.0
;
;PYCAM_TOOLPATH_SETTINGS: END
G00 Z25.0000
T3 M6
M3 (start spindle)
G04 P2

 X-19.0500 Y-6.3500
G01 Z0.0000
 X273.0500
 Y-5.0914
 X257.8100
 X257.1750 Z21.1282
 X256.5400 Z21.8692
 X255.9050 Z22.3319
 X255.2700 Z22.6259
 X254.6350 Z22.7912
 X254.0000 Z22.8447
 X198.1200 Z22.8447
 X197.4850 Z22.9950
 X196.8500 Z23.0661
 X196.2150 Z23.0462
 X195.5800 Z22.8939
 X194.9450 Z22.8447
 X191.7700
 X191.1350 Z22.9950
 X190.5000 Z23.0661
 X189.8650 Z22.9950
 X189.2300 Z22.7793
 X188.5950 Z22.4121
 X187.9600 Z21.8807
 X187.3250 Z21.1282
 X186.6900 Z3.7947
 X67.3100
 X66.6750 Z21.1282
 X66.0400 Z21.8807
 X65.4050 Z22.4121
 X64.7700 Z22.7793
 X64.1350 Z22.9950
 X63.5000 Z23.0661
 X62.8650 Z23.0462
 X62.2300 Z22.8939
 X61.5950 Z22.8447
 X58.4200
 X57.7850 Z22.9950
 X57.1500 Z23.0661
 X56.5150 Z22.9950
 X55.8800 Z22.8447
 X0.0000 Z22.8447
 X-0.6350 Z22.7912
 X-1.2700 Z22.6259
 X-1.9050 Z22.3319
 X-2.5400 Z21.8692
 X-3.1750 Z21.1282
 X-3.8100 Z0.0000
 X-19.0500
 X-19.0500 Y-3.8329
 X-5.0800
 X-4.4450 Z21.4735
 X-3.8100 Z22.3840
 X-3.1750 Z22.9935
 X-2.5400 Z23.4295
 X-1.9050 Z23.7407
 X-1.2700 Z23.9509
 X-0.6350 Z24.0728
 X-0.0000 Z24.1128
 X53.9750 Z24.1128
 X54.6100 Z24.3979
 X55.2450 Z24.9292
 X55.8800 Z25.2964
 X56.5150 Z25.5121
 X57.1500 Z25.5833
 X57.7850 Z25.5121
 X58.4200 Z25.2964
 X59.0550 Z24.9292
 X59.6900 Z24.3979
 X60.3250 Z24.5268
 X60.9600 Y-3.8329 Z25.0798
 X61.5950 Y-3.8329 Z25.4089
 X62.2300 Z25.5626
 X62.8650 Z25.5696
 X63.5000 Z25.5833
 X64.1350 Z25.5121
 X64.7700 Z25.2964
 X65.4050 Z24.9292
 X66.0400 Z24.3979
 X66.6750 Z23.6810
 X67.3100 Z22.7435
 X67.9450 Z21.5244
 X68.5800 Z5.0628
 X185.4200
 X186.0550 Z21.5244
 X186.6900 Z22.7435
 X187.3250 Z23.6810
 X187.9600 Z24.3979
 X188.5950 Z24.9292
 X189.2300 Z25.2964
 X189.8650 Z25.5121
 X190.5000 Z25.5833
 X191.1350 Z25.5121
 X191.7700 Z25.2964
 X192.4050 Z24.9292
 X193.0400 Z24.3979
 X193.6750 Z24.5268
 X194.3100 Y-3.8329 Z25.0798
 X194.9450 Y-3.8329 Z25.4089
 X195.5800 Z25.5626
 X196.2150 Z25.5696
 X196.8500 Z25.5833
 X197.4850 Z25.5121
 X198.1200 Z25.2964
 X198.7550 Z24.9292
 X199.3900 Z24.3979
 X200.0250 Z24.1128
 X254.0000 Z24.1128
 X254.6350 Z24.0728
 X255.2700 Z23.9509
 X255.9050 Z23.7407
 X256.5400 Z23.4295
 X257.1750 Z22.9935
 X257.8100 Z22.3840
 X258.4450 Z21.4735
 X259.0800 Z0.0000
 X273.0500
 Y-2.5743
 X260.3500
 X259.7150 Z20.0669
 X259.0800 Z21.8587
 X258.4450 Z22.7833
 X257.8100 Z23.4294
 X257.1750 Z23.9095
 X256.5400 Z24.2696
 X255.9050 Z24.5333
 X255.2700 Z24.7141
 X254.6350 Z24.8199
 X254.0000 Z24.8548
 X201.2950
 X200.6600 Z25.2606
 X200.0250 Z26.1981
 X199.3900 Z26.9150
 X198.7550 Z27.4464
 X198.1200 Z27.8135
 X197.4850 Z28.0292
 X196.8500 Z28.1004
 X196.2150 Z28.0292
 X195.5800 Z28.0872
 X194.9450 Z28.0790
 X194.3100 Y-2.5743 Z27.9239
 X193.6750 Y-2.5743 Z27.5930
 X193.0400 Z27.0377
 X192.4050 Z27.4464
 X191.7700 Z27.8135
 X191.1350 Z28.0292
 X190.5000 Z28.1004
 X189.8650 Z28.0292
 X189.2300 Z27.8135
 X188.5950 Z27.4464
 X187.9600 Z26.9150
 X187.3250 Z26.1981
 X186.6900 Z25.2606
 X186.0550 Z24.0415
 X185.4200 Z22.4208
 X184.7850 Z20.0669
 X184.1500 Z5.8048
 X69.8500
 X69.2150 Z20.0669
 X68.5800 Z22.4208
 X67.9450 Z24.0415
 X67.3100 Z25.2606
 X66.6750 Z26.1981
 X66.0400 Z26.9150
 X65.4050 Z27.4464
 X64.7700 Z27.8135
 X64.1350 Z28.0292
 X63.5000 Z28.1004
 X62.8650 Z28.0292
 X62.2300 Z28.0872
 X61.5950 Y-2.5743 Z28.0790
 X60.9600 Y-2.5743 Z27.9239
 X60.3250 Y-2.5743 Z27.5930
 X59.6900 Z27.0377
 X59.0550 Y-2.5743 Z27.4464
 X58.4200 Z27.8135
 X57.7850 Z28.0292
 X57.1500 Z28.1004
 X56.5150 Z28.0292
 X55.8800 Z27.8135
 X55.2450 Z27.4464
 X54.6100 Z26.9150
 X53.9750 Z26.1981
 X53.3400 Z25.2606
 X52.7050 Z24.8548
 X0.0000
 X-0.6350 Z24.8199
 X-1.2700 Z24.7141
 X-1.9050 Z24.5333
 X-2.5400 Z24.2696
 X-3.1750 Z23.9095
 X-3.8100 Z23.4294
 X-4.4450 Z22.7833
 X-5.0800 Z21.8587
 X-5.7150 Z20.0669
 X-6.3500 Z0.0000
 X-19.0500
 X-19.0500 Y-1.3158
 X-6.3500
 X-5.7150 Z21.4852
 X-5.0800 Z22.6256
 X-4.4450 Z23.3897
 X-3.8100 Z23.9566
 X-3.1750 Z24.3895
 X-2.5400 Z24.7192
 X-1.9050 Z24.9629
 X-1.2700 Z25.1310
 X-0.6350 Z25.2296
 X-0.0000 Z25.2622
 X52.0700 Z25.2622
 X52.7050 Z26.5586
 X53.3400 Z27.7777
 X53.9750 Z28.7152
 X54.6100 Z29.4321
 X55.2450 Z29.9635
 X55.8800 Z30.3306
 X56.5150 Z30.5463
 X57.1500 Z30.6175
 X57.7850 Z30.5463
 X58.4200 Z30.3306
 X59.0550 Z29.9635
 X59.6900 Z30.1062
 X60.3250 Z30.4389
 X60.9600 Z30.5954
 X61.5950 Z30.6049
 X62.2300 Z30.4854
 X62.8650 Z30.5463
 X63.5000 Z30.6175
 X64.1350 Z30.5463
 X64.7700 Z30.3306
 X65.4050 Z29.9635
 X66.0400 Z29.4321
 X66.6750 Z28.7152
 X67.3100 Z27.7777
 X67.9450 Z26.5586
 X68.5800 Z24.9379
 X69.2150 Z22.6077
 X69.8500 Z6.2122
 X184.1500
 X184.7850 Z22.6077
 X185.4200 Z24.9379
 X186.0550 Z26.5586
 X186.6900 Z27.7777
 X187.3250 Z28.7152
 X187.9600 Z29.4321
 X188.5950 Z29.9635
 X189.2300 Z30.3306
 X189.8650 Z30.5463
 X190.5000 Z30.6175
 X191.1350 Z30.5463
 X191.7700 Z30.3306
 X192.4050 Z29.9635
 X193.0400 Z30.1062
 X193.6750 Z30.4389
 X194.3100 Z30.5954
 X194.9450 Z30.6049
 X195.5800 Z30.4854
 X196.2150 Z30.5463
 X196.8500 Z30.6175
 X197.4850 Z30.5463
 X198.1200 Z30.3306
 X198.7550 Z29.9635
 X199.3900 Z29.4321
 X200.0250 Z28.7152
 X200.6600 Z27.7777
 X201.2950 Z26.5586
 X201.9300 Z25.2622
 X254.0000 Z25.2622
 X254.6350 Z25.2296
 X255.2700 Z25.1310
 X255.9050 Z24.9629
 X256.5400 Z24.7192
 X257.1750 Z24.3895
 X257.8100 Z23.9566
 X258.4450 Z23.3897
 X259.0800 Z22.6256
 X259.7150 Z21.4852
 X260.3500 Z0.0000
 X273.0500
 Y-0.0572
 X260.3500
 X259.7150 Z21.8173
 X259.0800 Z22.8596
 X258.4450 Z23.5844
 X257.8100 Z24.1297
 X257.1750 Z24.5490
 X256.5400 Z24.8696
 X255.9050 Z25.1072
 X255.2700 Z25.2714
 X254.6350 Z25.3679
 X254.0000 Z25.3997
 X202.5650
 X201.9300 Z27.4550
 X201.2950 Z29.0757
 X200.6600 Z30.2948
 X200.0250 Z31.2323
 X199.3900 Z31.9492
 X198.7550 Z32.4806
 X198.1200 Z32.8477
 X197.4850 Z33.0634
 X196.8500 Z33.1346
 X196.2150 Z33.0634
 X195.5800 Z32.8477
 X194.9450 Z33.0041
 X194.3100 Z33.1225
 X193.6750 Z33.1118
 X193.0400 Z32.9539
 X192.4050 Z32.6194
 X191.7700 Z32.8477
 X191.1350 Z33.0634
 X190.5000 Z33.1346
 X189.8650 Z33.0634
 X189.2300 Z32.8477
 X188.5950 Z32.4806
 X187.9600 Z31.9492
 X187.3250 Z31.2323
 X186.6900 Z30.2948
 X186.0550 Z29.0757
 X185.4200 Z27.4550
 X184.7850 Z25.1248
 X184.1500 Z6.3497
 X69.8500
 X69.2150 Z25.1248
 X68.5800 Z27.4550
 X67.9450 Z29.0757
 X67.3100 Z30.2948
 X66.6750 Z31.2323
 X66.0400 Z31.9492
 X65.4050 Z32.4806
 X64.7700 Z32.8477
 X64.1350 Z33.0634
 X63.5000 Z33.1346
 X62.8650 Z33.0634
 X62.2300 Z32.8477
 X61.5950 Z33.0041
 X60.9600 Z33.1225
 X60.3250 Z33.1118
 X59.6900 Z32.9539
 X59.0550 Z32.6194
 X58.4200 Z32.8477
 X57.7850 Z33.0634
 X57.1500 Z33.1346
 X56.5150 Z33.0634
 X55.8800 Z32.8477
 X55.2450 Z32.4806
 X54.6100 Z31.9492
 X53.9750 Z31.2323
 X53.3400 Z30.2948
 X52.7050 Z29.0757
 X52.0700 Z27.4550
 X51.4350 Z25.3997
 X0.0000
 X-0.6350 Z25.3679
 X-1.2700 Z25.2714
 X-1.9050 Z25.1072
 X-2.5400 Z24.8696
 X-3.1750 Z24.5490
 X-3.8100 Z24.1297
 X-4.4450 Z23.5844
 X-5.0800 Z22.8596
 X-5.7150 Z21.8173
 X-6.3500 Z0.0000
 X-19.0500
 X-19.0500 Y1.2014
 X-6.3500
 X-5.7150 Z21.8179
 X-5.0800 Z22.8600
 X-4.4450 Z23.5848
 X-3.8100 Z24.1300
 X-3.1750 Z24.5493
 X-2.5400 Z24.8699
 X-1.9050 Z25.1075
 X-1.2700 Z25.2717
 X-0.6350 Z25.3682
 X-0.0000 Z25.4000
 X0.6350 Z180.3400
 X62.8650
 X63.5000 Z161.2900
 X190.5000
 X191.1350 Z180.3400
 X253.3650
 X254.0000 Z25.4000
 X254.6350 Z25.3682
 X255.2700 Z25.2717
 X255.9050 Z25.1075
 X256.5400 Z24.8699
 X257.1750 Z24.5493
 X257.8100 Z24.1300
 X258.4450 Z23.5848
 X259.0800 Z22.8600
 X259.7150 Z21.8179
 X260.3500 Z0.0000
 X273.0500
 Y2.4599
 X260.3500
 X259.7150 Z21.8179
 X259.0800 Z22.8600
 X258.4450 Z23.5848
 X257.8100 Z24.1300
 X257.1750 Z24.5493
 X256.5400 Z24.8699
 X255.9050 Z25.1075
 X255.2700 Z25.2717
 X254.6350 Z25.3682
 X254.0000 Z161.2900
 X253.3650 Z180.3400
 X191.1350
 X190.5000 Z161.2900
 X63.5000
 X62.8650 Z180.3400
 X0.6350
 X0.0000 Z25.4000
 X-0.6350 Z25.3682
 X-1.2700 Z25.2717
 X-1.9050 Z25.1075
 X-2.5400 Z24.8699
 X-3.1750 Z24.5493
 X-3.8100 Z24.1300
 X-4.4450 Z23.5848
 X-5.0800 Z22.8600
 X-5.7150 Z21.8179
 X-6.3500 Z0.0000
 X-19.0500
 X-19.0500 Y3.7185
 X-6.3500
 X-5.7150 Z21.8179
 X-5.0800 Z22.8600
 X-4.4450 Z23.5848
 X-3.8100 Z24.1300
 X-3.1750 Z24.5493
 X-2.5400 Z24.8699
 X-1.9050 Z25.1075
 X-1.2700 Z25.2717
 X-0.6350 Z25.3682
 X-0.0000 Z25.4000
 X0.6350 Z180.3400
 X62.8650
 X63.5000 Z161.2900
 X190.5000
 X191.1350 Z180.3400
 X253.3650
 X254.0000 Z161.2900
 X254.6350 Z25.3682
 X255.2700 Z25.2717
 X255.9050 Z25.1075
 X256.5400 Z24.8699
 X257.1750 Z24.5493
 X257.8100 Z24.1300
 X258.4450 Z23.5848
 X259.0800 Z22.8600
 X259.7150 Z21.8179
 X260.3500 Z0.0000
 X273.0500
 Y4.9770
 X260.3500
 X259.7150 Z21.8179
 X259.0800 Z22.8600
 X258.4450 Z23.5848
 X257.8100 Z24.1300
 X257.1750 Z24.5493
 X256.5400 Z24.8699
 X255.9050 Z25.1075
 X255.2700 Z25.2717
 X254.6350 Z25.3682
 X254.0000 Z161.2900
 X253.3650 Z180.3400
 X191.1350
 X190.5000 Z161.2900
 X63.5000
 X62.8650 Z180.3400
 X0.6350
 X0.0000 Z25.4000
 X-0.6350 Z25.3682
 X-1.2700 Z25.2717
 X-1.9050 Z25.1075
 X-2.5400 Z24.8699
 X-3.1750 Z24.5493
 X-3.8100 Z24.1300
 X-4.4450 Z23.5848
 X-5.0800 Z22.8600
 X-5.7150 Z21.8179
 X-6.3500 Z0.0000
 X-19.0500
 X-19.0500 Y6.2356
 X-6.3500
 X-5.7150 Z21.8179
 X-5.0800 Z22.8600
 X-4.4450 Z23.5848
 X-3.8100 Z24.1300
 X-3.1750 Z24.5493
 X-2.5400 Z24.8699
 X-1.9050 Z25.1075
 X-1.2700 Z25.2717
 X-0.6350 Z25.3682
 X-0.0000 Z25.4000
 X0.6350 Z180.3400
 X62.8650
 X63.5000 Z161.2900
 X190.5000
 X191.1350 Z180.3400
 X253.3650
 X254.0000 Z161.2900
 X254.6350 Z25.3682
 X255.2700 Z25.2717
 X255.9050 Z25.1075
 X256.5400 Z24.8699
 X257.1750 Z24.5493
 X257.8100 Z24.1300
 X258.4450 Z23.5848
 X259.0800 Z22.8600
 X259.7150 Z21.8179
 X260.3500 Z0.0000
 X273.0500
 Y7.4941
 X260.3500
 X259.7150 Z21.8179
 X259.0800 Z22.8600
 X258.4450 Z23.5848
 X257.8100 Z24.1300
 X257.1750 Z24.5493
 X256.5400 Z24.8699
 X255.9050 Z25.1075
 X255.2700 Z25.2717
 X254.6350 Z25.3682
 X254.0000 Z180.3400
 X248.2850
 X247.6500 Z161.2900
 X6.3500
 X5.7150 Z180.3400
 X0.6350
 X0.0000 Z25.4000
 X-0.6350 Z25.3682
 X-1.2700 Z25.2717
 X-1.9050 Z25.1075
 X-2.5400 Z24.8699
 X-3.1750 Z24.5493
 X-3.8100 Z24.1300
 X-4.4450 Z23.5848
 X-5.0800 Z22.8600
 X-5.7150 Z21.8179
 X-6.3500 Z0.0000
 X-19.0500
 X-19.0500 Y8.7527
 X-6.3500
 X-5.7150 Z21.8179
 X-5.0800 Z22.8600
 X-4.4450 Z23.5848
 X-3.8100 Z24.1300
 X-3.1750 Z24.5493
 X-2.5400 Z24.8699
 X-1.9050 Z25.1075
 X-1.2700 Z25.2717
 X-0.6350 Z25.3682
 X-0.0000 Z25.4000
 X0.6350 Z180.3400
 X5.7150
 X6.3500 Z161.2900
 X247.6500
 X248.2850 Z180.3400
 X254.0000
 X254.6350 Z25.3682
 X255.2700 Z25.2717
 X255.9050 Z25.1075
 X256.5400 Z24.8699
 X257.1750 Z24.5493
 X257.8100 Z24.1300
 X258.4450 Z23.5848
 X259.0800 Z22.8600
 X259.7150 Z21.8179
 X260.3500 Z0.0000
 X273.0500
 Y10.0113
 X260.3500
 X259.7150 Z21.8179
 X259.0800 Z22.8600
 X258.4450 Z23.5848
 X257.8100 Z24.1300
 X257.1750 Z24.5493
 X256.5400 Z24.8699
 X255.9050 Z25.1075
 X255.2700 Z25.2717
 X254.6350 Z25.3682
 X254.0000 Z180.3400
 X248.2850
 X247.6500 Z161.2900
 X6.3500
 X5.7150 Z180.3400
 X0.6350
 X0.0000 Z25.4000
 X-0.6350 Z25.3682
 X-1.2700 Z25.2717
 X-1.9050 Z25.1075
 X-2.5400 Z24.8699
 X-3.1750 Z24.5493
 X-3.8100 Z24.1300
 X-4.4450 Z23.5848
 X-5.0800 Z22.8600
 X-5.7150 Z21.8179
 X-6.3500 Z0.0000
 X-19.0500
 X-19.0500 Y11.2698
 X-6.3500
 X-5.7150 Z21.8179
 X-5.0800 Z22.8600
 X-4.4450 Z23.5848
 X-3.8100 Z24.1300
 X-3.1750 Z24.5493
 X-2.5400 Z24.8699
 X-1.9050 Z25.1075
 X-1.2700 Z25.2717
 X-0.6350 Z25.3682
 X-0.0000 Z25.4000
 X0.6350 Z180.3400
 X5.7150
 X6.3500 Z161.2900
 X247.6500
 X248.2850 Z180.3400
 X254.0000
 X254.6350 Z25.3682
 X255.2700 Z25.2717
 X255.9050 Z25.1075
 X256.5400 Z24.8699
 X257.1750 Z24.5493
 X257.8100 Z24.1300
 X258.4450 Z23.5848
 X259.0800 Z22.8600
 X259.7150 Z21.8179
 X260.3500 Z0.0000
 X273.0500
 Y12.5284
 X260.3500
 X259.7150 Z21.8179
 X259.0800 Z22.8600
 X258.4450 Z23.5848
 X257.8100 Z24.1300
 X257.1750 Z24.5493
 X256.5400 Z24.8699
 X255.9050 Z25.1075
 X255.2700 Z25.2717
 X254.6350 Z25.3682
 X254.0000 Z180.3400
 X248.2850
 X247.6500 Z161.2900
 X6.3500
 X5.7150 Z180.3400
 X0.6350
 X0.0000 Z25.4000
 X-0.6350 Z25.3682
 X-1.2700 Z25.2717
 X-1.9050 Z25.1075
 X-2.5400 Z24.8699
 X-3.1750 Z24.5493
 X-3.8100 Z24.1300
 X-4.4450 Z23.5848
 X-5.0800 Z22.8600
 X-5.7150 Z21.8179
 X-6.3500 Z0.0000
 X-19.0500
 X-19.0500 Y13.7869
 X-6.3500
 X-5.7150 Z21.8179
 X-5.0800 Z22.8600
 X-4.4450 Z23.5848
 X-3.8100 Z24.1300
 X-3.1750 Z24.5493
 X-2.5400 Z24.8699
 X-1.9050 Z25.1075
 X-1.2700 Z25.2717
 X-0.6350 Z25.3682
 X-0.0000 Z25.4000
 X0.6350 Z180.3400
 X5.7150
 X6.3500 Z161.2900
 X57.1500
 X57.7850 Z205.7400
 X189.8650
 X190.5000 Z161.2900
 X191.1350 Z205.7400
 X196.8500
 X197.4850 Z161.2900
 X247.6500
 X248.2850 Z180.3400
 X254.0000
 X254.6350 Z25.3682
 X255.2700 Z25.2717
 X255.9050 Z25.1075
 X256.5400 Z24.8699
 X257.1750 Z24.5493
 X257.8100 Z24.1300
 X258.4450 Z23.5848
 X259.0800 Z22.8600
 X259.7150 Z21.8179
 X260.3500 Z0.0000
 X273.0500
 Y15.0455
 X260.3500
 X259.7150 Z21.8179
 X259.0800 Z22.8600
 X258.4450 Z23.5848
 X257.8100 Z24.1300
 X257.1750 Z24.5493
 X256.5400 Z24.8699
 X255.9050 Z25.1075
 X255.2700 Z25.2717
 X254.6350 Z25.3682
 X254.0000 Z180.3400
 X248.2850
 X247.6500 Z161.2900
 X197.4850
 X196.8500 Z205.7400
 X191.1350
 X190.5000 Z161.2900
 X189.8650 Z205.7400
 X57.7850
 X57.1500 Z161.2900
 X6.3500
 X5.7150 Z180.3400
 X0.6350
 X0.0000 Z25.4000
 X-0.6350 Z25.3682
 X-1.2700 Z25.2717
 X-1.9050 Z25.1075
 X-2.5400 Z24.8699
 X-3.1750 Z24.5493
 X-3.8100 Z24.1300
 X-4.4450 Z23.5848
 X-5.0800 Z22.8600
 X-5.7150 Z21.8179
 X-6.3500 Z0.0000
 X-19.0500
 X-19.0500 Y16.3041
 X-6.3500
 X-5.7150 Z21.8179
 X-5.0800 Z22.8600
 X-4.4450 Z23.5848
 X-3.8100 Z24.1300
 X-3.1750 Z24.5493
 X-2.5400 Z24.8699
 X-1.9050 Z25.1075
 X-1.2700 Z25.2717
 X-0.6350 Z25.3682
 X-0.0000 Z25.4000
 X0.6350 Z180.3400
 X5.7150
 X6.3500 Z161.2900
 X57.1500
 X57.7850 Z205.7400
 X189.8650
 X190.5000 Z161.2900
 X191.1350 Z205.7400
 X196.8500
 X197.4850 Z161.2900
 X247.6500
 X248.2850 Z180.3400
 X254.0000
 X254.6350 Z25.3682
 X255.2700 Z25.2717
 X255.9050 Z25.1075
 X256.5400 Z24.8699
 X257.1750 Z24.5493
 X257.8100 Z24.1300
 X258.4450 Z23.5848
 X259.0800 Z22.8600
 X259.7150 Z21.8179
 X260.3500 Z0.0000
 X273.0500
 Y17.5626
 X260.3500
 X259.7150 Z21.8179
 X259.0800 Z22.8600
 X258.4450 Z23.5848
 X257.8100 Z24.1300
 X257.1750 Z24.5493
 X256.5400 Z24.8699
 X255.9050 Z25.1075
 X255.2700 Z25.2717
 X254.6350 Z25.3682
 X254.0000 Z180.3400
 X248.2850
 X247.6500 Z161.2900
 X197.4850
 X196.8500 Z205.7400
 X57.7850
 X57.1500 Z161.2900
 X6.3500
 X5.7150 Z180.3400
 X0.6350
 X0.0000 Z25.4000
 X-0.6350 Z25.3682
 X-1.2700 Z25.2717
 X-1.9050 Z25.1075
 X-2.5400 Z24.8699
 X-3.1750 Z24.5493
 X-3.8100 Z24.1300
 X-4.4450 Z23.5848
 X-5.0800 Z22.8600
 X-5.7150 Z21.8179
 X-6.3500 Z0.0000
 X-19.0500
 X-19.0500 Y18.8212
 X-6.3500
 X-5.7150 Z21.8179
 X-5.0800 Z22.8600
 X-4.4450 Z23.5848
 X-3.8100 Z24.1300
 X-3.1750 Z24.5493
 X-2.5400 Z24.8699
 X-1.9050 Z25.1075
 X-1.2700 Z25.2717
 X-0.6350 Z25.3682
 X-0.0000 Z25.4000
 X0.6350 Z180.3400
 X5.7150
 X6.3500 Z161.2900
 X57.1500
 X57.7850 Z205.7400
 X189.8650
 X190.5000 Z161.2900
 X191.1350 Z205.7400
 X196.8500
 X197.4850 Z161.2900
 X247.6500
 X248.2850 Z180.3400
 X254.0000
 X254.6350 Z25.3682
 X255.2700 Z25.2717
 X255.9050 Z25.1075
 X256.5400 Z24.8699
 X257.1750 Z24.5493
 X257.8100 Z24.1300
 X258.4450 Z23.5848
 X259.0800 Z22.8600
 X259.7150 Z21.8179
 X260.3500 Z0.0000
 X273.0500
 Y20.0797
 X260.3500
 X259.7150 Z21.8179
 X259.0800 Z22.8600
 X258.4450 Z23.5848
 X257.8100 Z24.1300
 X257.1750 Z24.5493
 X256.5400 Z24.8699
 X255.9050 Z25.1075
 X255.2700 Z25.2717
 X254.6350 Z25.3682
 X254.0000 Z180.3400
 X248.2850
 X247.6500 Z161.2900
 X197.4850
 X196.8500 Z205.7400
 X191.1350
 X190.5000 Z161.2900
 X189.8650 Z205.7400
 X64.1350
 X63.5000 Z161.2900
 X62.8650 Z205.7400
 X57.7850
 X57.1500 Z161.2900
 X6.3500
 X5.7150 Z180.3400
 X0.6350
 X0.0000 Z25.4000
 X-0.6350 Z25.3682
 X-1.2700 Z25.2717
 X-1.9050 Z25.1075
 X-2.5400 Z24.8699
 X-3.1750 Z24.5493
 X-3.8100 Z24.1300
 X-4.4450 Z23.5848
 X-5.0800 Z22.8600
 X-5.7150 Z21.8179
 X-6.3500 Z0.0000
 X-19.0500
 X-19.0500 Y21.3383
 X-6.3500
 X-5.7150 Z21.8179
 X-5.0800 Z22.8600
 X-4.4450 Z23.5848
 X-3.8100 Z24.1300
 X-3.1750 Z24.5493
 X-2.5400 Z24.8699
 X-1.9050 Z25.1075
 X-1.2700 Z25.2717
 X-0.6350 Z25.3682
 X-0.0000 Z25.4000
 X0.6350 Z180.3400
 X5.7150
 X6.3500 Z161.2900
 X57.1500
 X57.7850 Z205.7400
 X189.8650
 X190.5000 Z161.2900
 X191.1350 Z205.7400
 X196.8500
 X197.4850 Z161.2900
 X247.6500
 X248.2850 Z180.3400
 X254.0000
 X254.6350 Z25.3682
 X255.2700 Z25.2717
 X255.9050 Z25.1075
 X256.5400 Z24.8699
 X257.1750 Z24.5493
 X257.8100 Z24.1300
 X258.4450 Z23.5848
 X259.0800 Z22.8600
 X259.7150 Z21.8179
 X260.3500 Z0.0000
 X273.0500
 Y22.5968
 X260.3500
 X259.7150 Z21.8179
 X259.0800 Z22.8600
 X258.4450 Z23.5848
 X257.8100 Z24.1300
 X257.1750 Z24.5493
 X256.5400 Z24.8699
 X255.9050 Z25.1075
 X255.2700 Z25.2717
 X254.6350 Z25.3682
 X254.0000 Z180.3400
 X248.2850
 X247.6500 Z161.2900
 X197.4850
 X196.8500 Z205.7400
 X191.1350
 X190.5000 Z161.2900
 X189.8650 Z205.7400
 X57.7850
 X57.1500 Z161.2900
 X6.3500
 X5.7150 Z180.3400
 X0.6350
 X0.0000 Z25.4000
 X-0.6350 Z25.3682
 X-1.2700 Z25.2717
 X-1.9050 Z25.1075
 X-2.5400 Z24.8699
 X-3.1750 Z24.5493
 X-3.8100 Z24.1300
 X-4.4450 Z23.5848
 X-5.0800 Z22.8600
 X-5.7150 Z21.8179
 X-6.3500 Z0.0000
 X-19.0500
 X-19.0500 Y23.8554
 X-6.3500
 X-5.7150 Z21.8179
 X-5.0800 Z22.8600
 X-4.4450 Z23.5848
 X-3.8100 Z24.1300
 X-3.1750 Z24.5493
 X-2.5400 Z24.8699
 X-1.9050 Z25.1075
 X-1.2700 Z25.2717
 X-0.6350 Z25.3682
 X-0.0000 Z25.4000
 X0.6350 Z180.3400
 X5.7150
 X6.3500 Z161.2900
 X57.1500
 X57.7850 Z205.7400
 X196.8500
 X197.4850 Z161.2900
 X247.6500
 X248.2850 Z180.3400
 X254.0000
 X254.6350 Z25.3682
 X255.2700 Z25.2717
 X255.9050 Z25.1075
 X256.5400 Z24.8699
 X257.1750 Z24.5493
 X257.8100 Z24.1300
 X258.4450 Z23.5848
 X259.0800 Z22.8600
 X259.7150 Z21.8179
 X260.3500 Z0.0000
 X273.0500
 Y25.1140
 X260.3500
 X259.7150 Z21.8179
 X259.0800 Z22.8600
 X258.4450 Z23.5848
 X257.8100 Z24.1300
 X257.1750 Z24.5493
 X256.5400 Z24.8699
 X255.9050 Z25.1075
 X255.2700 Z25.2717
 X254.6350 Z25.3682
 X254.0000 Z180.3400
 X248.2850
 X247.6500 Z161.2900
 X197.4850
 X196.8500 Z205.7400
 X191.1350
 X190.5000 Z161.2900
 X189.8650 Z205.7400
 X57.7850
 X57.1500 Z161.2900
 X6.3500
 X5.7150 Z180.3400
 X0.6350
 X0.0000 Z25.4000
 X-0.6350 Z25.3682
 X-1.2700 Z25.2717
 X-1.9050 Z25.1075
 X-2.5400 Z24.8699
 X-3.1750 Z24.5493
 X-3.8100 Z24.1300
 X-4.4450 Z23.5848
 X-5.0800 Z22.8600
 X-5.7150 Z21.8179
 X-6.3500 Z0.0000
 X-19.0500
 X-19.0500 Y26.3725
 X-6.3500
 X-5.7150 Z21.8179
 X-5.0800 Z22.8600
 X-4.4450 Z23.5848
 X-3.8100 Z24.1300
 X-3.1750 Z24.5493
 X-2.5400 Z24.8699
 X-1.9050 Z25.1075
 X-1.2700 Z25.2717
 X-0.6350 Z25.3682
 X-0.0000 Z25.4000
 X0.6350 Z180.3400
 X5.7150
 X6.3500 Z161.2900
 X114.3000
 X114.9350 Z205.7400
 X139.7000
 X140.3350 Z161.2900
 X247.6500
 X248.2850 Z180.3400
 X254.0000
 X254.6350 Z25.3682
 X255.2700 Z25.2717
 X255.9050 Z25.1075
 X256.5400 Z24.8699
 X257.1750 Z24.5493
 X257.8100 Z24.1300
 X258.4450 Z23.5848
 X259.0800 Z22.8600
 X259.7150 Z21.8179
 X260.3500 Z0.0000
 X273.0500
 Y27.6311
 X260.3500
 X259.7150 Z21.8179
 X259.0800 Z22.8600
 X258.4450 Z23.5848
 X257.8100 Z24.1300
 X257.1750 Z24.5493
 X256.5400 Z24.8699
 X255.9050 Z25.1075
 X255.2700 Z25.2717
 X254.6350 Z25.3682
 X254.0000 Z180.3400
 X248.2850
 X247.6500 Z161.2900
 X139.7000
 X139.0650 Z205.7400
 X114.9350
 X114.3000 Z161.2900
 X6.3500
 X5.7150 Z180.3400
 X0.6350
 X0.0000 Z25.4000
 X-0.6350 Z25.3682
 X-1.2700 Z25.2717
 X-1.9050 Z25.1075
 X-2.5400 Z24.8699
 X-3.1750 Z24.5493
 X-3.8100 Z24.1300
 X-4.4450 Z23.5848
 X-5.0800 Z22.8600
 X-5.7150 Z21.8179
 X-6.3500 Z0.0000
 X-19.0500
 X-19.0500 Y28.8896
 X-6.3500
 X-5.7150 Z21.8179
 X-5.0800 Z22.8600
 X-4.4450 Z23.5848
 X-3.8100 Z24.1300
 X-3.1750 Z24.5493
 X-2.5400 Z24.8699
 X-1.9050 Z25.1075
 X-1.2700 Z25.2717
 X-0.6350 Z25.3682
 X-0.0000 Z25.4000
 X0.6350 Z180.3400
 X5.7150
 X6.3500 Z161.2900
 X114.3000
 X114.9350 Z205.7400
 X139.7000
 X140.3350 Z161.2900
 X247.6500
 X248.2850 Z180.3400
 X254.0000
 X254.6350 Z25.3682
 X255.2700 Z25.2717
 X255.9050 Z25.1075
 X256.5400 Z24.8699
 X257.1750 Z24.5493
 X257.8100 Z24.1300
 X258.4450 Z23.5848
 X259.0800 Z22.8600
 X259.7150 Z21.8179
 X260.3500 Z0.0000
 X273.0500
 Y30.1482
 X260.3500
 X259.7150 Z21.8179
 X259.0800 Z22.8600
 X258.4450 Z23.5848
 X257.8100 Z24.1300
 X257.1750 Z24.5493
 X256.5400 Z24.8699
 X255.9050 Z25.1075
 X255.2700 Z25.2717
 X254.6350 Z25.3682
 X254.0000 Z180.3400
 X248.2850
 X247.6500 Z161.2900
 X139.7000
 X139.0650 Z205.7400
 X114.9350
 X114.3000 Z161.2900
 X6.3500
 X5.7150 Z180.3400
 X0.6350
 X0.0000 Z25.4000
 X-0.6350 Z25.3682
 X-1.2700 Z25.2717
 X-1.9050 Z25.1075
 X-2.5400 Z24.8699
 X-3.1750 Z24.5493
 X-3.8100 Z24.1300
 X-4.4450 Z23.5848
 X-5.0800 Z22.8600
 X-5.7150 Z21.8179
 X-6.3500 Z0.0000
 X-19.0500
 X-19.0500 Y31.4068
 X-6.3500
 X-5.7150 Z21.8179
 X-5.0800 Z22.8600
 X-4.4450 Z23.5848
 X-3.8100 Z24.1300
 X-3.1750 Z24.5493
 X-2.5400 Z24.8699
 X-1.9050 Z25.1075
 X-1.2700 Z25.2717
 X-0.6350 Z25.3682
 X-0.0000 Z25.4000
 X0.6350 Z180.3400
 X5.7150
 X6.3500 Z161.2900
 X114.3000
 X114.9350 Z205.7400
 X139.7000
 X140.3350 Z161.2900
 X247.6500
 X248.2850 Z180.3400
 X254.0000
 X254.6350 Z25.3682
 X255.2700 Z25.2717
 X255.9050 Z25.1075
 X256.5400 Z24.8699
 X257.1750 Z24.5493
 X257.8100 Z24.1300
 X258.4450 Z23.5848
 X259.0800 Z22.8600
 X259.7150 Z21.8179
 X260.3500 Z0.0000
 X273.0500
 Y32.6653
 X260.3500
 X259.7150 Z21.8179
 X259.0800 Z22.8600
 X258.4450 Z23.5848
 X257.8100 Z24.1300
 X257.1750 Z24.5493
 X256.5400 Z24.8699
 X255.9050 Z25.1075
 X255.2700 Z25.2717
 X254.6350 Z25.3682
 X254.0000 Z180.3400
 X248.2850
 X247.6500 Z161.2900
 X139.7000
 X139.0650 Z205.7400
 X114.9350
 X114.3000 Z161.2900
 X6.3500
 X5.7150 Z180.3400
 X0.6350
 X0.0000 Z25.4000
 X-0.6350 Z25.3682
 X-1.2700 Z25.2717
 X-1.9050 Z25.1075
 X-2.5400 Z24.8699
 X-3.1750 Z24.5493
 X-3.8100 Z24.1300
 X-4.4450 Z23.5848
 X-5.0800 Z22.8600
 X-5.7150 Z21.8179
 X-6.3500 Z0.0000
 X-19.0500
 X-19.0500 Y33.9239
 X-6.3500
 X-5.7150 Z21.8179
 X-5.0800 Z22.8600
 X-4.4450 Z23.5848
 X-3.8100 Z24.1300
 X-3.1750 Z24.5493
 X-2.5400 Z24.8699
 X-1.9050 Z25.1075
 X-1.2700 Z25.2717
 X-0.6350 Z25.3682
 X-0.0000 Z25.4000
 X0.6350 Z180.3400
 X5.7150
 X6.3500 Z161.2900
 X114.3000
 X114.9350 Z205.7400
 X139.7000
 X140.3350 Z161.2900
 X247.6500
 X248.2850 Z180.3400
 X254.0000
 X254.6350 Z25.3682
 X255.2700 Z25.2717
 X255.9050 Z25.1075
 X256.5400 Z24.8699
 X257.1750 Z24.5493
 X257.8100 Z24.1300
 X258.4450 Z23.5848
 X259.0800 Z22.8600
 X259.7150 Z21.8179
 X260.3500 Z0.0000
 X273.0500
 Y35.1824
 X260.3500
 X259.7150 Z21.8179
 X259.0800 Z22.8600
 X258.4450 Z23.5848
 X257.8100 Z24.1300
 X257.1750 Z24.5493
 X256.5400 Z24.8699
 X255.9050 Z25.1075
 X255.2700 Z25.2717
 X254.6350 Z25.3682
 X254.0000 Z180.3400
 X248.2850
 X247.6500 Z161.2900
 X139.7000
 X139.0650 Z205.7400
 X114.9350
 X114.3000 Z161.2900
 X6.3500
 X5.7150 Z180.3400
 X0.6350
 X0.0000 Z25.4000
 X-0.6350 Z25.3682
 X-1.2700 Z25.2717
 X-1.9050 Z25.1075
 X-2.5400 Z24.8699
 X-3.1750 Z24.5493
 X-3.8100 Z24.1300
 X-4.4450 Z23.5848
 X-5.0800 Z22.8600
 X-5.7150 Z21.8179
 X-6.3500 Z0.0000
 X-19.0500
 X-19.0500 Y36.4410
 X-6.3500
 X-5.7150 Z21.8179
 X-5.0800 Z22.8600
 X-4.4450 Z23.5848
 X-3.8100 Z24.1300
 X-3.1750 Z24.5493
 X-2.5400 Z24.8699
 X-1.9050 Z25.1075
 X-1.2700 Z25.2717
 X-0.6350 Z25.3682
 X-0.0000 Z25.4000
 X0.6350 Z180.3400
 X5.7150
 X6.3500 Z161.2900
 X114.3000
 X114.9350 Z205.7400
 X139.7000
 X140.3350 Z161.2900
 X247.6500
 X248.2850 Z180.3400
 X254.0000
 X254.6350 Z25.3682
 X255.2700 Z25.2717
 X255.9050 Z25.1075
 X256.5400 Z24.8699
 X257.1750 Z24.5493
 X257.8100 Z24.1300
 X258.4450 Z23.5848
 X259.0800 Z22.8600
 X259.7150 Z21.8179
 X260.3500 Z0.0000
 X273.0500
 Y37.6995
 X260.3500
 X259.7150 Z21.8179
 X259.0800 Z22.8600
 X258.4450 Z23.5848
 X257.8100 Z24.1300
 X257.1750 Z24.5493
 X256.5400 Z24.8699
 X255.9050 Z25.1075
 X255.2700 Z25.2717
 X254.6350 Z25.3682
 X254.0000 Z180.3400
 X248.2850
 X247.6500 Z161.2900
 X139.7000
 X139.0650 Z205.7400
 X114.9350
 X114.3000 Z161.2900
 X6.3500
 X5.7150 Z180.3400
 X0.6350
 X0.0000 Z25.4000
 X-0.6350 Z25.3682
 X-1.2700 Z25.2717
 X-1.9050 Z25.1075
 X-2.5400 Z24.8699
 X-3.1750 Z24.5493
 X-3.8100 Z24.1300
 X-4.4450 Z23.5848
 X-5.0800 Z22.8600
 X-5.7150 Z21.8179
 X-6.3500 Z0.0000
 X-19.0500
 X-19.0500 Y38.9581
 X-6.3500
 X-5.7150 Z21.8179
 X-5.0800 Z22.8600
 X-4.4450 Z23.5848
 X-3.8100 Z24.1300
 X-3.1750 Z24.5493
 X-2.5400 Z24.8699
 X-1.9050 Z25.1075
 X-1.2700 Z25.2717
 X-0.6350 Z25.3682
 X-0.0000 Z25.4000
 X0.6350 Z180.3400
 X5.7150
 X6.3500 Z161.2900
 X247.6500
 X248.2850 Z180.3400
 X254.0000
 X254.6350 Z25.3682
 X255.2700 Z25.2717
 X255.9050 Z25.1075
 X256.5400 Z24.8699
 X257.1750 Z24.5493
 X257.8100 Z24.1300
 X258.4450 Z23.5848
 X259.0800 Z22.8600
 X259.7150 Z21.8179
 X260.3500 Z0.0000
 X273.0500
 Y40.2167
 X260.3500
 X259.7150 Z21.8179
 X259.0800 Z22.8600
 X258.4450 Z23.5848
 X257.8100 Z24.1300
 X257.1750 Z24.5493
 X256.5400 Z24.8699
 X255.9050 Z25.1075
 X255.2700 Z25.2717
 X254.6350 Z25.3682
 X254.0000 Z180.3400
 X248.2850
 X247.6500 Z161.2900
 X6.3500
 X5.7150 Z180.3400
 X0.6350
 X0.0000 Z25.4000
 X-0.6350 Z25.3682
 X-1.2700 Z25.2717
 X-1.9050 Z25.1075
 X-2.5400 Z24.8699
 X-3.1750 Z24.5493
 X-3.8100 Z24.1300
 X-4.4450 Z23.5848
 X-5.0800 Z22.8600
 X-5.7150 Z21.8179
 X-6.3500 Z0.0000
 X-19.0500
 X-19.0500 Y41.4752
 X-6.3500
 X-5.7150 Z21.8179
 X-5.0800 Z22.8600
 X-4.4450 Z23.5848
 X-3.8100 Z24.1300
 X-3.1750 Z24.5493
 X-2.5400 Z24.8699
 X-1.9050 Z25.1075
 X-1.2700 Z25.2717
 X-0.6350 Z25.3682
 X-0.0000 Z25.4000
 X0.6350 Z180.3400
 X5.7150
 X6.3500 Z161.2900
 X247.6500
 X248.2850 Z180.3400
 X254.0000
 X254.6350 Z25.3682
 X255.2700 Z25.2717
 X255.9050 Z25.1075
 X256.5400 Z24.8699
 X257.1750 Z24.5493
 X257.8100 Z24.1300
 X258.4450 Z23.5848
 X259.0800 Z22.8600
 X259.7150 Z21.8179
 X260.3500 Z0.0000
 X273.0500
 Y42.7338
 X260.3500
 X259.7150 Z21.8179
 X259.0800 Z22.8600
 X258.4450 Z23.5848
 X257.8100 Z24.1300
 X257.1750 Z24.5493
 X256.5400 Z24.8699
 X255.9050 Z25.1075
 X255.2700 Z25.2717
 X254.6350 Z25.3682
 X254.0000 Z180.3400
 X248.2850
 X247.6500 Z161.2900
 X6.3500
 X5.7150 Z180.3400
 X0.6350
 X0.0000 Z25.4000
 X-0.6350 Z25.3682
 X-1.2700 Z25.2717
 X-1.9050 Z25.1075
 X-2.5400 Z24.8699
 X-3.1750 Z24.5493
 X-3.8100 Z24.1300
 X-4.4450 Z23.5848
 X-5.0800 Z22.8600
 X-5.7150 Z21.8179
 X-6.3500 Z0.0000
 X-19.0500
 X-19.0500 Y43.9923
 X-6.3500
 X-5.7150 Z21.8179
 X-5.0800 Z22.8600
 X-4.4450 Z23.5848
 X-3.8100 Z24.1300
 X-3.1750 Z24.5493
 X-2.5400 Z24.8699
 X-1.9050 Z25.1075
 X-1.2700 Z25.2717
 X-0.6350 Z25.3682
 X-0.0000 Z25.4000
 X0.6350 Z180.3400
 X5.7150
 X6.3500 Z161.2900
 X247.6500
 X248.2850 Z180.3400
 X254.0000
 X254.6350 Z25.3682
 X255.2700 Z25.2717
 X255.9050 Z25.1075
 X256.5400 Z24.8699
 X257.1750 Z24.5493
 X257.8100 Z24.1300
 X258.4450 Z23.5848
 X259.0800 Z22.8600
 X259.7150 Z21.8179
 X260.3500 Z0.0000
 X273.0500
 Y45.2509
 X260.3500
 X259.7150 Z21.8179
 X259.0800 Z22.8600
 X258.4450 Z23.5848
 X257.8100 Z24.1300
 X257.1750 Z24.5493
 X256.5400 Z24.8699
 X255.9050 Z25.1075
 X255.2700 Z25.2717
 X254.6350 Z25.3682
 X254.0000 Z180.3400
 X248.2850
 X247.6500 Z161.2900
 X6.3500
 X5.7150 Z180.3400
 X0.6350
 X0.0000 Z25.4000
 X-0.6350 Z25.3682
 X-1.2700 Z25.2717
 X-1.9050 Z25.1075
 X-2.5400 Z24.8699
 X-3.1750 Z24.5493
 X-3.8100 Z24.1300
 X-4.4450 Z23.5848
 X-5.0800 Z22.8600
 X-5.7150 Z21.8179
 X-6.3500 Z0.0000
 X-19.0500
 X-19.0500 Y46.5095
 X-6.3500
 X-5.7150 Z21.8179
 X-5.0800 Z22.8600
 X-4.4450 Z23.5848
 X-3.8100 Z24.1300
 X-3.1750 Z24.5493
 X-2.5400 Z24.8699
 X-1.9050 Z25.1075
 X-1.2700 Z25.2717
 X-0.6350 Z25.3682
 X-0.0000 Z25.4000
 X0.6350 Z180.3400
 X5.7150
 X6.3500 Z161.2900
 X247.6500
 X248.2850 Z180.3400
 X254.0000
 X254.6350 Z25.3682
 X255.2700 Z25.2717
 X255.9050 Z25.1075
 X256.5400 Z24.8699
 X257.1750 Z24.5493
 X257.8100 Z24.1300
 X258.4450 Z23.5848
 X259.0800 Z22.8600
 X259.7150 Z21.8179
 X260.3500 Z0.0000
 X273.0500
 Y47.7680
 X260.3500
 X259.7150 Z21.8179
 X259.0800 Z22.8600
 X258.4450 Z23.5848
 X257.8100 Z24.1300
 X257.1750 Z24.5493
 X256.5400 Z24.8699
 X255.9050 Z25.1075
 X255.2700 Z25.2717
 X254.6350 Z25.3682
 X254.0000 Z180.3400
 X248.2850
 X247.6500 Z161.2900
 X6.3500
 X5.7150 Z180.3400
 X0.6350
 X0.0000 Z25.4000
 X-0.6350 Z25.3682
 X-1.2700 Z25.2717
 X-1.9050 Z25.1075
 X-2.5400 Z24.8699
 X-3.1750 Z24.5493
 X-3.8100 Z24.1300
 X-4.4450 Z23.5848
 X-5.0800 Z22.8600
 X-5.7150 Z21.8179
 X-6.3500 Z0.0000
 X-19.0500
 X-19.0500 Y49.0266
 X-6.3500
 X-5.7150 Z21.8179
 X-5.0800 Z22.8600
 X-4.4450 Z23.5848
 X-3.8100 Z24.1300
 X-3.1750 Z24.5493
 X-2.5400 Z24.8699
 X-1.9050 Z25.1075
 X-1.2700 Z25.2717
 X-0.6350 Z25.3682
 X-0.0000 Z25.4000
 X0.6350 Z180.3400
 X5.7150
 X6.3500 Z161.2900
 X247.6500
 X248.2850 Z180.3400
 X254.0000
 X254.6350 Z25.3682
 X255.2700 Z25.2717
 X255.9050 Z25.1075
 X256.5400 Z24.8699
 X257.1750 Z24.5493
 X257.8100 Z24.1300
 X258.4450 Z23.5848
 X259.0800 Z22.8600
 X259.7150 Z21.8179
 X260.3500 Z0.0000
 X273.0500
 Y50.2851
 X260.3500
 X259.7150 Z21.8179
 X259.0800 Z22.8600
 X258.4450 Z23.5848
 X257.8100 Z24.1300
 X257.1750 Z24.5493
 X256.5400 Z24.8699
 X255.9050 Z25.1075
 X255.2700 Z25.2717
 X254.6350 Z25.3682
 X254.0000 Z180.3400
 X248.2850
 X247.6500 Z161.2900
 X6.3500
 X5.7150 Z180.3400
 X0.6350
 X0.0000 Z25.4000
 X-0.6350 Z25.3682
 X-1.2700 Z25.2717
 X-1.9050 Z25.1075
 X-2.5400 Z24.8699
 X-3.1750 Z24.5493
 X-3.8100 Z24.1300
 X-4.4450 Z23.5848
 X-5.0800 Z22.8600
 X-5.7150 Z21.8179
 X-6.3500 Z0.0000
 X-19.0500
 X-19.0500 Y51.5437
 X-6.3500
 X-5.7150 Z21.8179
 X-5.0800 Z22.8600
 X-4.4450 Z23.5848
 X-3.8100 Z24.1300
 X-3.1750 Z24.5493
 X-2.5400 Z24.8699
 X-1.9050 Z25.1075
 X-1.2700 Z25.2717
 X-0.6350 Z25.3682
 X-0.0000 Z25.4000
 X0.6350 Z180.3400
 X5.7150
 X6.3500 Z161.2900
 X247.6500
 X248.2850 Z180.3400
 X254.0000
 X254.6350 Z25.3682
 X255.2700 Z25.2717
 X255.9050 Z25.1075
 X256.5400 Z24.8699
 X257.1750 Z24.5493
 X257.8100 Z24.1300
 X258.4450 Z23.5848
 X259.0800 Z22.8600
 X259.7150 Z21.8179
 X260.3500 Z0.0000
 X273.0500
 Y52.8023
 X260.3500
 X259.7150 Z21.8179
 X259.0800 Z22.8600
 X258.4450 Z23.5848
 X257.8100 Z24.1300
 X257.1750 Z24.5493
 X256.5400 Z24.8699
 X255.9050 Z25.1075
 X255.2700 Z25.2717
 X254.6350 Z25.3682
 X254.0000 Z180.3400
 X248.2850
 X247.6500 Z161.2900
 X6.3500
 X5.7150 Z180.3400
 X0.6350
 X0.0000 Z25.4000
 X-0.6350 Z25.3682
 X-1.2700 Z25.2717
 X-1.9050 Z25.1075
 X-2.5400 Z24.8699
 X-3.1750 Z24.5493
 X-3.8100 Z24.1300
 X-4.4450 Z23.5848
 X-5.0800 Z22.8600
 X-5.7150 Z21.8179
 X-6.3500 Z0.0000
 X-19.0500
 X-19.0500 Y54.0608
 X-6.3500
 X-5.7150 Z21.8179
 X-5.0800 Z22.8600
 X-4.4450 Z23.5848
 X-3.8100 Z24.1300
 X-3.1750 Z24.5493
 X-2.5400 Z24.8699
 X-1.9050 Z25.1075
 X-1.2700 Z25.2717
 X-0.6350 Z25.3682
 X-0.0000 Z25.4000
 X0.6350 Z180.3400
 X5.7150
 X6.3500 Z161.2900
 X247.6500
 X248.2850 Z180.3400
 X254.0000
 X254.6350 Z25.3682
 X255.2700 Z25.2717
 X255.9050 Z25.1075
 X256.5400 Z24.8699
 X257.1750 Z24.5493
 X257.8100 Z24.1300
 X258.4450 Z23.5848
 X259.0800 Z22.8600
 X259.7150 Z21.8179
 X260.3500 Z0.0000
 X273.0500
 Y55.3194
 X260.3500
 X259.7150 Z21.8179
 X259.0800 Z22.8600
 X258.4450 Z23.5848
 X257.8100 Z24.1300
 X257.1750 Z24.5493
 X256.5400 Z24.8699
 X255.9050 Z25.1075
 X255.2700 Z25.2717
 X254.6350 Z25.3682
 X254.0000 Z180.3400
 X248.2850
 X247.6500 Z161.2900
 X6.3500
 X5.7150 Z180.3400
 X0.6350
 X0.0000 Z25.4000
 X-0.6350 Z25.3682
 X-1.2700 Z25.2717
 X-1.9050 Z25.1075
 X-2.5400 Z24.8699
 X-3.1750 Z24.5493
 X-3.8100 Z24.1300
 X-4.4450 Z23.5848
 X-5.0800 Z22.8600
 X-5.7150 Z21.8179
 X-6.3500 Z0.0000
 X-19.0500
 X-19.0500 Y56.5779
 X-6.3500
 X-5.7150 Z21.8179
 X-5.0800 Z22.8600
 X-4.4450 Z23.5848
 X-3.8100 Z24.1300
 X-3.1750 Z24.5493
 X-2.5400 Z24.8699
 X-1.9050 Z25.1075
 X-1.2700 Z25.2717
 X-0.6350 Z25.3682
 X-0.0000 Z25.4000
 X0.6350 Z180.3400
 X5.7150
 X6.3500 Z161.2900
 X247.6500
 X248.2850 Z180.3400
 X254.0000
 X254.6350 Z25.3682
 X255.2700 Z25.2717
 X255.9050 Z25.1075
 X256.5400 Z24.8699
 X257.1750 Z24.5493
 X257.8100 Z24.1300
 X258.4450 Z23.5848
 X259.0800 Z22.8600
 X259.7150 Z21.8179
 X260.3500 Z0.0000
 X273.0500
 Y57.8365
 X260.3500
 X259.7150 Z21.8179
 X259.0800 Z22.8600
 X258.4450 Z23.5848
 X257.8100 Z24.1300
 X257.1750 Z24.5493
 X256.5400 Z24.8699
 X255.9050 Z25.1075
 X255.2700 Z25.2717
 X254.6350 Z25.3682
 X254.0000 Z180.3400
 X248.2850
 X247.6500 Z161.2900
 X6.3500
 X5.7150 Z180.3400
 X0.6350
 X0.0000 Z25.4000
 X-0.6350 Z25.3682
 X-1.2700 Z25.2717
 X-1.9050 Z25.1075
 X-2.5400 Z24.8699
 X-3.1750 Z24.5493
 X-3.8100 Z24.1300
 X-4.4450 Z23.5848
 X-5.0800 Z22.8600
 X-5.7150 Z21.8179
 X-6.3500 Z0.0000
 X-19.0500
 X-19.0500 Y59.0950
 X-6.3500
 X-5.7150 Z21.8179
 X-5.0800 Z22.8600
 X-4.4450 Z23.5848
 X-3.8100 Z24.1300
 X-3.1750 Z24.5493
 X-2.5400 Z24.8699
 X-1.9050 Z25.1075
 X-1.2700 Z25.2717
 X-0.6350 Z25.3682
 X-0.0000 Z25.4000
 X0.6350 Z180.3400
 X5.7150
 X6.3500 Z161.2900
 X247.6500
 X248.2850 Z180.3400
 X254.0000
 X254.6350 Z25.3682
 X255.2700 Z25.2717
 X255.9050 Z25.1075
 X256.5400 Z24.8699
 X257.1750 Z24.5493
 X257.8100 Z24.1300
 X258.4450 Z23.5848
 X259.0800 Z22.8600
 X259.7150 Z21.8179
 X260.3500 Z0.0000
 X273.0500
 Y60.3536
 X260.3500
 X259.7150 Z21.8179
 X259.0800 Z22.8600
 X258.4450 Z23.5848
 X257.8100 Z24.1300
 X257.1750 Z24.5493
 X256.5400 Z24.8699
 X255.9050 Z25.1075
 X255.2700 Z25.2717
 X254.6350 Z25.3682
 X254.0000 Z180.3400
 X248.2850
 X247.6500 Z161.2900
 X6.3500
 X5.7150 Z180.3400
 X0.6350
 X0.0000 Z161.2900
 X-0.6350 Z25.3682
 X-1.2700 Z25.2717
 X-1.9050 Z25.1075
 X-2.5400 Z24.8699
 X-3.1750 Z24.5493
 X-3.8100 Z24.1300
 X-4.4450 Z23.5848
 X-5.0800 Z22.8600
 X-5.7150 Z21.8179
 X-6.3500 Z0.0000
 X-19.0500
 X-19.0500 Y61.6122
 X-6.3500
 X-5.7150 Z21.8179
 X-5.0800 Z22.8600
 X-4.4450 Z23.5848
 X-3.8100 Z24.1300
 X-3.1750 Z24.5493
 X-2.5400 Z24.8699
 X-1.9050 Z25.1075
 X-1.2700 Z25.2717
 X-0.6350 Z25.3682
 X-0.0000 Z25.4000
 X0.6350 Z180.3400
 X6.3500
 X6.9850 Z161.2900
 X247.6500
 X248.2850 Z180.3400
 X254.0000
 X254.6350 Z25.3682
 X255.2700 Z25.2717
 X255.9050 Z25.1075
 X256.5400 Z24.8699
 X257.1750 Z24.5493
 X257.8100 Z24.1300
 X258.4450 Z23.5848
 X259.0800 Z22.8600
 X259.7150 Z21.8179
 X260.3500 Z0.0000
 X273.0500
 Y62.8707
 X260.3500
 X259.7150 Z21.8179
 X259.0800 Z22.8600
 X258.4450 Z23.5848
 X257.8100 Z24.1300
 X257.1750 Z24.5493
 X256.5400 Z24.8699
 X255.9050 Z25.1075
 X255.2700 Z25.2717
 X254.6350 Z25.3682
 X254.0000 Z180.3400
 X248.2850
 X247.6500 Z161.2900
 X6.3500
 X5.7150 Z180.3400
 X0.6350
 X0.0000 Z25.4000
 X-0.6350 Z25.3682
 X-1.2700 Z25.2717
 X-1.9050 Z25.1075
 X-2.5400 Z24.8699
 X-3.1750 Z24.5493
 X-3.8100 Z24.1300
 X-4.4450 Z23.5848
 X-5.0800 Z22.8600
 X-5.7150 Z21.8179
 X-6.3500 Z0.0000
 X-19.0500
 X-19.0500 Y64.1293
 X-6.3500
 X-5.7150 Z21.8179
 X-5.0800 Z22.8600
 X-4.4450 Z23.5848
 X-3.8100 Z24.1300
 X-3.1750 Z24.5493
 X-2.5400 Z24.8699
 X-1.9050 Z25.1075
 X-1.2700 Z25.2717
 X-0.6350 Z25.3682
 X-0.0000 Z25.4000
 X0.6350 Z180.3400
 X6.3500
 X6.9850 Z161.2900
 X247.6500
 X248.2850 Z180.3400
 X254.0000
 X254.6350 Z25.3682
 X255.2700 Z25.2717
 X255.9050 Z25.1075
 X256.5400 Z24.8699
 X257.1750 Z24.5493
 X257.8100 Z24.1300
 X258.4450 Z23.5848
 X259.0800 Z22.8600
 X259.7150 Z21.8179
 X260.3500 Z0.0000
 X273.0500
 Y65.3878
 X260.3500
 X259.7150 Z21.8179
 X259.0800 Z22.8600
 X258.4450 Z23.5848
 X257.8100 Z24.1300
 X257.1750 Z24.5493
 X256.5400 Z24.8699
 X255.9050 Z25.1075
 X255.2700 Z25.2717
 X254.6350 Z25.3682
 X254.0000 Z180.3400
 X248.2850
 X247.6500 Z161.2900
 X6.3500
 X5.7150 Z180.3400
 X0.6350
 X0.0000 Z25.4000
 X-0.6350 Z25.3682
 X-1.2700 Z25.2717
 X-1.9050 Z25.1075
 X-2.5400 Z24.8699
 X-3.1750 Z24.5493
 X-3.8100 Z24.1300
 X-4.4450 Z23.5848
 X-5.0800 Z22.8600
 X-5.7150 Z21.8179
 X-6.3500 Z0.0000
 X-19.0500
 X-19.0500 Y66.6464
 X-6.3500
 X-5.7150 Z21.8179
 X-5.0800 Z22.8600
 X-4.4450 Z23.5848
 X-3.8100 Z24.1300
 X-3.1750 Z24.5493
 X-2.5400 Z24.8699
 X-1.9050 Z25.1075
 X-1.2700 Z25.2717
 X-0.6350 Z25.3682
 X-0.0000 Z161.2900
 X0.6350 Z180.3400
 X6.3500
 X6.9850 Z161.2900
 X247.6500
 X248.2850 Z180.3400
 X254.0000
 X254.6350 Z25.3682
 X255.2700 Z25.2717
 X255.9050 Z25.1075
 X256.5400 Z24.8699
 X257.1750 Z24.5493
 X257.8100 Z24.1300
 X258.4450 Z23.5848
 X259.0800 Z22.8600
 X259.7150 Z21.8179
 X260.3500 Z0.0000
 X273.0500
 Y67.9050
 X260.3500
 X259.7150 Z21.8179
 X259.0800 Z22.8600
 X258.4450 Z23.5848
 X257.8100 Z24.1300
 X257.1750 Z24.5493
 X256.5400 Z24.8699
 X255.9050 Z25.1075
 X255.2700 Z25.2717
 X254.6350 Z25.3682
 X254.0000 Z180.3400
 X248.2850
 X247.6500 Z161.2900
 X6.3500
 X5.7150 Z180.3400
 X0.6350
 X0.0000 Z25.4000
 X-0.6350 Z25.3682
 X-1.2700 Z25.2717
 X-1.9050 Z25.1075
 X-2.5400 Z24.8699
 X-3.1750 Z24.5493
 X-3.8100 Z24.1300
 X-4.4450 Z23.5848
 X-5.0800 Z22.8600
 X-5.7150 Z21.8179
 X-6.3500 Z0.0000
 X-19.0500
 X-19.0500 Y69.1635
 X-6.3500
 X-5.7150 Z21.8179
 X-5.0800 Z22.8600
 X-4.4450 Z23.5848
 X-3.8100 Z24.1300
 X-3.1750 Z24.5493
 X-2.5400 Z24.8699
 X-1.9050 Z25.1075
 X-1.2700 Z25.2717
 X-0.6350 Z25.3682
 X-0.0000 Z25.4000
 X0.6350 Z180.3400
 X5.7150
 X6.3500 Z161.2900
 X247.6500
 X248.2850 Z180.3400
 X254.0000
 X254.6350 Z25.3682
 X255.2700 Z25.2717
 X255.9050 Z25.1075
 X256.5400 Z24.8699
 X257.1750 Z24.5493
 X257.8100 Z24.1300
 X258.4450 Z23.5848
 X259.0800 Z22.8600
 X259.7150 Z21.8179
 X260.3500 Z0.0000
 X273.0500
 Y70.4221
 X260.3500
 X259.7150 Z21.8179
 X259.0800 Z22.8600
 X258.4450 Z23.5848
 X257.8100 Z24.1300
 X257.1750 Z24.5493
 X256.5400 Z24.8699
 X255.9050 Z25.1075
 X255.2700 Z25.2717
 X254.6350 Z25.3682
 X254.0000 Z180.3400
 X248.2850
 X247.6500 Z161.2900
 X6.3500
 X5.7150 Z180.3400
 X0.6350
 X0.0000 Z25.4000
 X-0.6350 Z25.3682
 X-1.2700 Z25.2717
 X-1.9050 Z25.1075
 X-2.5400 Z24.8699
 X-3.1750 Z24.5493
 X-3.8100 Z24.1300
 X-4.4450 Z23.5848
 X-5.0800 Z22.8600
 X-5.7150 Z21.8179
 X-6.3500 Z0.0000
 X-19.0500
 X-19.0500 Y71.6806
 X-6.3500
 X-5.7150 Z21.8179
 X-5.0800 Z22.8600
 X-4.4450 Z23.5848
 X-3.8100 Z24.1300
 X-3.1750 Z24.5493
 X-2.5400 Z24.8699
 X-1.9050 Z25.1075
 X-1.2700 Z25.2717
 X-0.6350 Z25.3682
 X-0.0000 Z25.4000
 X0.6350 Z180.3400
 X5.7150
 X6.3500 Z161.2900
 X247.6500
 X248.2850 Z180.3400
 X254.0000
 X254.6350 Z25.3682
 X255.2700 Z25.2717
 X255.9050 Z25.1075
 X256.5400 Z24.8699
 X257.1750 Z24.5493
 X257.8100 Z24.1300
 X258.4450 Z23.5848
 X259.0800 Z22.8600
 X259.7150 Z21.8179
 X260.3500 Z0.0000
 X273.0500
 Y72.9392
 X260.3500
 X259.7150 Z21.8179
 X259.0800 Z22.8600
 X258.4450 Z23.5848
 X257.8100 Z24.1300
 X257.1750 Z24.5493
 X256.5400 Z24.8699
 X255.9050 Z25.1075
 X255.2700 Z25.2717
 X254.6350 Z25.3682
 X254.0000 Z180.3400
 X248.2850
 X247.6500 Z161.2900
 X6.3500
 X5.7150 Z180.3400
 X0.6350
 X0.0000 Z25.4000
 X-0.6350 Z25.3682
 X-1.2700 Z25.2717
 X-1.9050 Z25.1075
 X-2.5400 Z24.8699
 X-3.1750 Z24.5493
 X-3.8100 Z24.1300
 X-4.4450 Z23.5848
 X-5.0800 Z22.8600
 X-5.7150 Z21.8179
 X-6.3500 Z0.0000
 X-19.0500
 X-19.0500 Y74.1977
 X-6.3500
 X-5.7150 Z21.8179
 X-5.0800 Z22.8600
 X-4.4450 Z23.5848
 X-3.8100 Z24.1300
 X-3.1750 Z24.5493
 X-2.5400 Z24.8699
 X-1.9050 Z25.1075
 X-1.2700 Z25.2717
 X-0.6350 Z25.3682
 X-0.0000 Z25.4000
 X0.6350 Z180.3400
 X5.7150
 X6.3500 Z161.2900
 X247.6500
 X248.2850 Z180.3400
 X254.0000
 X254.6350 Z25.3682
 X255.2700 Z25.2717
 X255.9050 Z25.1075
 X256.5400 Z24.8699
 X257.1750 Z24.5493
 X257.8100 Z24.1300
 X258.4450 Z23.5848
 X259.0800 Z22.8600
 X259.7150 Z21.8179
 X260.3500 Z0.0000
 X273.0500
 Y75.4563
 X260.3500
 X259.7150 Z21.8179
 X259.0800 Z22.8600
 X258.4450 Z23.5848
 X257.8100 Z24.1300
 X257.1750 Z24.5493
 X256.5400 Z24.8699
 X255.9050 Z25.1075
 X255.2700 Z25.2717
 X254.6350 Z25.3682
 X254.0000 Z180.3400
 X248.2850
 X247.6500 Z161.2900
 X6.3500
 X5.7150 Z180.3400
 X0.6350
 X0.0000 Z25.4000
 X-0.6350 Z25.3682
 X-1.2700 Z25.2717
 X-1.9050 Z25.1075
 X-2.5400 Z24.8699
 X-3.1750 Z24.5493
 X-3.8100 Z24.1300
 X-4.4450 Z23.5848
 X-5.0800 Z22.8600
 X-5.7150 Z21.8179
 X-6.3500 Z0.0000
 X-19.0500
 X-19.0500 Y76.7149
 X-6.3500
 X-5.7150 Z21.8179
 X-5.0800 Z22.8600
 X-4.4450 Z23.5848
 X-3.8100 Z24.1300
 X-3.1750 Z24.5493
 X-2.5400 Z24.8699
 X-1.9050 Z25.1075
 X-1.2700 Z25.2717
 X-0.6350 Z25.3682
 X-0.0000 Z25.4000
 X0.6350 Z180.3400
 X5.7150
 X6.3500 Z161.2900
 X247.6500
 X248.2850 Z180.3400
 X254.0000
 X254.6350 Z25.3682
 X255.2700 Z25.2717
 X255.9050 Z25.1075
 X256.5400 Z24.8699
 X257.1750 Z24.5493
 X257.8100 Z24.1300
 X258.4450 Z23.5848
 X259.0800 Z22.8600
 X259.7150 Z21.8179
 X260.3500 Z0.0000
 X273.0500
 Y77.9734
 X260.3500
 X259.7150 Z21.8179
 X259.0800 Z22.8600
 X258.4450 Z23.5848
 X257.8100 Z24.1300
 X257.1750 Z24.5493
 X256.5400 Z24.8699
 X255.9050 Z25.1075
 X255.2700 Z25.2717
 X254.6350 Z25.3682
 X254.0000 Z180.3400
 X248.2850
 X247.6500 Z161.2900
 X6.3500
 X5.7150 Z180.3400
 X0.6350
 X0.0000 Z25.4000
 X-0.6350 Z25.3682
 X-1.2700 Z25.2717
 X-1.9050 Z25.1075
 X-2.5400 Z24.8699
 X-3.1750 Z24.5493
 X-3.8100 Z24.1300
 X-4.4450 Z23.5848
 X-5.0800 Z22.8600
 X-5.7150 Z21.8179
 X-6.3500 Z0.0000
 X-19.0500
 X-19.0500 Y79.2320
 X-6.3500
 X-5.7150 Z21.8179
 X-5.0800 Z22.8600
 X-4.4450 Z23.5848
 X-3.8100 Z24.1300
 X-3.1750 Z24.5493
 X-2.5400 Z24.8699
 X-1.9050 Z25.1075
 X-1.2700 Z25.2717
 X-0.6350 Z25.3682
 X-0.0000 Z25.4000
 X0.6350 Z180.3400
 X5.7150
 X6.3500 Z161.2900
 X247.6500
 X248.2850 Z180.3400
 X254.0000
 X254.6350 Z25.3682
 X255.2700 Z25.2717
 X255.9050 Z25.1075
 X256.5400 Z24.8699
 X257.1750 Z24.5493
 X257.8100 Z24.1300
 X258.4450 Z23.5848
 X259.0800 Z22.8600
 X259.7150 Z21.8179
 X260.3500 Z0.0000
 X273.0500
 Y80.4905
 X260.3500
 X259.7150 Z21.8179
 X259.0800 Z22.8600
 X258.4450 Z23.5848
 X257.8100 Z24.1300
 X257.1750 Z24.5493
 X256.5400 Z24.8699
 X255.9050 Z25.1075
 X255.2700 Z25.2717
 X254.6350 Z25.3682
 X254.0000 Z180.3400
 X248.2850
 X247.6500 Z161.2900
 X6.3500
 X5.7150 Z180.3400
 X0.6350
 X0.0000 Z25.4000
 X-0.6350 Z25.3682
 X-1.2700 Z25.2717
 X-1.9050 Z25.1075
 X-2.5400 Z24.8699
 X-3.1750 Z24.5493
 X-3.8100 Z24.1300
 X-4.4450 Z23.5848
 X-5.0800 Z22.8600
 X-5.7150 Z21.8179
 X-6.3500 Z0.0000
 X-19.0500
 X-19.0500 Y81.7491
 X-6.3500
 X-5.7150 Z21.8179
 X-5.0800 Z22.8600
 X-4.4450 Z23.5848
 X-3.8100 Z24.1300
 X-3.1750 Z24.5493
 X-2.5400 Z24.8699
 X-1.9050 Z25.1075
 X-1.2700 Z25.2717
 X-0.6350 Z25.3682
 X-0.0000 Z25.4000
 X0.6350 Z180.3400
 X5.7150
 X6.3500 Z161.2900
 X247.6500
 X248.2850 Z180.3400
 X254.0000
 X254.6350 Z25.3682
 X255.2700 Z25.2717
 X255.9050 Z25.1075
 X256.5400 Z24.8699
 X257.1750 Z24.5493
 X257.8100 Z24.1300
 X258.4450 Z23.5848
 X259.0800 Z22.8600
 X259.7150 Z21.8179
 X260.3500 Z0.0000
 X273.0500
 Y83.0077
 X260.3500
 X259.7150 Z21.8179
 X259.0800 Z22.8600
 X258.4450 Z23.5848
 X257.8100 Z24.1300
 X257.1750 Z24.5493
 X256.5400 Z24.8699
 X255.9050 Z25.1075
 X255.2700 Z25.2717
 X254.6350 Z25.3682
 X254.0000 Z180.3400
 X248.2850
 X247.6500 Z161.2900
 X6.3500
 X5.7150 Z180.3400
 X0.6350
 X0.0000 Z25.4000
 X-0.6350 Z25.3682
 X-1.2700 Z25.2717
 X-1.9050 Z25.1075
 X-2.5400 Z24.8699
 X-3.1750 Z24.5493
 X-3.8100 Z24.1300
 X-4.4450 Z23.5848
 X-5.0800 Z22.8600
 X-5.7150 Z21.8179
 X-6.3500 Z0.0000
 X-19.0500
 X-19.0500 Y84.2662
 X-6.3500
 X-5.7150 Z21.8179
 X-5.0800 Z22.8600
 X-4.4450 Z23.5848
 X-3.8100 Z24.1300
 X-3.1750 Z24.5493
 X-2.5400 Z24.8699
 X-1.9050 Z25.1075
 X-1.2700 Z25.2717
 X-0.6350 Z25.3682
 X-0.0000 Z25.4000
 X0.6350 Z180.3400
 X5.7150
 X6.3500 Z161.2900
 X247.6500
 X248.2850 Z180.3400
 X254.0000
 X254.6350 Z25.3682
 X255.2700 Z25.2717
 X255.9050 Z25.1075
 X256.5400 Z24.8699
 X257.1750 Z24.5493
 X257.8100 Z24.1300
 X258.4450 Z23.5848
 X259.0800 Z22.8600
 X259.7150 Z21.8179
 X260.3500 Z0.0000
 X273.0500
 Y85.5248
 X260.3500
 X259.7150 Z21.8179
 X259.0800 Z22.8600
 X258.4450 Z23.5848
 X257.8100 Z24.1300
 X257.1750 Z24.5493
 X256.5400 Z24.8699
 X255.9050 Z25.1075
 X255.2700 Z25.2717
 X254.6350 Z25.3682
 X254.0000 Z180.3400
 X248.2850
 X247.6500 Z161.2900
 X6.3500
 X5.7150 Z180.3400
 X0.6350
 X0.0000 Z25.4000
 X-0.6350 Z25.3682
 X-1.2700 Z25.2717
 X-1.9050 Z25.1075
 X-2.5400 Z24.8699
 X-3.1750 Z24.5493
 X-3.8100 Z24.1300
 X-4.4450 Z23.5848
 X-5.0800 Z22.8600
 X-5.7150 Z21.8179
 X-6.3500 Z0.0000
 X-19.0500
 X-19.0500 Y86.7833
 X-6.3500
 X-5.7150 Z21.8179
 X-5.0800 Z22.8600
 X-4.4450 Z23.5848
 X-3.8100 Z24.1300
 X-3.1750 Z24.5493
 X-2.5400 Z24.8699
 X-1.9050 Z25.1075
 X-1.2700 Z25.2717
 X-0.6350 Z25.3682
 X-0.0000 Z25.4000
 X0.6350 Z180.3400
 X5.7150
 X6.3500 Z161.2900
 X247.6500
 X248.2850 Z180.3400
 X254.0000
 X254.6350 Z25.3682
 X255.2700 Z25.2717
 X255.9050 Z25.1075
 X256.5400 Z24.8699
 X257.1750 Z24.5493
 X257.8100 Z24.1300
 X258.4450 Z23.5848
 X259.0800 Z22.8600
 X259.7150 Z21.8179
 X260.3500 Z0.0000
 X273.0500
 Y88.0419
 X260.3500
 X259.7150 Z21.8179
 X259.0800 Z22.8600
 X258.4450 Z23.5848
 X257.8100 Z24.1300
 X257.1750 Z24.5493
 X256.5400 Z24.8699
 X255.9050 Z25.1075
 X255.2700 Z25.2717
 X254.6350 Z25.3682
 X254.0000 Z180.3400
 X248.2850
 X247.6500 Z161.2900
 X6.3500
 X5.7150 Z180.3400
 X0.6350
 X0.0000 Z25.4000
 X-0.6350 Z25.3682
 X-1.2700 Z25.2717
 X-1.9050 Z25.1075
 X-2.5400 Z24.8699
 X-3.1750 Z24.5493
 X-3.8100 Z24.1300
 X-4.4450 Z23.5848
 X-5.0800 Z22.8600
 X-5.7150 Z21.8179
 X-6.3500 Z0.0000
 X-19.0500
 X-19.0500 Y89.3005
 X-6.3500
 X-5.7150 Z21.8179
 X-5.0800 Z22.8600
 X-4.4450 Z23.5848
 X-3.8100 Z24.1300
 X-3.1750 Z24.5493
 X-2.5400 Z24.8699
 X-1.9050 Z25.1075
 X-1.2700 Z25.2717
 X-0.6350 Z25.3682
 X-0.0000 Z25.4000
 X0.6350 Z180.3400
 X5.7150
 X6.3500 Z161.2900
 X247.6500
 X248.2850 Z180.3400
 X254.0000
 X254.6350 Z25.3682
 X255.2700 Z25.2717
 X255.9050 Z25.1075
 X256.5400 Z24.8699
 X257.1750 Z24.5493
 X257.8100 Z24.1300
 X258.4450 Z23.5848
 X259.0800 Z22.8600
 X259.7150 Z21.8179
 X260.3500 Z0.0000
 X273.0500
 Y90.5590
 X260.3500
 X259.7150 Z21.8179
 X259.0800 Z22.8600
 X258.4450 Z23.5848
 X257.8100 Z24.1300
 X257.1750 Z24.5493
 X256.5400 Z24.8699
 X255.9050 Z25.1075
 X255.2700 Z25.2717
 X254.6350 Z25.3682
 X254.0000 Z180.3400
 X248.2850
 X247.6500 Z161.2900
 X6.3500
 X5.7150 Z180.3400
 X0.6350
 X0.0000 Z25.4000
 X-0.6350 Z25.3682
 X-1.2700 Z25.2717
 X-1.9050 Z25.1075
 X-2.5400 Z24.8699
 X-3.1750 Z24.5493
 X-3.8100 Z24.1300
 X-4.4450 Z23.5848
 X-5.0800 Z22.8600
 X-5.7150 Z21.8179
 X-6.3500 Z0.0000
 X-19.0500
 X-19.0500 Y91.8176
 X-6.3500
 X-5.7150 Z21.8179
 X-5.0800 Z22.8600
 X-4.4450 Z23.5848
 X-3.8100 Z24.1300
 X-3.1750 Z24.5493
 X-2.5400 Z24.8699
 X-1.9050 Z25.1075
 X-1.2700 Z25.2717
 X-0.6350 Z25.3682
 X-0.0000 Z25.4000
 X0.6350 Z180.3400
 X5.7150
 X6.3500 Z161.2900
 X247.6500
 X248.2850 Z180.3400
 X254.0000
 X254.6350 Z25.3682
 X255.2700 Z25.2717
 X255.9050 Z25.1075
 X256.5400 Z24.8699
 X257.1750 Z24.5493
 X257.8100 Z24.1300
 X258.4450 Z23.5848
 X259.0800 Z22.8600
 X259.7150 Z21.8179
 X260.3500 Z0.0000
 X273.0500
 Y93.0761
 X260.3500
 X259.7150 Z21.8179
 X259.0800 Z22.8600
 X258.4450 Z23.5848
 X257.8100 Z24.1300
 X257.1750 Z24.5493
 X256.5400 Z24.8699
 X255.9050 Z25.1075
 X255.2700 Z25.2717
 X254.6350 Z25.3682
 X254.0000 Z180.3400
 X248.2850
 X247.6500 Z161.2900
 X6.3500
 X5.7150 Z180.3400
 X0.6350
 X0.0000 Z25.4000
 X-0.6350 Z25.3682
 X-1.2700 Z25.2717
 X-1.9050 Z25.1075
 X-2.5400 Z24.8699
 X-3.1750 Z24.5493
 X-3.8100 Z24.1300
 X-4.4450 Z23.5848
 X-5.0800 Z22.8600
 X-5.7150 Z21.8179
 X-6.3500 Z0.0000
 X-19.0500
 X-19.0500 Y94.3347
 X-6.3500
 X-5.7150 Z21.8179
 X-5.0800 Z22.8600
 X-4.4450 Z23.5848
 X-3.8100 Z24.1300
 X-3.1750 Z24.5493
 X-2.5400 Z24.8699
 X-1.9050 Z25.1075
 X-1.2700 Z25.2717
 X-0.6350 Z25.3682
 X-0.0000 Z25.4000
 X0.6350 Z180.3400
 X5.7150
 X6.3500 Z161.2900
 X247.6500
 X248.2850 Z180.3400
 X254.0000
 X254.6350 Z25.3682
 X255.2700 Z25.2717
 X255.9050 Z25.1075
 X256.5400 Z24.8699
 X257.1750 Z24.5493
 X257.8100 Z24.1300
 X258.4450 Z23.5848
 X259.0800 Z22.8600
 X259.7150 Z21.8179
 X260.3500 Z0.0000
 X273.0500
 Y95.5932
 X260.3500
 X259.7150 Z21.8179
 X259.0800 Z22.8600
 X258.4450 Z23.5848
 X257.8100 Z24.1300
 X257.1750 Z24.5493
 X256.5400 Z24.8699
 X255.9050 Z25.1075
 X255.2700 Z25.2717
 X254.6350 Z25.3682
 X254.0000 Z180.3400
 X248.2850
 X247.6500 Z161.2900
 X6.3500
 X5.7150 Z180.3400
 X0.6350
 X0.0000 Z25.4000
 X-0.6350 Z25.3682
 X-1.2700 Z25.2717
 X-1.9050 Z25.1075
 X-2.5400 Z24.8699
 X-3.1750 Z24.5493
 X-3.8100 Z24.1300
 X-4.4450 Z23.5848
 X-5.0800 Z22.8600
 X-5.7150 Z21.8179
 X-6.3500 Z0.0000
 X-19.0500
 X-19.0500 Y96.8518
 X-6.3500
 X-5.7150 Z21.8179
 X-5.0800 Z22.8600
 X-4.4450 Z23.5848
 X-3.8100 Z24.1300
 X-3.1750 Z24.5493
 X-2.5400 Z24.8699
 X-1.9050 Z25.1075
 X-1.2700 Z25.2717
 X-0.6350 Z25.3682
 X-0.0000 Z25.4000
 X0.6350 Z180.3400
 X5.7150
 X6.3500 Z161.2900
 X247.6500
 X248.2850 Z180.3400
 X254.0000
 X254.6350 Z25.3682
 X255.2700 Z25.2717
 X255.9050 Z25.1075
 X256.5400 Z24.8699
 X257.1750 Z24.5493
 X257.8100 Z24.1300
 X258.4450 Z23.5848
 X259.0800 Z22.8600
 X259.7150 Z21.8179
 X260.3500 Z0.0000
 X273.0500
 Y98.1104
 X260.3500
 X259.7150 Z21.8179
 X259.0800 Z22.8600
 X258.4450 Z23.5848
 X257.8100 Z24.1300
 X257.1750 Z24.5493
 X256.5400 Z24.8699
 X255.9050 Z25.1075
 X255.2700 Z25.2717
 X254.6350 Z25.3682
 X254.0000 Z180.3400
 X248.2850
 X247.6500 Z161.2900
 X6.3500
 X5.7150 Z180.3400
 X0.6350
 X0.0000 Z25.4000
 X-0.6350 Z25.3682
 X-1.2700 Z25.2717
 X-1.9050 Z25.1075
 X-2.5400 Z24.8699
 X-3.1750 Z24.5493
 X-3.8100 Z24.1300
 X-4.4450 Z23.5848
 X-5.0800 Z22.8600
 X-5.7150 Z21.8179
 X-6.3500 Z0.0000
 X-19.0500
 X-19.0500 Y99.3689
 X-6.3500
 X-5.7150 Z21.8179
 X-5.0800 Z22.8600
 X-4.4450 Z23.5848
 X-3.8100 Z24.1300
 X-3.1750 Z24.5493
 X-2.5400 Z24.8699
 X-1.9050 Z25.1075
 X-1.2700 Z25.2717
 X-0.6350 Z25.3682
 X-0.0000 Z25.4000
 X0.6350 Z180.3400
 X5.7150
 X6.3500 Z161.2900
 X247.6500
 X248.2850 Z180.3400
 X254.0000
 X254.6350 Z25.3682
 X255.2700 Z25.2717
 X255.9050 Z25.1075
 X256.5400 Z24.8699
 X257.1750 Z24.5493
 X257.8100 Z24.1300
 X258.4450 Z23.5848
 X259.0800 Z22.8600
 X259.7150 Z21.8179
 X260.3500 Z0.0000
 X273.0500
 Y100.6275
 X260.3500
 X259.7150 Z21.8179
 X259.0800 Z22.8600
 X258.4450 Z23.5848
 X257.8100 Z24.1300
 X257.1750 Z24.5493
 X256.5400 Z24.8699
 X255.9050 Z25.1075
 X255.2700 Z25.2717
 X254.6350 Z25.3682
 X254.0000 Z180.3400
 X248.2850
 X247.6500 Z161.2900
 X6.3500
 X5.7150 Z180.3400
 X0.6350
 X0.0000 Z25.4000
 X-0.6350 Z25.3682
 X-1.2700 Z25.2717
 X-1.9050 Z25.1075
 X-2.5400 Z24.8699
 X-3.1750 Z24.5493
 X-3.8100 Z24.1300
 X-4.4450 Z23.5848
 X-5.0800 Z22.8600
 X-5.7150 Z21.8179
 X-6.3500 Z0.0000
 X-19.0500
 X-19.0500 Y101.8860
 X-6.3500
 X-5.7150 Z21.8179
 X-5.0800 Z22.8600
 X-4.4450 Z23.5848
 X-3.8100 Z24.1300
 X-3.1750 Z24.5493
 X-2.5400 Z24.8699
 X-1.9050 Z25.1075
 X-1.2700 Z25.2717
 X-0.6350 Z25.3682
 X-0.0000 Z25.4000
 X0.6350 Z180.3400
 X5.7150
 X6.3500 Z161.2900
 X247.6500
 X248.2850 Z180.3400
 X254.0000
 X254.6350 Z25.3682
 X255.2700 Z25.2717
 X255.9050 Z25.1075
 X256.5400 Z24.8699
 X257.1750 Z24.5493
 X257.8100 Z24.1300
 X258.4450 Z23.5848
 X259.0800 Z22.8600
 X259.7150 Z21.8179
 X260.3500 Z0.0000
 X273.0500
 Y103.1446
 X260.3500
 X259.7150 Z21.8179
 X259.0800 Z22.8600
 X258.4450 Z23.5848
 X257.8100 Z24.1300
 X257.1750 Z24.5493
 X256.5400 Z24.8699
 X255.9050 Z25.1075
 X255.2700 Z25.2717
 X254.6350 Z25.3682
 X254.0000 Z180.3400
 X248.2850
 X247.6500 Z161.2900
 X6.3500
 X5.7150 Z180.3400
 X0.6350
 X0.0000 Z25.4000
 X-0.6350 Z25.3682
 X-1.2700 Z25.2717
 X-1.9050 Z25.1075
 X-2.5400 Z24.8699
 X-3.1750 Z24.5493
 X-3.8100 Z24.1300
 X-4.4450 Z23.5848
 X-5.0800 Z22.8600
 X-5.7150 Z21.8179
 X-6.3500 Z0.0000
 X-19.0500
 X-19.0500 Y104.4032
 X-6.3500
 X-5.7150 Z21.8179
 X-5.0800 Z22.8600
 X-4.4450 Z23.5848
 X-3.8100 Z24.1300
 X-3.1750 Z24.5493
 X-2.5400 Z24.8699
 X-1.9050 Z25.1075
 X-1.2700 Z25.2717
 X-0.6350 Z25.3682
 X-0.0000 Z25.4000
 X0.6350 Z180.3400
 X5.7150
 X6.3500 Z161.2900
 X247.6500
 X248.2850 Z180.3400
 X254.0000
 X254.6350 Z25.3682
 X255.2700 Z25.2717
 X255.9050 Z25.1075
 X256.5400 Z24.8699
 X257.1750 Z24.5493
 X257.8100 Z24.1300
 X258.4450 Z23.5848
 X259.0800 Z22.8600
 X259.7150 Z21.8179
 X260.3500 Z0.0000
 X273.0500
 Y105.6617
 X260.3500
 X259.7150 Z21.8179
 X259.0800 Z22.8600
 X258.4450 Z23.5848
 X257.8100 Z24.1300
 X257.1750 Z24.5493
 X256.5400 Z24.8699
 X255.9050 Z25.1075
 X255.2700 Z25.2717
 X254.6350 Z25.3682
 X254.0000 Z180.3400
 X248.2850
 X247.6500 Z161.2900
 X6.3500
 X5.7150 Z180.3400
 X0.6350
 X0.0000 Z25.4000
 X-0.6350 Z25.3682
 X-1.2700 Z25.2717
 X-1.9050 Z25.1075
 X-2.5400 Z24.8699
 X-3.1750 Z24.5493
 X-3.8100 Z24.1300
 X-4.4450 Z23.5848
 X-5.0800 Z22.8600
 X-5.7150 Z21.8179
 X-6.3500 Z0.0000
 X-19.0500
 X-19.0500 Y106.9203
 X-6.3500
 X-5.7150 Z21.8179
 X-5.0800 Z22.8600
 X-4.4450 Z23.5848
 X-3.8100 Z24.1300
 X-3.1750 Z24.5493
 X-2.5400 Z24.8699
 X-1.9050 Z25.1075
 X-1.2700 Z25.2717
 X-0.6350 Z25.3682
 X-0.0000 Z25.4000
 X0.6350 Z180.3400
 X5.7150
 X6.3500 Z161.2900
 X247.6500
 X248.2850 Z180.3400
 X254.0000
 X254.6350 Z25.3682
 X255.2700 Z25.2717
 X255.9050 Z25.1075
 X256.5400 Z24.8699
 X257.1750 Z24.5493
 X257.8100 Z24.1300
 X258.4450 Z23.5848
 X259.0800 Z22.8600
 X259.7150 Z21.8179
 X260.3500 Z0.0000
 X273.0500
 Y108.1788
 X260.3500
 X259.7150 Z21.8179
 X259.0800 Z22.8600
 X258.4450 Z23.5848
 X257.8100 Z24.1300
 X257.1750 Z24.5493
 X256.5400 Z24.8699
 X255.9050 Z25.1075
 X255.2700 Z25.2717
 X254.6350 Z25.3682
 X254.0000 Z180.3400
 X248.2850
 X247.6500 Z161.2900
 X6.3500
 X5.7150 Z180.3400
 X0.6350
 X0.0000 Z25.4000
 X-0.6350 Z25.3682
 X-1.2700 Z25.2717
 X-1.9050 Z25.1075
 X-2.5400 Z24.8699
 X-3.1750 Z24.5493
 X-3.8100 Z24.1300
 X-4.4450 Z23.5848
 X-5.0800 Z22.8600
 X-5.7150 Z21.8179
 X-6.3500 Z0.0000
 X-19.0500
 X-19.0500 Y109.4374
 X-6.3500
 X-5.7150 Z21.8179
 X-5.0800 Z22.8600
 X-4.4450 Z23.5848
 X-3.8100 Z24.1300
 X-3.1750 Z24.5493
 X-2.5400 Z24.8699
 X-1.9050 Z25.1075
 X-1.2700 Z25.2717
 X-0.6350 Z25.3682
 X-0.0000 Z25.4000
 X0.6350 Z180.3400
 X5.7150
 X6.3500 Z161.2900
 X247.6500
 X248.2850 Z180.3400
 X254.0000
 X254.6350 Z25.3682
 X255.2700 Z25.2717
 X255.9050 Z25.1075
 X256.5400 Z24.8699
 X257.1750 Z24.5493
 X257.8100 Z24.1300
 X258.4450 Z23.5848
 X259.0800 Z22.8600
 X259.7150 Z21.8179
 X260.3500 Z0.0000
 X273.0500
 Y110.6959
 X260.3500
 X259.7150 Z21.8179
 X259.0800 Z22.8600
 X258.4450 Z23.5848
 X257.8100 Z24.1300
 X257.1750 Z24.5493
 X256.5400 Z24.8699
 X255.9050 Z25.1075
 X255.2700 Z25.2717
 X254.6350 Z25.3682
 X254.0000 Z180.3400
 X248.2850
 X247.6500 Z161.2900
 X6.3500
 X5.7150 Z180.3400
 X0.6350
 X0.0000 Z25.4000
 X-0.6350 Z25.3682
 X-1.2700 Z25.2717
 X-1.9050 Z25.1075
 X-2.5400 Z24.8699
 X-3.1750 Z24.5493
 X-3.8100 Z24.1300
 X-4.4450 Z23.5848
 X-5.0800 Z22.8600
 X-5.7150 Z21.8179
 X-6.3500 Z0.0000
 X-19.0500
 X-19.0500 Y111.9545
 X-6.3500
 X-5.7150 Z21.8179
 X-5.0800 Z22.8600
 X-4.4450 Z23.5848
 X-3.8100 Z24.1300
 X-3.1750 Z24.5493
 X-2.5400 Z24.8699
 X-1.9050 Z25.1075
 X-1.2700 Z25.2717
 X-0.6350 Z25.3682
 X-0.0000 Z25.4000
 X0.6350 Z180.3400
 X5.7150
 X6.3500 Z161.2900
 X247.6500
 X248.2850 Z180.3400
 X254.0000
 X254.6350 Z25.3682
 X255.2700 Z25.2717
 X255.9050 Z25.1075
 X256.5400 Z24.8699
 X257.1750 Z24.5493
 X257.8100 Z24.1300
 X258.4450 Z23.5848
 X259.0800 Z22.8600
 X259.7150 Z21.8179
 X260.3500 Z0.0000
 X273.0500
 Y113.2131
 X260.3500
 X259.7150 Z21.8179
 X259.0800 Z22.8600
 X258.4450 Z23.5848
 X257.8100 Z24.1300
 X257.1750 Z24.5493
 X256.5400 Z24.8699
 X255.9050 Z25.1075
 X255.2700 Z25.2717
 X254.6350 Z25.3682
 X254.0000 Z180.3400
 X248.2850
 X247.6500 Z161.2900
 X6.3500
 X5.7150 Z180.3400
 X0.6350
 X0.0000 Z25.4000
 X-0.6350 Z25.3682
 X-1.2700 Z25.2717
 X-1.9050 Z25.1075
 X-2.5400 Z24.8699
 X-3.1750 Z24.5493
 X-3.8100 Z24.1300
 X-4.4450 Z23.5848
 X-5.0800 Z22.8600
 X-5.7150 Z21.8179
 X-6.3500 Z0.0000
 X-19.0500
 X-19.0500 Y114.4716
 X-6.3500
 X-5.7150 Z21.8179
 X-5.0800 Z22.8600
 X-4.4450 Z23.5848
 X-3.8100 Z24.1300
 X-3.1750 Z24.5493
 X-2.5400 Z24.8699
 X-1.9050 Z25.1075
 X-1.2700 Z25.2717
 X-0.6350 Z25.3682
 X-0.0000 Z25.4000
 X0.6350 Z180.3400
 X5.7150
 X6.3500 Z161.2900
 X247.6500
 X248.2850 Z180.3400
 X254.0000
 X254.6350 Z25.3682
 X255.2700 Z25.2717
 X255.9050 Z25.1075
 X256.5400 Z24.8699
 X257.1750 Z24.5493
 X257.8100 Z24.1300
 X258.4450 Z23.5848
 X259.0800 Z22.8600
 X259.7150 Z21.8179
 X260.3500 Z0.0000
 X273.0500
 Y115.7302
 X260.3500
 X259.7150 Z21.8179
 X259.0800 Z22.8600
 X258.4450 Z23.5848
 X257.8100 Z24.1300
 X257.1750 Z24.5493
 X256.5400 Z24.8699
 X255.9050 Z25.1075
 X255.2700 Z25.2717
 X254.6350 Z25.3682
 X254.0000 Z180.3400
 X248.2850
 X247.6500 Z161.2900
 X6.3500
 X5.7150 Z180.3400
 X0.6350
 X0.0000 Z25.4000
 X-0.6350 Z25.3682
 X-1.2700 Z25.2717
 X-1.9050 Z25.1075
 X-2.5400 Z24.8699
 X-3.1750 Z24.5493
 X-3.8100 Z24.1300
 X-4.4450 Z23.5848
 X-5.0800 Z22.8600
 X-5.7150 Z21.8179
 X-6.3500 Z0.0000
 X-19.0500
 X-19.0500 Y116.9887
 X-6.3500
 X-5.7150 Z21.8179
 X-5.0800 Z22.8600
 X-4.4450 Z23.5848
 X-3.8100 Z24.1300
 X-3.1750 Z24.5493
 X-2.5400 Z24.8699
 X-1.9050 Z25.1075
 X-1.2700 Z25.2717
 X-0.6350 Z25.3682
 X-0.0000 Z25.4000
 X0.6350 Z180.3400
 X5.7150
 X6.3500 Z161.2900
 X247.6500
 X248.2850 Z180.3400
 X254.0000
 X254.6350 Z25.3682
 X255.2700 Z25.2717
 X255.9050 Z25.1075
 X256.5400 Z24.8699
 X257.1750 Z24.5493
 X257.8100 Z24.1300
 X258.4450 Z23.5848
 X259.0800 Z22.8600
 X259.7150 Z21.8179
 X260.3500 Z0.0000
 X273.0500
 Y118.2473
 X260.3500
 X259.7150 Z21.8179
 X259.0800 Z22.8600
 X258.4450 Z23.5848
 X257.8100 Z24.1300
 X257.1750 Z24.5493
 X256.5400 Z24.8699
 X255.9050 Z25.1075
 X255.2700 Z25.2717
 X254.6350 Z25.3682
 X254.0000 Z180.3400
 X248.2850
 X247.6500 Z161.2900
 X6.3500
 X5.7150 Z180.3400
 X0.6350
 X0.0000 Z25.4000
 X-0.6350 Z25.3682
 X-1.2700 Z25.2717
 X-1.9050 Z25.1075
 X-2.5400 Z24.8699
 X-3.1750 Z24.5493
 X-3.8100 Z24.1300
 X-4.4450 Z23.5848
 X-5.0800 Z22.8600
 X-5.7150 Z21.8179
 X-6.3500 Z0.0000
 X-19.0500
 X-19.0500 Y119.5059
 X-6.3500
 X-5.7150 Z21.8179
 X-5.0800 Z22.8600
 X-4.4450 Z23.5848
 X-3.8100 Z24.1300
 X-3.1750 Z24.5493
 X-2.5400 Z24.8699
 X-1.9050 Z25.1075
 X-1.2700 Z25.2717
 X-0.6350 Z25.3682
 X-0.0000 Z25.4000
 X0.6350 Z180.3400
 X6.3500
 X6.9850 Z161.2900
 X247.6500
 X248.2850 Z180.3400
 X254.0000
 X254.6350 Z25.3682
 X255.2700 Z25.2717
 X255.9050 Z25.1075
 X256.5400 Z24.8699
 X257.1750 Z24.5493
 X257.8100 Z24.1300
 X258.4450 Z23.5848
 X259.0800 Z22.8600
 X259.7150 Z21.8179
 X260.3500 Z0.0000
 X273.0500
 Y120.7644
 X260.3500
 X259.7150 Z21.8179
 X259.0800 Z22.8600
 X258.4450 Z23.5848
 X257.8100 Z24.1300
 X257.1750 Z24.5493
 X256.5400 Z24.8699
 X255.9050 Z25.1075
 X255.2700 Z25.2717
 X254.6350 Z25.3682
 X254.0000 Z180.3400
 X0.6350
 X0.0000 Z25.4000
 X-0.6350 Z25.3682
 X-1.2700 Z25.2717
 X-1.9050 Z25.1075
 X-2.5400 Z24.8699
 X-3.1750 Z24.5493
 X-3.8100 Z24.1300
 X-4.4450 Z23.5848
 X-5.0800 Z22.8600
 X-5.7150 Z21.8179
 X-6.3500 Z0.0000
 X-19.0500
 X-19.0500 Y122.0230
 X-6.3500
 X-5.7150 Z21.8179
 X-5.0800 Z22.8600
 X-4.4450 Z23.5848
 X-3.8100 Z24.1300
 X-3.1750 Z24.5493
 X-2.5400 Z24.8699
 X-1.9050 Z25.1075
 X-1.2700 Z25.2717
 X-0.6350 Z25.3682
 X-0.0000 Z25.4000
 X0.6350 Z180.3400
 X253.3650
 X254.0000 Z161.2900
 X254.6350 Z25.3682
 X255.2700 Z25.2717
 X255.9050 Z25.1075
 X256.5400 Z24.8699
 X257.1750 Z24.5493
 X257.8100 Z24.1300
 X258.4450 Z23.5848
 X259.0800 Z22.8600
 X259.7150 Z21.8179
 X260.3500 Z0.0000
 X273.0500
 Y123.2815
 X260.3500
 X259.7150 Z21.8179
 X259.0800 Z22.8600
 X258.4450 Z23.5848
 X257.8100 Z24.1300
 X257.1750 Z24.5493
 X256.5400 Z24.8699
 X255.9050 Z25.1075
 X255.2700 Z25.2717
 X254.6350 Z25.3682
 X254.0000 Z161.2900
 X253.3650 Z180.3400
 X0.6350
 X0.0000 Z25.4000
 X-0.6350 Z25.3682
 X-1.2700 Z25.2717
 X-1.9050 Z25.1075
 X-2.5400 Z24.8699
 X-3.1750 Z24.5493
 X-3.8100 Z24.1300
 X-4.4450 Z23.5848
 X-5.0800 Z22.8600
 X-5.7150 Z21.8179
 X-6.3500 Z0.0000
 X-19.0500
 X-19.0500 Y124.5401
 X-6.3500
 X-5.7150 Z21.8179
 X-5.0800 Z22.8600
 X-4.4450 Z23.5848
 X-3.8100 Z24.1300
 X-3.1750 Z24.5493
 X-2.5400 Z24.8699
 X-1.9050 Z25.1075
 X-1.2700 Z25.2717
 X-0.6350 Z25.3682
 X-0.0000 Z25.4000
 X0.6350 Z180.3400
 X253.3650
 X254.0000 Z161.2900
 X254.6350 Z25.3682
 X255.2700 Z25.2717
 X255.9050 Z25.1075
 X256.5400 Z24.8699
 X257.1750 Z24.5493
 X257.8100 Z24.1300
 X258.4450 Z23.5848
 X259.0800 Z22.8600
 X259.7150 Z21.8179
 X260.3500 Z0.0000
 X273.0500
 Y125.7986
 X260.3500
 X259.7150 Z21.8179
 X259.0800 Z22.8600
 X258.4450 Z23.5848
 X257.8100 Z24.1300
 X257.1750 Z24.5493
 X256.5400 Z24.8699
 X255.9050 Z25.1075
 X255.2700 Z25.2717
 X254.6350 Z25.3682
 X254.0000 Z25.4000
 X253.3650 Z180.3400
 X0.6350
 X0.0000 Z25.4000
 X-0.6350 Z25.3682
 X-1.2700 Z25.2717
 X-1.9050 Z25.1075
 X-2.5400 Z24.8699
 X-3.1750 Z24.5493
 X-3.8100 Z24.1300
 X-4.4450 Z23.5848
 X-5.0800 Z22.8600
 X-5.7150 Z21.8179
 X-6.3500 Z0.0000
 X-19.0500
 X-19.0500 Y127.0572
 X-6.3500
 X-5.7150 Z21.8173
 X-5.0800 Z22.8596
 X-4.4450 Z23.5844
 X-3.8100 Z24.1297
 X-3.1750 Z24.5490
 X-2.5400 Z24.8696
 X-1.9050 Z25.1072
 X-1.2700 Z25.2714
 X-0.6350 Z25.3679
 X-0.0000 Z25.3997
 X254.0000
 X254.6350 Z25.3679
 X255.2700 Z25.2714
 X255.9050 Z25.1072
 X256.5400 Z24.8696
 X257.1750 Z24.5490
 X257.8100 Z24.1297
 X258.4450 Z23.5844
 X259.0800 Z22.8596
 X259.7150 Z21.8173
 X260.3500 Z0.0000
 X273.0500
 Y128.3158
 X260.3500
 X259.7150 Z21.4852
 X259.0800 Z22.6256
 X258.4450 Z23.3897
 X257.8100 Z23.9566
 X257.1750 Z24.3895
 X256.5400 Z24.7192
 X255.9050 Z24.9629
 X255.2700 Z25.1310
 X254.6350 Z25.2296
 X254.0000 Z25.2622
 X0.0000
 X-0.6350 Z25.2296
 X-1.2700 Z25.1310
 X-1.9050 Z24.9629
 X-2.5400 Z24.7192
 X-3.1750 Z24.3895
 X-3.8100 Z23.9566
 X-4.4450 Z23.3897
 X-5.0800 Z22.6256
 X-5.7150 Z21.4852
 X-6.3500 Z0.0000
 X-19.0500
 X-19.0500 Y129.5743
 X-6.3500
 X-5.7150 Z20.0669
 X-5.0800 Z21.8587
 X-4.4450 Z22.7833
 X-3.8100 Z23.4294
 X-3.1750 Z23.9095
 X-2.5400 Z24.2696
 X-1.9050 Z24.5333
 X-1.2700 Z24.7141
 X-0.6350 Z24.8199
 X-0.0000 Z24.8548
 X254.0000
 X254.6350 Z24.8199
 X255.2700 Z24.7141
 X255.9050 Z24.5333
 X256.5400 Z24.2696
 X257.1750 Z23.9095
 X257.8100 Z23.4294
 X258.4450 Z22.7833
 X259.0800 Z21.8587
 X259.7150 Z20.0669
 X260.3500 Z0.0000
 X273.0500
 Y130.8329
 X259.0800
 X258.4450 Z21.4735
 X257.8100 Z22.3840
 X257.1750 Z22.9935
 X256.5400 Z23.4295
 X255.9050 Z23.7407
 X255.2700 Z23.9509
 X254.6350 Z24.0728
 X254.0000 Z24.1128
 X0.0000
 X-0.6350 Z24.0728
 X-1.2700 Z23.9509
 X-1.9050 Z23.7407
 X-2.5400 Z23.4295
 X-3.1750 Z22.9935
 X-3.8100 Z22.3840
 X-4.4450 Z21.4735
 X-5.0800 Z0.0000
 X-19.0500
 X-19.0500 Y132.0914
 X-3.8100
 X-3.1750 Z21.1282
 X-2.5400 Z21.8692
 X-1.9050 Z22.3319
 X-1.2700 Z22.6259
 X-0.6350 Z22.7912
 X-0.0000 Z22.8447
 X254.0000
 X254.6350 Z22.7912
 X255.2700 Z22.6259
 X255.9050 Z22.3319
 X256.5400 Z21.8692
 X257.1750 Z21.1282
 X257.8100 Z0.0000
 X273.0500
 Y133.3500
 X254.6350
 X254.0000 Z19.0500
 X253.3650 Z0.0000
 X130.8100
 X130.1750 Z19.0500
 X129.5400 Z0.0000
 X124.4600
 X123.8250 Z19.0500
 X123.1900 Z0.0000
 X0.6350
 X0.0000 Z19.0500
 X-0.6350 Z0.0000
 X-19.0500
G00 Z25.0000
M5 (stop spindle)

M2 (end program)
